luts/AgX_Base_Rec2100-HLG_p3_lim.cube
TITLE "AgX_Formation Rec.2100 HLG P3 limited"
# AgX Base Rec.2100 HLG Formation P3 Limited LUT
# This LUT expects input to be E Gamut Log2 encoding from -10 stops to +15 stops
# But the end image formation will be from -10 to 6.5 encoded in power 2.4
# Rec.709 generated parameters rotate = [3.0, -1, -2.0], inset = [0.4, 0.22, 0.13], outset = [0.4, 0.22, 0.04]
#  Same inset matrix can be generated in Rec.2020 with rotation [2.13976149, -1.22827335, -3.05174246], Inset: [0.32965205, 0.28051336, 0.12475368], outset = [0.32317438, 0.28325605, 0.0374326]
# The image formed has 40% per-channel shifts
# HDR max nits is 1000, SDR max nits is 203
LUT_3D_SIZE 5
0.0000079 0.0000036 0.0000306
0.1383042 0.0410661 0
0.7708821 0.3556393 0.2147132
1 0.9743831 0.9464579
1 1 1
0.0609545 0.1313625 0.0446841
0.1381187 0.1355223 0.0173528
0.7706089 0.3712963 0.216069
1 0.97443 0.9464656
1 1 1
0.4156161 0.7522135 0.292035
0.4157911 0.7529996 0.2713491
0.7635403 0.7574015 0.3018143
1 0.9779081 0.9470497
1 1 1
0.9670298 1 0.9274302
0.9670836 1 0.9274442
0.9710715 1 0.9284997
1 1 0.9812794
1 1 1
1 1 1
1 1 1
1 1 1
1 1 1
1 1 1
0.03264 0.0398747 0.126523
0.1320186 0.0525 0.1393139
0.7721695 0.3402376 0.2145133
1 0.9743425 0.9464574
1 1 1
0.0676585 0.1328828 0.1379143
0.1287822 0.1287816 0.1287912
0.7718042 0.3568583 0.2158155
1 0.9743894 0.946465
1 1 1
0.4147826 0.7508163 0.3103991
0.4149546 0.7515867 0.2916227
0.7626225 0.7564749 0.3003408
1 0.9778697 0.9470487
1 1 1
0.9669718 1 0.9274113
0.9670256 1 0.9274252
0.9710169 1 0.9284811
1 1 0.9812731
1 1 1
1 1 1
1 1 1
1 1 1
1 1 1
1 1 1
0.2728991 0.3179846 0.7467552
0.289553 0.321064 0.7483999
0.7523174 0.4388751 0.7700955
1 0.971158 0.9464587
1 1 1
0.2618844 0.3223475 0.7523029
0.2795109 0.3252718 0.7537578
0.7528003 0.4396391 0.7705661
1 0.9712074 0.9464658
1 1 1
0.4538399 0.7501283 0.7635109
0.4530942 0.7494815 0.7628722
0.741868 0.7418666 0.7418881
1 0.9748645 0.947007
1 1 1
0.9623745 1 0.9259531
0.9624323 1 0.9259673
0.9667063 1 0.9270439
1 1 0.9807916
1 1 1
1 1 1
1 1 1
1 1 1
1 1 1
1 1 1
0.9243084 0.9400557 1
0.9244253 0.9401005 1
0.9328765 0.9433966 1
1 1 1
1 1 1
0.9242449 0.9400611 1
0.924362 0.9401059 1
0.932822 0.9434028 1
1 1 1
1 1 1
0.9189721 0.9403922 1
0.9191002 0.9404382 1
0.9283142 0.9438114 1
1 1 1
1 1 1
0.9747902 1 1
0.9747859 1 1
0.9744542 1 1
1 1 1
1 1 1
1 1 1
1 1 1
1 1 1
1 1 1
1 1 1
1 1 1
1 1 1
1 1 1
1 1 1
1 1 1
1 1 1
1 1 1
1 1 1
1 1 1
1 1 1
1 1 1
1 1 1
1 1 1
1 1 1
1 1 1
1 1 1
1 1 1
1 1 1
1 1 1
1 1 1
1 1 1
1 1 1
1 1 1
1 1 1
1 1 1
