luts/AgX_Base_Rec2100-HLG.cube
TITLE "AgX_Formation_Rec2100HLG"
# AgX Base Rec.2020 Formation LUT
# This LUT expects input to be E Gamut Log2 encoding from -10 stops to +15 stops
# But the end image formation will be Rec2100-HLG
#  rotate = [3.0, -1, -2.0], inset = [0.4, 0.22, 0.13], outset = [0.4, 0.22, 0.04]
# The image formed has 40% per-channel shifts
LUT_3D_SIZE 8
0 0 0
0.0405216 0 0
0.1424868 0.0349806 0
0.5118258 0.1348676 0
0.8962388 0.6857234 0.6259550
1 0.9662938 0.9599692
1 0.9988111 0.9986015
0.9994738 1 0.9983505
0 0.0360934 0
0.0382994 0.0373252 0
0.1417292 0.0525968 0
0.5120332 0.1397711 0
0.8962281 0.6860412 0.6260192
1 0.9662976 0.9599704
1 0.9988112 0.9986015
0.9994738 1 0.9983505
0.0390011 0.1354647 0
0.0547577 0.1354309 0
0.1388293 0.1361688 0
0.5141257 0.1886316 0
0.8961025 0.6897568 0.6267784
1 0.9663416 0.9599850
1 0.9988113 0.9986016
0.9994738 1 0.9983505
0.1496965 0.4914777 0
0.1539651 0.4916470 0
0.1979934 0.4936491 0
0.5212303 0.5108386 0
0.8947632 0.7268494 0.6352790
1 0.9668595 0.9601571
1 0.9988135 0.9986030
0.9994737 1 0.9983505
0.6744442 0.8885712 0.5875126
0.6748019 0.8885636 0.5876146
0.6789790 0.8884753 0.5888214
0.7201931 0.8875664 0.6023433
0.8906109 0.8867755 0.7022892
1 0.9722894 0.9620488
1 0.9988395 0.9986190
0.9994726 1 0.9983506
0.9655011 1 0.9575065
0.9655048 1 0.9575077
0.9655486 1 0.9575225
0.9660648 1 0.9576974
0.9715615 1 0.9596830
1 0.9995737 0.9748537
1 0.9991043 0.9987941
0.9994596 1 0.9983521
0.9985060 1 0.9981787
0.9985061 1 0.9981787
0.9985063 1 0.9981789
0.9985091 1 0.9981807
0.9985418 1 0.9982020
0.9988785 1 0.9984381
1 0.9999990 0.9999439
0.9993177 1 0.9983690
0.9983945 1 1
0.9983945 1 1
0.9983945 1 1
0.9983945 1 1
0.9983945 1 1
0.9983945 1 1
0.9984018 1 0.9999501
0.9985307 1 0.9987941
0 0.0034448 0.0400380
0.0373526 0 0.0403076
0.1453236 0.0098973 0
0.5127514 0.1299923 0
0.8962754 0.6854639 0.6259671
1 0.9662910 0.9599690
1 0.9988111 0.9986015
0.9994738 1 0.9983505
0 0.0353161 0.0375881
0.0347708 0.0347705 0.0347747
0.1449502 0.0361029 0
0.5129157 0.1351143 0
0.8962646 0.6857824 0.6260311
1 0.9662947 0.9599702
1 0.9988111 0.9986015
0.9994738 1 0.9983505
0 0.1340219 0
0.0382860 0.1338676 0
0.1362702 0.1336527 0
0.5145794 0.1854930 0
0.8961377 0.6895062 0.6267879
1 0.9663388 0.9599848
1 0.9988113 0.9986016
0.9994738 1 0.9983505
0.1450879 0.4906088 0
0.1495015 0.4907759 0
0.1946462 0.4927537 0
0.5202701 0.5098539 0
0.8947848 0.7266695 0.6352655
1 0.9668567 0.9601569
1 0.9988135 0.9986030
0.9994737 1 0.9983505
0.6740460 0.8885609 0.5873541
0.6744049 0.8885534 0.5874563
0.6785962 0.8884647 0.5886646
0.7199309 0.8875526 0.6022032
0.8905831 0.8867473 0.7022289
1 0.9722871 0.9620484
1 0.9988395 0.9986190
0.9994726 1 0.9983506
0.9654968 1 0.9575045
0.9655005 1 0.9575058
0.9655444 1 0.9575205
0.9660607 1 0.9576955
0.9715583 1 0.9596813
1 0.9995737 0.9748530
1 0.9991043 0.9987941
0.9994596 1 0.9983521
0.9985060 1 0.9981787
0.9985060 1 0.9981787
0.9985063 1 0.9981789
0.9985091 1 0.9981807
0.9985418 1 0.9982020
0.9988785 1 0.9984380
1 0.9999990 0.9999439
0.9993177 1 0.9983690
0.9983945 1 1
0.9983945 1 1
0.9983945 1 1
0.9983945 1 1
0.9983945 1 1
0.9983945 1 1
0.9984018 1 0.9999501
0.9985307 1 0.9987941
0.0199242 0.0315362 0.1344367
0.0392515 0.0328182 0.1374400
0.1334426 0.0437994 0.1410876
0.5215150 0.0734802 0.0692527
0.8967264 0.6823316 0.6261448
1 0.9662570 0.9599667
1 0.9988110 0.9986015
0.9994738 1 0.9983505
0 0.0432217 0.1437165
0.0257229 0.0376094 0.1494758
0.1346590 0.0444450 0.1423634
0.5232220 0.0747703 0.0586030
0.8967142 0.6826588 0.6262063
1 0.9662607 0.9599679
1 0.9988110 0.9986015
0.9994738 1 0.9983505
0.0186791 0.1324412 0.1388857
0.0177880 0.1307842 0.1371592
0.1276360 0.1276354 0.1276450
0.5252939 0.1380672 0
0.8965709 0.6864820 0.6269331
1 0.9663048 0.9599824
1 0.9988112 0.9986016
0.9994738 1 0.9983505
0.0676634 0.4808862 0.0055280
0.0738934 0.4807279 0
0.1471775 0.4823130 0
0.5083334 0.4976134 0
0.8950522 0.7245053 0.6351257
1 0.9668233 0.9601542
1 0.9988134 0.9986030
0.9994737 1 0.9983505
0.6691946 0.8884421 0.5854542
0.6695689 0.8884342 0.5855580
0.6739366 0.8883418 0.5867851
0.7167579 0.8873901 0.6005258
0.8902520 0.8864114 0.7015100
1 0.9722600 0.9620431
1 0.9988394 0.9986190
0.9994726 1 0.9983506
0.9654461 1 0.9574813
0.9654498 1 0.9574825
0.9654938 1 0.9574973
0.9660112 1 0.9576725
0.9715200 1 0.9596604
1 0.9995736 0.9748448
1 0.9991042 0.9987940
0.9994596 1 0.9983521
0.9985057 1 0.9981785
0.9985058 1 0.9981785
0.9985060 1 0.9981786
0.9985088 1 0.9981805
0.9985415 1 0.9982018
0.9988783 1 0.9984378
1 0.9999990 0.9999439
0.9993177 1 0.9983690
0.9983945 1 1
0.9983945 1 1
0.9983945 1 1
0.9983945 1 1
0.9983945 1 1
0.9983945 1 1
0.9984018 1 0.9999501
0.9985307 1 0.9987941
0.1083768 0.1299816 0.4024082
0.1123137 0.1306367 0.4044870
0.1535930 0.1368709 0.4321724
0.4810501 0.1427428 0.5131911
0.8987986 0.6716088 0.6703575
1 0.9658502 0.9599433
1 0.9988097 0.9986012
0.9994739 1 0.9983505
0.1058335 0.1312155 0.4075903
0.1099485 0.1318887 0.4097840
0.1523583 0.1379640 0.4374841
0.4816160 0.1428548 0.5137501
0.8988718 0.6714419 0.6698459
1 0.9658539 0.9599445
1 0.9988097 0.9986012
0.9994739 1 0.9983505
0.0928283 0.1666429 0.4720548
0.0933011 0.1649097 0.4752830
0.1291269 0.1553402 0.5041352
0.4882654 0.1442044 0.5202372
0.8997548 0.6693453 0.6634489
1 0.9658987 0.9599588
1 0.9988099 0.9986013
0.9994739 1 0.9983505
0.0922072 0.4826190 0.5092161
0.0920898 0.4818969 0.5084967
0.0907319 0.4731826 0.4996651
0.4672567 0.4672537 0.4672987
0.9001156 0.6945173 0.6372368
1 0.9664247 0.9601269
1 0.9988121 0.9986027
0.9994738 1 0.9983505
0.5938799 0.8873609 0.5696125
0.5932171 0.8873713 0.5681221
0.5951274 0.8873305 0.5618995
0.6682383 0.8857797 0.5785684
0.8862016 0.8823016 0.6926407
1 0.9719352 0.9619828
1 0.9988381 0.9986187
0.9994727 1 0.9983506
0.9648330 1 0.9572032
0.9648368 1 0.9572044
0.9648820 1 0.9572194
0.9654135 1 0.9573968
0.9710587 1 0.9594100
1 0.9995720 0.9747463
1 0.9991031 0.9987935
0.9994597 1 0.9983520
0.9985023 1 0.9981759
0.9985023 1 0.9981759
0.9985025 1 0.9981760
0.9985053 1 0.9981778
0.9985381 1 0.9981992
0.9988758 1 0.9984356
1 0.9999990 0.9999431
0.9993178 1 0.9983690
0.9983945 1 1
0.9983945 1 1
0.9983945 1 1
0.9983945 1 1
0.9983945 1 1
0.9983945 1 1
0.9984018 1 0.9999502
0.9985307 1 0.9987941
0.5168313 0.5641923 0.8881044
0.5183624 0.5648401 0.8880632
0.5352957 0.5721689 0.8876145
0.6412305 0.6181799 0.8873647
0.8792920 0.7307477 0.8907723
1 0.9656080 0.9654740
1 0.9987944 0.9985983
0.9994750 1 0.9983503
0.5160218 0.5641432 0.8883233
0.5175658 0.5647939 0.8882813
0.5346298 0.5721521 0.8878234
0.6411731 0.6184154 0.8874857
0.8793063 0.7307740 0.8907860
1 0.9656053 0.9654682
1 0.9987944 0.9985983
0.9994750 1 0.9983503
0.5054566 0.5633045 0.8909830
0.5071809 0.5639964 0.8909298
0.5260323 0.5717594 0.8903531
0.6404590 0.6212167 0.8889300
0.8794757 0.7310856 0.8909482
1 0.9655729 0.9653982
1 0.9987946 0.9985984
0.9994750 1 0.9983503
0.4696533 0.6186927 0.9090197
0.4697728 0.6184216 0.9091173
0.4712699 0.6151559 0.9103084
0.6012835 0.6357382 0.9112389
0.8814615 0.7347278 0.8928490
1 0.9651686 0.9645341
1 0.9987968 0.9985997
0.9994749 1 0.9983504
0.6699622 0.8820958 0.8927439
0.6699184 0.8820765 0.8927254
0.6693964 0.8818476 0.8925047
0.6630298 0.8790716 0.8898302
0.8716279 0.8716272 0.8716381
1 0.9677891 0.9617708
1 0.9988230 0.9986154
0.9994738 1 0.9983505
0.9565351 1 0.9545621
0.9565276 1 0.9545496
0.9564381 1 0.9544003
0.9564941 1 0.9538214
0.9644299 1 0.9561643
1 0.9995525 0.9735178
1 0.9990901 0.9987876
0.9994608 1 0.9983519
0.9984605 1 0.9981446
0.9984605 1 0.9981446
0.9984608 1 0.9981447
0.9984637 1 0.9981466
0.9984975 1 0.9981683
0.9988457 1 0.9984088
1 0.9999988 0.9999346
0.9993187 1 0.9983689
0.9983945 1 1
0.9983945 1 1
0.9983945 1 1
0.9983945 1 1
0.9983945 1 1
0.9983945 1 1
0.9984017 1 0.9999511
0.9985306 1 0.9987941
0.9327725 0.9382466 1
0.9327913 0.9382582 1
0.9330137 0.9383957 1
0.9355548 0.9399720 1
0.9535952 0.9503801 1
1 0.9755118 1
1 0.9990413 0.9990378
0.9994884 1 0.9983489
0.9327651 0.9382453 1
0.9327839 0.9382569 1
0.9330063 0.9383943 1
0.9355482 0.9399711 1
0.9535953 0.9503837 1
1 0.9755122 1
1 0.9990413 0.9990378
0.9994884 1 0.9983489
0.9326760 0.9382290 1
0.9326949 0.9382406 1
0.9329181 0.9383785 1
0.9354692 0.9399596 1
0.9535964 0.9504275 1
1 0.9755162 1
1 0.9990410 0.9990373
0.9994883 1 0.9983489
0.9315498 0.9379948 1
0.9315695 0.9380069 1
0.9318038 0.9381501 1
0.9344741 0.9397886 1
0.9536074 0.9509473 1
1 0.9755636 1
1 0.9990368 0.9990321
0.9994882 1 0.9983489
0.9309307 0.9459034 1
0.9309317 0.9459004 1
0.9309441 0.9458648 1
0.9311046 0.9454443 1
0.9486313 0.9526674 1
1 0.9761147 1
1 0.9989850 0.9989673
0.9994871 1 0.9983490
0.9676961 0.9992540 1
0.9676955 0.9992540 1
0.9676887 0.9992538 1
0.9676069 0.9992521 1
0.9666030 0.9992312 1
0.9999986 0.9999985 1
1 0.9989462 0.9987604
0.9994738 1 0.9983505
0.9979199 1 0.9978294
0.9979198 1 0.9978293
0.9979187 1 0.9978280
0.9979057 1 0.9978118
0.9978767 1 0.9977521
0.9984022 1 0.9980522
1 0.9999969 0.9998283
0.9993290 1 0.9983677
0.9983945 1 1
0.9983945 1 1
0.9983945 1 1
0.9983945 1 1
0.9983945 1 1
0.9983945 1 1
0.9984010 1 0.9999620
0.9985303 1 0.9987938
0.9954679 0.9958002 1
0.9954680 0.9958003 1
0.9954701 0.9958018 1
0.9954941 0.9958202 1
0.9957672 0.9960293 1
0.9974690 0.9973084 1
1 0.9997165 1
0.9996963 1 0.9983792
0.9954678 0.9958001 1
0.9954680 0.9958003 1
0.9954700 0.9958018 1
0.9954940 0.9958201 1
0.9957671 0.9960293 1
0.9974690 0.9973084 1
1 0.9997165 1
0.9996963 1 0.9983792
0.9954669 0.9957996 1
0.9954671 0.9957998 1
0.9954691 0.9958013 1
0.9954931 0.9958196 1
0.9957664 0.9960289 1
0.9974692 0.9973087 1
1 0.9997165 1
0.9996963 1 0.9983792
0.9954561 0.9957936 1
0.9954563 0.9957938 1
0.9954583 0.9957953 1
0.9954825 0.9958137 1
0.9957570 0.9960238 1
0.9974709 0.9973127 1
1 0.9997169 1
0.9996961 1 0.9983792
0.9953188 0.9957160 1
0.9953190 0.9957162 1
0.9953212 0.9957178 1
0.9953469 0.9957372 1
0.9956381 0.9959580 1
0.9974916 0.9973595 1
1 0.9997209 1
0.9996945 1 0.9983783
0.9950792 0.9960537 1
0.9950792 0.9960537 1
0.9950793 0.9960535 1
0.9950800 0.9960511 1
0.9950893 0.9960237 1
0.9970596 0.9972755 1
1 0.9997678 1
0.9996750 1 0.9983687
0.9991113 0.9999778 1
0.9991113 0.9999778 1
0.9991112 0.9999778 1
0.9991106 0.9999778 1
0.9991029 0.9999776 1
0.9990083 0.9999752 1
0.9999999 1 1
0.9994740 1 0.9983511
0.9984009 0.9998349 1
0.9984009 0.9998349 1
0.9984009 0.9998349 1
0.9984008 0.9998351 1
0.9984003 0.9998367 1
0.9983978 0.9998553 1
0.9983946 1 1
0.9985262 1 0.9987904
0.9984464 1 0.9996462
0.9984464 1 0.9996462
0.9984464 1 0.9996462
0.9984464 1 0.9996463
0.9984458 1 0.9996474
0.9984403 1 0.9996611
0.9984384 1 0.9998323
0.9986666 0.9991228 1
0.9984464 1 0.9996462
0.9984464 1 0.9996462
0.9984464 1 0.9996462
0.9984464 1 0.9996463
0.9984458 1 0.9996474
0.9984403 1 0.9996611
0.9984384 1 0.9998323
0.9986666 0.9991228 1
0.9984464 1 0.9996462
0.9984464 1 0.9996462
0.9984464 1 0.9996462
0.9984464 1 0.9996463
0.9984458 1 0.9996474
0.9984403 1 0.9996611
0.9984384 1 0.9998323
0.9986666 0.9991228 1
0.9984464 1 0.9996461
0.9984464 1 0.9996461
0.9984464 1 0.9996461
0.9984464 1 0.9996462
0.9984458 1 0.9996473
0.9984403 1 0.9996610
0.9984383 1 0.9998322
0.9986666 0.9991228 1
0.9984464 1 0.9996448
0.9984464 1 0.9996448
0.9984464 1 0.9996448
0.9984464 1 0.9996449
0.9984458 1 0.9996461
0.9984402 1 0.9996597
0.9984382 1 0.9998311
0.9986666 0.9991228 1
0.9984472 1 0.9996299
0.9984472 1 0.9996299
0.9984472 1 0.9996299
0.9984471 1 0.9996300
0.9984464 1 0.9996311
0.9984393 1 0.9996445
0.9984361 1 0.9998185
0.9986667 0.9991228 1
0.9984448 1 0.9994661
0.9984448 1 0.9994661
0.9984448 1 0.9994661
0.9984448 1 0.9994661
0.9984448 1 0.9994670
0.9984447 1 0.9994771
0.9983932 1 0.9996337
0.9986678 0.9991236 1
0.9986367 1 0.9984303
0.9986367 1 0.9984303
0.9986367 1 0.9984303
0.9986367 1 0.9984303
0.9986367 1 0.9984303
0.9986366 1 0.9984302
0.9986355 1 0.9984289
0.9999998 1 1
