luts/AgX_Base_Rec2100-HLG.cube
TITLE "AgX_Formation_Rec2100HLG"
# AgX Base Rec.2020 Formation LUT
# This LUT expects input to be E Gamut Log2 encoding from -10 stops to +15 stops
# But the end image formation will be Rec2100-HLG
#  rotate = [3.0, -1, -2.0], inset = [0.4, 0.22, 0.13], outset = [0.4, 0.22, 0.04]
# The image formed has 40% per-channel shifts
LUT_3D_SIZE 50
0 0 0
0.0018639 0 0
0.0053922 0 0
0.0101636 0 0
0.0160771 0 0
0.0231072 0 0
0.0312666 0 0
0.0405216 0 0
0.0505581 0 0
0.0618359 0 0
0.0744647 0 0
0.0886003 0.0072057 0
0.1044509 0.0167041 0
0.1222906 0.0255486 0
0.1424868 0.0349806 0
0.1655475 0.0453351 0
0.1922102 0.0568149 0
0.2236234 0.0695950 0.0162292
0.2617925 0.0838384 0.0294327
0.3110778 0.0996159 0.0383443
0.3942067 0.1152341 0.0244725
0.5118258 0.1348676 0
0.6067466 0.1664903 0
0.6790694 0.2118698 0.0638143
0.7377673 0.2751535 0.1371785
0.7862916 0.3703327 0.2242603
0.8271337 0.4943002 0.3673648
0.8633078 0.6045562 0.5144176
0.8962388 0.6857234 0.6259550
0.9264789 0.7512647 0.7074791
0.9544534 0.8067722 0.7730358
0.9804910 0.8551728 0.8284199
1 0.8982180 0.8766409
1 0.9303080 0.9156844
1 0.9514763 0.9419655
1 0.9662938 0.9599692
1 0.9767138 0.9724638
1 0.9840686 0.9812105
1 0.9892771 0.9873729
1 0.9929757 0.9917353
1 0.9956071 0.9948332
1 0.9974801 0.9970362
1 0.9988111 0.9986015
1 0.9997532 0.9997096
0.9998355 1 0.9994817
0.9996673 1 0.9989526
0.9995655 1 0.9986331
0.9995083 1 0.9984548
0.9994810 1 0.9983711
0.9994738 1 0.9983505
0 0.0015923 0
0.0018430 0.0017694 0
0.0053157 0.0025705 0
0.0100236 0.0029852 0
0.0158911 0.0026625 0
0.0228939 0 0
0.0310415 0 0
0.0402685 0 0
0.0503785 0 0
0.0617028 0 0
0.0743642 0 0
0.0885242 0.0109307 0
0.1043934 0.0185889 0
0.1222475 0.0267751 0
0.1424548 0.0358419 0
0.1655243 0.0459638 0
0.1921939 0.0572857 0
0.2236128 0.0699552 0.0162477
0.2617871 0.0841203 0.0294394
0.3110782 0.0998436 0.0383444
0.3942262 0.1154385 0.0244375
0.5118340 0.1350619 0
0.6067487 0.1666542 0
0.6790693 0.2119996 0.0638150
0.7377659 0.2752598 0.1371804
0.7862898 0.3704155 0.2242646
0.8271324 0.4943555 0.3673741
0.8633071 0.6045808 0.5144230
0.8962383 0.6857358 0.6259575
0.9264787 0.7512713 0.7074804
0.9544533 0.8067760 0.7730366
0.9804909 0.8551749 0.8284204
1 0.8982192 0.8766412
1 0.9303087 0.9156846
1 0.9514766 0.9419656
1 0.9662940 0.9599693
1 0.9767139 0.9724638
1 0.9840686 0.9812105
1 0.9892771 0.9873729
1 0.9929758 0.9917353
1 0.9956071 0.9948332
1 0.9974801 0.9970362
1 0.9988111 0.9986015
1 0.9997532 0.9997096
0.9998355 1 0.9994817
0.9996673 1 0.9989526
0.9995655 1 0.9986331
0.9995083 1 0.9984548
0.9994810 1 0.9983711
0.9994738 1 0.9983505
0 0.0046495 0
0.0025836 0.0048339 0
0.0052244 0.0050338 0
0.0098671 0.0060771 0
0.0156660 0.0067954 0
0.0226200 0.0070084 0
0.0307418 0.0065106 0
0.0399490 0.0053958 0
0.0501402 0.0048884 0
0.0615217 0.0061729 0
0.0742255 0.0096420 0
0.0884181 0.0146869 0
0.1043128 0.0209804 0
0.1221867 0.0284283 0
0.1424097 0.0370323 0
0.1654915 0.0468435 0
0.1921709 0.0579490 0
0.2235978 0.0704647 0.0162740
0.2617793 0.0845200 0.0294490
0.3110788 0.1001671 0.0383445
0.3942539 0.1157290 0.0243877
0.5118457 0.1353383 0
0.6067516 0.1668873 0
0.6790692 0.2121843 0.0638159
0.7377639 0.2754113 0.1371832
0.7862873 0.3705333 0.2242707
0.8271306 0.4944342 0.3673874
0.8633060 0.6046159 0.5144308
0.8962377 0.6857534 0.6259611
0.9264784 0.7512808 0.7074823
0.9544531 0.8067813 0.7730377
0.9804909 0.8551779 0.8284210
1 0.8982210 0.8766416
1 0.9303095 0.9156848
1 0.9514770 0.9419657
1 0.9662942 0.9599693
1 0.9767140 0.9724638
1 0.9840687 0.9812105
1 0.9892771 0.9873729
1 0.9929758 0.9917353
1 0.9956071 0.9948332
1 0.9974801 0.9970362
1 0.9988111 0.9986015
1 0.9997532 0.9997096
0.9998355 1 0.9994817
0.9996673 1 0.9989526
0.9995655 1 0.9986331
0.9995083 1 0.9984548
0.9994810 1 0.9983711
0.9994738 1 0.9983505
0 0.0088315 0
0.0032598 0.0089934 0
0.0060971 0.0091555 0
0.0096898 0.0093630 0
0.0154052 0.0105093 0
0.0222855 0.0113205 0
0.0303600 0.0116665 0
0.0395676 0.0118286 0
0.0498363 0.0121298 0
0.0612815 0.0130338 0
0.0740372 0.0151402 0
0.0882719 0.0187796 0
0.1042004 0.0239729 0
0.1221015 0.0306247 0
0.1423461 0.0386614 0
0.1654451 0.0480668 0
0.1921382 0.0588798 0
0.2235766 0.0711835 0.0163112
0.2617683 0.0850857 0.0294626
0.3110797 0.1006258 0.0383446
0.3942934 0.1161415 0.0243165
0.5118622 0.1357309 0
0.6067559 0.1672188 0
0.6790690 0.2124471 0.0638172
0.7377611 0.2756270 0.1371872
0.7862836 0.3707011 0.2242793
0.8271280 0.4945463 0.3674063
0.8633045 0.6046659 0.5144418
0.8962369 0.6857786 0.6259661
0.9264779 0.7512944 0.7074851
0.9544529 0.8067888 0.7730393
0.9804907 0.8551823 0.8284220
1 0.8982235 0.8766422
1 0.9303108 0.9156852
1 0.9514776 0.9419659
1 0.9662945 0.9599694
1 0.9767141 0.9724639
1 0.9840688 0.9812105
1 0.9892771 0.9873729
1 0.9929758 0.9917353
1 0.9956072 0.9948332
1 0.9974801 0.9970362
1 0.9988111 0.9986015
1 0.9997532 0.9997096
0.9998355 1 0.9994817
0.9996673 1 0.9989526
0.9995655 1 0.9986331
0.9995083 1 0.9984548
0.9994810 1 0.9983711
0.9994738 1 0.9983505
0 0.0140597 0
0.0037206 0.0141873 0
0.0069536 0.0143284 0
0.0105813 0.0144550 0
0.0151321 0.0146554 0
0.0219103 0.0158217 0
0.0299158 0.0166604 0
0.0391489 0.0174157 0
0.0494707 0.0180495 0
0.0609751 0.0189451 0
0.0737879 0.0205795 0
0.0880736 0.0233962 0
0.1040457 0.0276714 0
0.1219829 0.0334963 0
0.1422569 0.0408635 0
0.1653796 0.0497534 0
0.1920920 0.0601784 0
0.2235464 0.0721936 0.0163638
0.2617526 0.0858843 0.0294818
0.3110809 0.1012752 0.0383448
0.3943494 0.1167266 0.0242150
0.5118858 0.1362882 0
0.6067619 0.1676898 0
0.6790687 0.2128209 0.0638190
0.7377570 0.2759343 0.1371928
0.7862785 0.3709399 0.2242916
0.8271243 0.4947058 0.3674331
0.8633024 0.6047371 0.5144576
0.8962357 0.6858144 0.6259734
0.9264772 0.7513136 0.7074889
0.9544525 0.8067996 0.7730415
0.9804905 0.8551884 0.8284233
1 0.8982271 0.8766430
1 0.9303126 0.9156857
1 0.9514785 0.9419662
1 0.9662949 0.9599696
1 0.9767143 0.9724639
1 0.9840689 0.9812106
1 0.9892772 0.9873729
1 0.9929758 0.9917353
1 0.9956072 0.9948332
1 0.9974801 0.9970362
1 0.9988111 0.9986015
1 0.9997532 0.9997096
0.9998355 1 0.9994817
0.9996673 1 0.9989526
0.9995655 1 0.9986331
0.9995083 1 0.9984548
0.9994810 1 0.9983711
0.9994738 1 0.9983505
0 0.0203174 0
0.0039074 0.0204112 0
0.0076291 0.0205191 0
0.0114679 0.0206271 0
0.0159708 0.0207128 0
0.0215289 0.0208896 0
0.0295647 0.0222377 0
0.0387440 0.0232965 0
0.0490667 0.0241545 0
0.0606060 0.0250806 0
0.0734701 0.0264524 0
0.0878113 0.0286970 0
0.1038360 0.0321929 0
0.1218195 0.0371886 0
0.1421326 0.0437974 0
0.1652877 0.0520538 0
0.1920269 0.0619765 0
0.2235037 0.0736060 0.0164379
0.2617303 0.0870079 0.0295090
0.3110827 0.1021926 0.0383449
0.3944289 0.1175551 0.0240697
0.5119191 0.1370780 0
0.6067704 0.1683583 0
0.6790682 0.2133523 0.0638215
0.7377512 0.2763719 0.1372006
0.7862711 0.3712798 0.2243091
0.8271190 0.4949329 0.3674714
0.8632994 0.6048383 0.5144800
0.8962340 0.6858654 0.6259837
0.9264763 0.7513410 0.7074944
0.9544520 0.8068149 0.7730446
0.9804903 0.8551972 0.8284252
1 0.8982322 0.8766441
1 0.9303151 0.9156864
1 0.9514797 0.9419665
1 0.9662955 0.9599698
1 0.9767146 0.9724640
1 0.9840690 0.9812106
1 0.9892772 0.9873730
1 0.9929758 0.9917353
1 0.9956072 0.9948332
1 0.9974801 0.9970362
1 0.9988111 0.9986015
1 0.9997532 0.9997096
0.9998355 1 0.9994817
0.9996673 1 0.9989526
0.9995655 1 0.9986331
0.9995083 1 0.9984548
0.9994810 1 0.9983711
0.9994738 1 0.9983505
0 0.0276210 0
0.0037734 0.0276856 0
0.0080898 0.0277609 0
0.0121821 0.0278396 0
0.0168670 0.0279565 0
0.0225378 0.0281893 0
0.0294049 0.0286020 0
0.0384295 0.0298474 0
0.0486731 0.0308620 0
0.0601962 0.0318236 0
0.0730866 0.0330234 0
0.0874769 0.0348376 0
0.1035585 0.0376671 0
0.1215980 0.0418573 0
0.1419614 0.0476431 0
0.1651598 0.0551506 0
0.1919354 0.0644426 0
0.2234434 0.0755674 0.0165420
0.2616987 0.0885811 0.0295474
0.3110851 0.1034841 0.0383448
0.3945413 0.1187253 0.0238618
0.5119664 0.1381952 0
0.6067825 0.1693060 0
0.6790675 0.2141070 0.0638249
0.7377429 0.2769951 0.1372114
0.7862606 0.3717632 0.2243341
0.8271115 0.4952561 0.3675258
0.8632951 0.6049825 0.5145119
0.8962316 0.6859379 0.6259983
0.9264749 0.7513801 0.7075022
0.9544512 0.8068368 0.7730491
0.9804899 0.8552097 0.8284279
1 0.8982394 0.8766458
1 0.9303187 0.9156873
1 0.9514814 0.9419671
1 0.9662964 0.9599700
1 0.9767150 0.9724642
1 0.9840692 0.9812107
1 0.9892773 0.9873730
1 0.9929759 0.9917353
1 0.9956072 0.9948332
1 0.9974801 0.9970363
1 0.9988111 0.9986015
1 0.9997532 0.9997096
0.9998355 1 0.9994817
0.9996673 1 0.9989526
0.9995655 1 0.9986331
0.9995083 1 0.9984548
0.9994810 1 0.9983711
0.9994738 1 0.9983505
0 0.0360934 0
0.0037107 0.0361683 0
0.0086967 0.0362644 0
0.0131433 0.0363841 0
0.0180240 0.0365298 0
0.0236789 0.0367063 0
0.0303383 0.0369264 0
0.0382994 0.0373252 0
0.0483658 0.0384323 0
0.0597937 0.0394195 0
0.0726586 0.0404966 0
0.0870721 0.0419752 0
0.1032043 0.0442360 0
0.1213048 0.0476668 0
0.1417292 0.0525968 0
0.1649833 0.0592562 0
0.1918078 0.0677841 0
0.2233587 0.0782669 0.0166871
0.2616541 0.0907700 0.0296012
0.3110886 0.1052941 0.0383443
0.3947001 0.1203730 0.0235633
0.5120332 0.1397711 0
0.6067995 0.1706468 0
0.6790664 0.2151777 0.0638294
0.7377308 0.2778829 0.1372261
0.7862457 0.3724504 0.2243697
0.8271008 0.4957159 0.3676033
0.8632890 0.6051875 0.5145573
0.8962281 0.6860412 0.6260192
0.9264730 0.7514357 0.7075134
0.9544502 0.8068678 0.7730555
0.9804893 0.8552275 0.8284317
1 0.8982498 0.8766482
1 0.9303239 0.9156887
1 0.9514839 0.9419678
1 0.9662976 0.9599704
1 0.9767156 0.9724644
1 0.9840695 0.9812108
1 0.9892775 0.9873731
1 0.9929759 0.9917353
1 0.9956072 0.9948333
1 0.9974801 0.9970363
1 0.9988112 0.9986015
1 0.9997532 0.9997096
0.9998355 1 0.9994817
0.9996673 1 0.9989526
0.9995655 1 0.9986331
0.9995083 1 0.9984548
0.9994810 1 0.9983711
0.9994738 1 0.9983505
0 0.0459383 0
0.0051954 0.0459855 0
0.0099502 0.0460471 0
0.0144051 0.0461257 0
0.0192693 0.0462240 0
0.0248569 0.0463462 0
0.0314016 0.0465008 0
0.0391061 0.0467066 0
0.0482436 0.0470882 0
0.0594758 0.0480767 0
0.0722345 0.0490576 0
0.0866182 0.0502711 0
0.1027744 0.0520514 0
0.1209297 0.0547875 0
0.1414215 0.0588646 0
0.1647437 0.0646065 0
0.1916317 0.0722470 0
0.2232404 0.0819409 0.0168881
0.2615913 0.0937902 0.0296764
0.3110934 0.1078155 0.0383427
0.3949235 0.1226826 0.0231330
0.5121272 0.1419856 0
0.6068233 0.1725387 0
0.6790647 0.2166943 0.0638353
0.7377132 0.2791480 0.1372459
0.7862244 0.3734266 0.2244205
0.8270857 0.4963696 0.3677136
0.8632804 0.6054790 0.5146219
0.8962232 0.6861881 0.6260490
0.9264702 0.7515148 0.7075293
0.9544487 0.8069121 0.7730646
0.9804885 0.8552528 0.8284372
1 0.8982645 0.8766515
1 0.9303312 0.9156907
1 0.9514875 0.9419689
1 0.9662993 0.9599710
1 0.9767165 0.9724647
1 0.9840699 0.9812109
1 0.9892777 0.9873731
1 0.9929760 0.9917354
1 0.9956073 0.9948333
1 0.9974801 0.9970363
1 0.9988112 0.9986015
1 0.9997532 0.9997096
0.9998355 1 0.9994817
0.9996673 1 0.9989526
0.9995655 1 0.9986331
0.9995083 1 0.9984548
0.9994810 1 0.9983711
0.9994738 1 0.9983505
0.0032995 0.0569616 0
0.0080946 0.0569889 0
0.0120589 0.0570252 0
0.0162097 0.0570724 0
0.0208700 0.0571330 0
0.0262692 0.0572099 0
0.0326144 0.0573090 0
0.0401042 0.0574422 0
0.0489307 0.0576339 0
0.0593483 0.0579997 0
0.0718950 0.0588920 0
0.0861645 0.0598929 0
0.1022898 0.0612743 0
0.1204733 0.0633948 0
0.1410271 0.0666575 0
0.1644258 0.0714531 0
0.1913923 0.0781099 0
0.2230769 0.0868735 0.0171637
0.2615035 0.0979135 0.0297804
0.3111002 0.1113003 0.0383388
0.3952364 0.1259012 0.0225092
0.5122591 0.1450818 0
0.6068565 0.1751987 0
0.6790619 0.2188379 0.0638426
0.7376872 0.2809521 0.1372711
0.7861942 0.3748119 0.2244931
0.8270641 0.4972986 0.3678705
0.8632680 0.6058930 0.5147139
0.8962161 0.6863970 0.6260913
0.9264663 0.7516273 0.7075519
0.9544465 0.8069751 0.7730776
0.9804874 0.8552889 0.8284449
1 0.8982855 0.8766563
1 0.9303417 0.9156936
1 0.9514925 0.9419705
1 0.9663017 0.9599718
1 0.9767176 0.9724651
1 0.9840704 0.9812112
1 0.9892779 0.9873732
1 0.9929762 0.9917354
1 0.9956073 0.9948333
1 0.9974801 0.9970363
1 0.9988112 0.9986015
1 0.9997532 0.9997096
0.9998355 1 0.9994817
0.9996673 1 0.9989526
0.9995655 1 0.9986331
0.9995083 1 0.9984548
0.9994810 1 0.9983711
0.9994738 1 0.9983505
0.0095280 0.0692816 0
0.0122356 0.0692958 0
0.0153211 0.0693149 0
0.0189143 0.0693403 0
0.0231538 0.0693734 0
0.0281939 0.0694164 0
0.0342049 0.0694728 0
0.0413701 0.0695499 0
0.0498803 0.0696631 0
0.0599276 0.0698428 0
0.0717545 0.0701971 0
0.0857968 0.0710204 0
0.1018024 0.0720758 0
0.1199569 0.0736694 0
0.1405461 0.0761878 0
0.1640177 0.0800543 0
0.1910742 0.0856742 0
0.2228544 0.0933915 0.0175368
0.2613819 0.1034705 0.0299229
0.3111102 0.1160685 0.0383298
0.3956717 0.1303524 0.0215956
0.5124429 0.1493818 0
0.6069024 0.1789203 0
0.6790572 0.2218586 0.0638504
0.7376484 0.2835302 0.1373003
0.7861512 0.3767747 0.2245968
0.8270334 0.4986174 0.3680935
0.8632505 0.6064806 0.5148448
0.8962062 0.6866940 0.6261515
0.9264607 0.7517875 0.7075840
0.9544435 0.8070647 0.7730961
0.9804858 0.8553403 0.8284560
1 0.8983154 0.8766631
1 0.9303565 0.9156976
1 0.9514997 0.9419727
1 0.9663052 0.9599730
1 0.9767193 0.9724657
1 0.9840713 0.9812114
1 0.9892783 0.9873734
1 0.9929763 0.9917355
1 0.9956074 0.9948333
1 0.9974802 0.9970363
1 0.9988112 0.9986015
1 0.9997532 0.9997096
0.9998355 1 0.9994817
0.9996673 1 0.9989526
0.9995655 1 0.9986331
0.9995083 1 0.9984548
0.9994810 1 0.9983711
0.9994738 1 0.9983505
0.0156434 0.0830547 0
0.0174851 0.0830609 0
0.0198277 0.0830693 0
0.0227717 0.0830805 0
0.0264328 0.0830954 0
0.0309455 0.0831150 0
0.0364639 0.0831415 0
0.0431609 0.0831788 0
0.0512242 0.0832358 0
0.0608513 0.0833316 0
0.0722432 0.0835031 0
0.0856400 0.0838539 0
0.1014040 0.0846437 0
0.1194353 0.0858008 0
0.1400009 0.0876692 0
0.1635196 0.0906694 0
0.1906659 0.0952536 0
0.2225587 0.1018545 0.0180340
0.2612168 0.1108468 0.0301149
0.3111252 0.1225130 0.0383103
0.3962721 0.1364495 0.0202351
0.5126967 0.1553029 0
0.6069650 0.1840937 0
0.6790490 0.2260985 0.0638565
0.7375879 0.2872377 0.1373239
0.7860901 0.3795497 0.2247452
0.8269898 0.5004866 0.3684105
0.8632256 0.6073132 0.5150308
0.8961920 0.6871157 0.6262372
0.9264527 0.7520151 0.7076298
0.9544391 0.8071922 0.7731224
0.9804835 0.8554134 0.8284718
1 0.8983580 0.8766729
1 0.9303777 0.9157033
1 0.9515100 0.9419758
1 0.9663102 0.9599746
1 0.9767217 0.9724665
1 0.9840724 0.9812119
1 0.9892789 0.9873736
1 0.9929766 0.9917356
1 0.9956075 0.9948334
1 0.9974802 0.9970363
1 0.9988112 0.9986016
1 0.9997532 0.9997096
0.9998355 1 0.9994817
0.9996673 1 0.9989526
0.9995655 1 0.9986331
0.9995083 1 0.9984548
0.9994810 1 0.9983711
0.9994738 1 0.9983505
0.0224789 0.0984843 0
0.0238015 0.0984859 0
0.0255714 0.0984881 0
0.0279055 0.0984910 0
0.0309370 0.0984948 0
0.0348148 0.0985000 0
0.0397035 0.0985074 0
0.0457833 0.0985188 0
0.0532490 0.0985392 0
0.0623070 0.0985794 0
0.0731722 0.0986622 0
0.0860639 0.0988318 0
0.1012321 0.0991917 0
0.1190083 0.0999973 0
0.1394502 0.1013234 0
0.1629555 0.1035582 0
0.1901682 0.1071659 0
0.2221802 0.1126430 0.0186838
0.2609990 0.1204738 0.0303679
0.3111501 0.1310986 0.0382689
0.3970914 0.1447047 0.0181440
0.5130433 0.1633703 0
0.6070488 0.1912264 0
0.6790346 0.2320189 0.0638545
0.7374792 0.2927733 0.1372787
0.7860034 0.3834616 0.2249582
0.8269281 0.5031150 0.3688604
0.8631902 0.6084904 0.5152950
0.8961718 0.6877139 0.6263591
0.9264414 0.7523385 0.7076950
0.9544329 0.8073735 0.7731598
0.9804803 0.8555174 0.8284942
1 0.8984185 0.8766867
1 0.9304079 0.9157115
1 0.9515245 0.9419803
1 0.9663172 0.9599769
1 0.9767252 0.9724677
1 0.9840741 0.9812125
1 0.9892797 0.9873739
1 0.9929770 0.9917358
1 0.9956077 0.9948335
1 0.9974803 0.9970364
1 0.9988112 0.9986016
1 0.9997532 0.9997096
0.9998355 1 0.9994817
0.9996673 1 0.9989526
0.9995655 1 0.9986331
0.9995083 1 0.9984548
0.9994810 1 0.9983711
0.9994738 1 0.9983505
0.0302237 0.1158361 0
0.0311999 0.1158354 0
0.0325406 0.1158344 0
0.0343613 0.1158330 0
0.0368010 0.1158311 0
0.0400217 0.1158285 0
0.0442062 0.1158252 0
0.0495544 0.1158220 0
0.0562811 0.1158211 0
0.0646132 0.1158281 0
0.0747860 0.1158564 0
0.0870421 0.1159335 0
0.1016297 0.1161112 0
0.1188279 0.1164998 0
0.1390034 0.1173940 0
0.1623897 0.1189903 0
0.1896084 0.1217330 0
0.2217230 0.1261496 0.0195126
0.2607255 0.1328178 0.0306901
0.3111958 0.1423558 0.0381819
0.3981945 0.1557345 0.0147011
0.5135097 0.1742259 0
0.6071579 0.2009618 0
0.6790080 0.2402331 0.0638291
0.7373116 0.3006655 0.1371673
0.7858805 0.3889533 0.2252648
0.8268407 0.5067825 0.3694981
0.8631400 0.6101499 0.5156700
0.8961431 0.6885607 0.6265324
0.9264253 0.7527975 0.7077877
0.9544242 0.8076312 0.7732131
0.9804757 0.8556653 0.8285262
1 0.8985047 0.8767064
1 0.9304508 0.9157232
1 0.9515453 0.9419867
1 0.9663273 0.9599803
1 0.9767300 0.9724694
1 0.9840764 0.9812133
1 0.9892808 0.9873743
1 0.9929775 0.9917360
1 0.9956079 0.9948336
1 0.9974804 0.9970364
1 0.9988113 0.9986016
1 0.9997532 0.9997096
0.9998355 1 0.9994817
0.9996673 1 0.9989526
0.9995655 1 0.9986331
0.9995083 1 0.9984548
0.9994810 1 0.9983711
0.9994738 1 0.9983505
0.0390011 0.1354647 0
0.0397341 0.1354632 0
0.0407552 0.1354610 0
0.0421666 0.1354580 0
0.0440981 0.1354538 0
0.0467096 0.1354480 0
0.0501906 0.1354404 0
0.0547577 0.1354309 0
0.0606496 0.1354202 0
0.0681213 0.1354110 0
0.0774397 0.1354107 0
0.0888793 0.1354356 0
0.1027219 0.1355186 0
0.1192596 0.1357207 0
0.1388293 0.1361688 0
0.1619431 0.1372654 0
0.1890588 0.1392942 0
0.2212210 0.1427821 0.0205348
0.2604107 0.1483738 0.0310779
0.3112875 0.1568756 0.0380003
0.3996575 0.1702617 0.0075202
0.5141257 0.1886316 0
0.6072940 0.2140946 0
0.6789582 0.2515464 0.0637430
0.7370792 0.3114691 0.1370237
0.7857067 0.3966198 0.2257085
0.8267173 0.5118586 0.3704003
0.8630690 0.6124793 0.5162014
0.8961025 0.6897568 0.6267784
0.9264025 0.7534477 0.7079195
0.9544117 0.8079969 0.7732889
0.9804692 0.8558755 0.8285716
1 0.8986272 0.8767344
1 0.9305118 0.9157398
1 0.9515748 0.9419958
1 0.9663416 0.9599850
1 0.9767370 0.9724718
1 0.9840798 0.9812145
1 0.9892824 0.9873749
1 0.9929782 0.9917363
1 0.9956083 0.9948337
1 0.9974806 0.9970365
1 0.9988113 0.9986016
1 0.9997532 0.9997096
0.9998355 1 0.9994817
0.9996673 1 0.9989526
0.9995655 1 0.9986331
0.9995082 1 0.9984548
0.9994810 1 0.9983711
0.9994738 1 0.9983505
0.0489358 0.1578603 0
0.0494932 0.1578587 0
0.0502761 0.1578566 0
0.0513701 0.1578535 0
0.0528879 0.1578493 0
0.0549750 0.1578436 0
0.0578128 0.1578358 0
0.0616199 0.1578258 0
0.0666488 0.1578136 0
0.0731808 0.1578005 0
0.0815176 0.1577905 0
0.0919749 0.1577930 0
0.1048785 0.1578287 0
0.1205652 0.1579375 0
0.1393925 0.1581910 0
0.1618043 0.1587493 0
0.1886549 0.1602390 0.0069714
0.2207586 0.1629863 0.0217307
0.2601044 0.1676781 0.0314944
0.3114822 0.1753160 0.0376184
0.4015679 0.1891238 0
0.5149214 0.2074767 0
0.6074529 0.2315889 0
0.6788615 0.2670204 0.0635029
0.7367554 0.3261366 0.1368314
0.7854618 0.4072421 0.2263557
0.8265438 0.5188081 0.3716734
0.8629687 0.6157299 0.5169528
0.8960450 0.6914402 0.6271275
0.9263701 0.7543672 0.7081068
0.9543940 0.8085153 0.7733967
0.9804599 0.8561740 0.8286363
1 0.8988014 0.8767744
1 0.9305986 0.9157634
1 0.9516168 0.9420087
1 0.9663620 0.9599918
1 0.9767468 0.9724752
1 0.9840845 0.9812162
1 0.9892847 0.9873758
1 0.9929793 0.9917367
1 0.9956088 0.9948339
1 0.9974808 0.9970366
1 0.9988114 0.9986017
1 0.9997533 0.9997096
0.9998355 1 0.9994817
0.9996673 1 0.9989526
0.9995655 1 0.9986331
0.9995082 1 0.9984548
0.9994810 1 0.9983711
0.9994738 1 0.9983505
0.0601769 0.1837337 0
0.0606056 0.1837327 0
0.0612107 0.1837313 0
0.0620618 0.1837293 0
0.0632534 0.1837265 0
0.0649109 0.1837228 0
0.0671974 0.1837177 0
0.0703187 0.1837113 0
0.0745250 0.1837035 0
0.0801096 0.1836952 0
0.0874019 0.1836890 0
0.0967589 0.1836910 0
0.1085574 0.1837148 0
0.1231904 0.1837870 0
0.1410736 0.1839570 0
0.1626663 0.1843099 0
0.1886085 0.1850675 0.0110604
0.2204926 0.1873032 0.0229931
0.2599174 0.1913553 0.0318182
0.3118979 0.1984450 0.0367981
0.4040283 0.2133072 0
0.5159227 0.2318059 0
0.6076151 0.2546231 0
0.6786613 0.2881580 0.0628401
0.7363055 0.3458054 0.1365728
0.7851186 0.4218146 0.2273113
0.8263013 0.5281851 0.3734637
0.8628278 0.6202296 0.5180123
0.8959640 0.6937982 0.6276219
0.9263244 0.7556632 0.7083725
0.9543689 0.8092489 0.7735499
0.9804468 0.8565972 0.8287283
1 0.8990488 0.8768311
1 0.9307220 0.9157969
1 0.9516766 0.9420271
1 0.9663910 0.9600014
1 0.9767609 0.9724801
1 0.9840913 0.9812187
1 0.9892879 0.9873770
1 0.9929808 0.9917373
1 0.9956095 0.9948342
1 0.9974811 0.9970367
1 0.9988115 0.9986018
1 0.9997533 0.9997097
0.9998355 1 0.9994817
0.9996673 1 0.9989526
0.9995654 1 0.9986331
0.9995082 1 0.9984548
0.9994810 1 0.9983711
0.9994738 1 0.9983505
0.0729166 0.2141955 0
0.0732502 0.2141954 0
0.0737226 0.2141952 0
0.0743898 0.2141950 0
0.0753294 0.2141947 0
0.0766465 0.2141944 0
0.0784819 0.2141942 0
0.0810197 0.2141943 0
0.0844940 0.2141954 0
0.0891924 0.2141987 0.0034026
0.0954552 0.2142070 0.0054531
0.1036694 0.2142256 0.0074475
0.1142598 0.2142652 0.0095785
0.1276814 0.2143461 0.0119342
0.1444205 0.2145050 0.0145568
0.1650114 0.2148060 0.0174308
0.1900835 0.2153533 0.0204254
0.2206622 0.2164867 0.0239916
0.2600456 0.2202376 0.0317055
0.3127638 0.2272686 0.0349531
0.4071604 0.2440504 0
0.5171410 0.2629284 0
0.6077216 0.2847682 0
0.6780923 0.3186796 0.0602297
0.7356863 0.3717704 0.1362359
0.7846415 0.4415541 0.2287492
0.8259651 0.5406021 0.3759699
0.8626309 0.6263907 0.5195003
0.8958501 0.6970791 0.6283204
0.9262599 0.7574823 0.7087491
0.9543334 0.8102839 0.7737673
0.9804281 0.8571962 0.8288590
1 0.8993996 0.8769119
1 0.9308972 0.9158447
1 0.9517615 0.9420533
1 0.9664323 0.9600150
1 0.9767809 0.9724871
1 0.9841009 0.9812222
1 0.9892925 0.9873787
1 0.9929830 0.9917382
1 0.9956105 0.9948347
1 0.9974815 0.9970370
1 0.9988117 0.9986019
1 0.9997534 0.9997097
0.9998354 1 0.9994816
0.9996673 1 0.9989526
0.9995654 1 0.9986331
0.9995082 1 0.9984548
0.9994810 1 0.9983711
0.9994738 1 0.9983505
