luts/AgX_Base_Rec2100-HLG_p3_lim.cube
TITLE "AgX_Formation Rec.2100 HLG P3 limited"
# AgX Base Rec.2100 HLG Formation P3 Limited LUT
# This LUT expects input to be E Gamut Log2 encoding from -10 stops to +15 stops
# But the end image formation will be from -10 to 6.5 encoded in power 2.4
# Rec.709 generated parameters rotate = [3.0, -1, -2.0], inset = [0.4, 0.22, 0.13], outset = [0.4, 0.22, 0.04]
#  Same inset matrix can be generated in Rec.2020 with rotation [2.13976149, -1.22827335, -3.05174246], Inset: [0.32965205, 0.28051336, 0.12475368], outset = [0.32317438, 0.28325605, 0.0374326]
# The image formed has 40% per-channel shifts
# HDR max nits is 1000, SDR max nits is 203
LUT_3D_SIZE 9
0.0000079 0.0000036 0.0000306
0.0452034 0.0125074 0
0.1383042 0.0410661 0
0.384415 0.1174829 0.0312494
0.7708821 0.3556393 0.2147132
0.9825596 0.7627046 0.693004
1 0.9743831 0.9464579
1 1 1
1 1 1
0.0202126 0.0434769 0.0159001
0.0463458 0.0454519 0.0058193
0.1379262 0.0595601 0.0039479
0.3843683 0.1241299 0.0316071
0.7708538 0.3572856 0.214854
0.982555 0.7628002 0.6930195
1 0.974388 0.9464587
1 1 1
1 1 1
0.0609545 0.1313625 0.0446841
0.0631114 0.1321136 0.0180396
0.1381187 0.1355223 0.0173528
0.3839281 0.1712328 0.0344102
0.7706089 0.3712963 0.216069
0.982515 0.7636316 0.693155
1 0.97443 0.9464656
1 1 1
1 1 1
0.1692951 0.3647552 0.1253271
0.1692851 0.3651969 0.1189576
0.1786501 0.3687377 0.0503253
0.3856483 0.3784552 0.0510295
0.7686454 0.473678 0.225836
0.9821725 0.7706511 0.6943322
1 0.9747957 0.9465257
1 1 1
1 1 1
0.4156161 0.7522135 0.292035
0.4156342 0.7522934 0.2900125
0.4157911 0.7529996 0.2713491
0.476466 0.7552952 0.2000073
0.7635403 0.7574015 0.3018143
0.9796119 0.8187265 0.7042594
1 0.9779081 0.9470497
1 1 1
1 1 1
0.7538049 0.9732013 0.6547408
0.75391 0.9731988 0.6547678
0.7548238 0.973177 0.6550034
0.7625256 0.97299 0.657047
0.81474 0.9716113 0.673934
0.9718207 0.9679053 0.7680511
1 1 0.9515417
1 1 1
1 1 1
0.9670298 1 0.9274302
0.9670354 1 0.9274317
0.9670836 1 0.9274442
0.9675036 1 0.9275532
0.9710715 1 0.9284997
0.9965683 1 0.9363742
1 1 0.9812794
1 1 1
1 1 1
1 1 1
1 1 1
1 1 1
1 1 1
1 1 1
1 1 1
1 1 1
1 1 1
1 1 1
1 1 1
1 1 1
1 1 1
1 1 1
1 1 1
1 1 1
1 1 1
1 1 1
1 1 1
0.0114576 0.0133591 0.0453075
0.0445516 0.0119298 0.0473372
0.1381341 0.0342486 0.0389966
0.3856701 0.1106846 0.0309596
0.7710065 0.3541086 0.2146866
0.9825698 0.7626198 0.6930025
1 0.974379 0.9464578
1 1 1
1 1 1
0.0226736 0.0445179 0.0462781
0.0433195 0.0433192 0.0433232
0.1406159 0.046388 0.0205324
0.3855334 0.1178217 0.0313265
0.7709773 0.3557649 0.2148269
0.9825652 0.7627156 0.693018
1 0.9743838 0.9464586
1 1 1
1 1 1
0.0607779 0.1295533 0.0607927
0.0602055 0.1297534 0.0440639
0.1344916 0.1319644 0.0168973
0.3844625 0.1672426 0.0341849
0.7707243 0.3698578 0.2160373
0.9825251 0.7635476 0.6931533
1 0.9744258 0.9464655
1 1 1
1 1 1
0.1689869 0.3636376 0.1310229
0.1689744 0.364064 0.1250912
0.174417 0.3678641 0.0502432
0.3845284 0.3773534 0.0507995
0.7687036 0.4726991 0.2257736
0.982182 0.7705724 0.6943297
1 0.9747915 0.9465256
1 1 1
1 1 1
0.4155301 0.7520694 0.2939953
0.4155482 0.7521492 0.2919927
0.4157048 0.7528539 0.2735239
0.475324 0.7552287 0.1997752
0.7634463 0.7573066 0.301663
0.9796171 0.8186777 0.7042519
1 0.9779041 0.9470496
1 1 1
1 1 1
0.7536925 0.9732001 0.6547038
0.7537977 0.9731975 0.6547308
0.7547124 0.9731757 0.6549665
0.7624216 0.9729886 0.6570106
0.8146771 0.9716088 0.6739023
0.9718149 0.9678995 0.7680394
1 1 0.9515413
1 1 1
1 1 1
0.9670239 1 0.9274283
0.9670294 1 0.9274297
0.9670777 1 0.9274422
0.9674977 1 0.9275512
0.9710658 1 0.9284978
0.9965646 1 0.9363725
1 1 0.9812787
1 1 1
1 1 1
1 1 1
1 1 1
1 1 1
1 1 1
1 1 1
1 1 1
1 1 1
1 1 1
1 1 1
1 1 1
1 1 1
1 1 1
1 1 1
1 1 1
1 1 1
1 1 1
1 1 1
1 1 1
0.03264 0.0398747 0.126523
0.04899 0.0405922 0.1326054
0.1320186 0.0525 0.1393139
0.3845398 0.0954235 0.1156819
0.7721695 0.3402376 0.2145133
0.9826593 0.761877 0.6929903
1 0.9743425 0.9464574
1 1 1
1 1 1
0.0385267 0.057298 0.1318884
0.0380713 0.0465562 0.1475094
0.1337227 0.05328 0.1411091
0.3859675 0.0956929 0.1087018
0.7721316 0.3419891 0.2146485
0.9826546 0.7619734 0.6930057
1 0.9743473 0.9464582
1 1 1
1 1 1
0.0676585 0.1328828 0.1379143
0.0664706 0.13055 0.1354927
0.1287822 0.1287816 0.1287912
0.3911859 0.1330356 0.0684294
0.7718042 0.3568583 0.2158155
0.9826139 0.7628112 0.6931402
1 0.9743894 0.946465
1 1 1
1 1 1
0.1680038 0.3577348 0.1717238
0.1677118 0.3574923 0.1677517
0.1670547 0.3599451 0.1234411
0.3745487 0.367538 0.0488725
0.7692563 0.4639656 0.2252593
0.9822652 0.7698831 0.6943093
1 0.9747553 0.9465251
1 1 1
1 1 1
0.4147826 0.7508163 0.3103991
0.4148004 0.7508947 0.3085547
0.4149546 0.7515867 0.2916227
0.4651378 0.7546517 0.1977306
0.7626225 0.7564749 0.3003408
0.9796624 0.818251 0.7041867
1 0.9778697 0.9470487
1 1 1
1 1 1
0.7527066 0.973189 0.6543804
0.7528127 0.9731865 0.6544075
0.7537354 0.9731644 0.6546437
0.7615102 0.972976 0.6566926
0.8141268 0.9715868 0.673625
0.9717648 0.9678487 0.7679376
1 1 0.9515379
1 1 1
1 1 1
0.9669718 1 0.9274113
0.9669773 1 0.9274127
0.9670256 1 0.9274252
0.967446 1 0.9275343
0.9710169 1 0.9284811
0.9965322 1 0.9363578
1 1 0.9812731
1 1 1
1 1 1
1 1 1
1 1 1
1 1 1
1 1 1
1 1 1
1 1 1
1 1 1
1 1 1
1 1 1
1 1 1
1 1 1
1 1 1
1 1 1
1 1 1
1 1 1
1 1 1
1 1 1
1 1 1
0.0962427 0.1144486 0.3456774
0.1016564 0.1150075 0.3477186
0.1445201 0.1204767 0.3612088
0.3671215 0.1474072 0.3874047
0.775276 0.2953109 0.340717
0.9834886 0.7551358 0.6929602
1 0.9740236 0.9464538
1 1 1
1 1 1
0.092486 0.1162645 0.3509198
0.0981946 0.1167753 0.3528434
0.1425149 0.1216547 0.3655091
0.3676753 0.147633 0.3879873
0.7754435 0.2951814 0.3388861
0.9834832 0.7552384 0.6929747
1 0.9740284 0.9464545
1 1 1
1 1 1
0.1081279 0.1623575 0.3670376
0.1078435 0.1599168 0.3701184
0.1135858 0.1351525 0.4094665
0.3724613 0.1495912 0.3930213
0.7769174 0.2940052 0.3220612
0.9834365 0.7561299 0.6931009
1 0.9740707 0.9464614
1 1 1
1 1 1
0.1873682 0.3679869 0.3819676
0.1869955 0.3672545 0.3812097
0.183701 0.3607806 0.3745092
0.3588179 0.3588161 0.3588426
0.7751518 0.3947211 0.2756045
0.983037 0.7636418 0.694201
1 0.9744385 0.946521
1 1 1
1 1 1
0.4124855 0.7440069 0.4238076
0.4123581 0.743938 0.4225568
0.4118164 0.7438879 0.4119262
0.4120166 0.7487809 0.2900287
0.7551347 0.7489156 0.2886465
0.9800854 0.8144312 0.7036539
1 0.9775683 0.947041
1 1 1
1 1 1
0.7436813 0.9731014 0.6515216
0.7437963 0.9730987 0.6515492
0.7447949 0.9730753 0.6517902
0.7531899 0.9728749 0.6538811
0.8091712 0.9713995 0.6711742
0.9713249 0.9674035 0.7670451
1 1 0.9515084
1 1 1
1 1 1
0.9665153 1 0.9272629
0.9665209 1 0.9272644
0.9665696 1 0.9272769
0.9669929 1 0.9273861
0.9705882 1 0.9283349
0.9962494 1 0.9362291
1 1 0.9812238
1 1 1
1 1 1
1 1 1
1 1 1
1 1 1
1 1 1
1 1 1
1 1 1
1 1 1
1 1 1
1 1 1
1 1 1
1 1 1
1 1 1
1 1 1
1 1 1
1 1 1
1 1 1
1 1 1
1 1 1
0.2728991 0.3179846 0.7467552
0.2746414 0.3183021 0.7469312
0.289553 0.321064 0.7483999
0.4000129 0.3418168 0.7578896
0.7523174 0.4388751 0.7700955
0.9847816 0.7416316 0.7629957
1 0.971158 0.9464587
1 1 1
1 1 1
0.2718343 0.3184276 0.7473216
0.2735866 0.3187434 0.7474955
0.2885799 0.3214915 0.7489469
0.3995199 0.3421871 0.7583051
0.7523671 0.4389537 0.770144
0.9847926 0.7416289 0.7629021
1 0.9711631 0.9464594
1 1 1
1 1 1
0.2618844 0.3223475 0.7523029
0.2637327 0.3226484 0.752459
0.2795109 0.3252718 0.7537578
0.3949825 0.3454613 0.7619588
0.7528003 0.4396391 0.7705661
0.984889 0.7416054 0.7620804
1 0.9712074 0.9464658
1 1 1
1 1 1
0.2792068 0.4267627 0.7674323
0.279094 0.4260329 0.7677642
0.2781407 0.4194986 0.7708188
0.3263854 0.3762439 0.7970499
0.7565042 0.4455676 0.7741758
0.9857392 0.7413813 0.7545138
1 0.9715923 0.9465213
1 1 1
1 1 1
0.4538399 0.7501283 0.7635109
0.4537633 0.750062 0.7634454
0.4530942 0.7494815 0.7628722
0.4471469 0.7442768 0.7577338
0.741868 0.7418666 0.7418881
0.983731 0.7871466 0.7325652
1 0.9748645 0.947007
1 1 1
1 1 1
0.6833067 0.9722629 0.6974412
0.6832948 0.9722593 0.6972767
0.6831904 0.9722278 0.6958322
0.6891423 0.9720422 0.6892759
0.7684163 0.9700269 0.6885017
0.9673297 0.9633596 0.7589085
1 0.9983486 0.9512676
1 1 1
1 1 1
0.9623745 1 0.9259531
0.9623805 1 0.9259545
0.9624323 1 0.9259673
0.9628832 1 0.9260784
0.9667063 1 0.9270439
0.9937124 1 0.9350927
1 1 0.9807916
1 1 1
1 1 1
1 1 1
1 1 1
1 1 1
1 1 1
1 1 1
1 1 1
1 1 1
1 1 1
1 1 1
1 1 1
1 1 1
1 1 1
1 1 1
1 1 1
1 1 1
1 1 1
1 1 1
1 1 1
0.6698663 0.705435 0.9792718
0.6700791 0.7054973 0.9792727
0.6719225 0.7060394 0.9792809
0.6871098 0.7106558 0.9793399
0.770501 0.7352764 0.9810124
0.9672787 0.8165319 0.9786357
1 0.9672917 0.9762512
1 1 1
1 1 1
0.6697471 0.7054574 0.9793134
0.6699601 0.7055197 0.9793144
0.6718055 0.7060618 0.9793223
0.6870088 0.7106778 0.9793797
0.7704726 0.73531 0.9810387
0.9672817 0.8165368 0.9786386
1 0.9672916 0.9762467
1 1 1
1 1 1
0.6686963 0.7056522 0.9796774
0.6689113 0.7057145 0.9796781
0.6707748 0.7062562 0.9796844
0.6861185 0.7108692 0.9797278
0.7702233 0.7356038 0.9812685
0.9673078 0.8165802 0.9786638
1 0.9672912 0.9762072
1 1 1
1 1 1
0.6586528 0.7072885 0.9829039
0.6588887 0.7073505 0.9829029
0.6609309 0.70789 0.9828943
0.6776591 0.7124835 0.9828117
0.7679275 0.738183 0.983291
0.967535 0.8169573 0.9788832
1 0.9672875 0.9758609
1 1 1
1 1 1
0.6546727 0.7723565 0.994824
0.6546853 0.7723068 0.9948438
0.6547972 0.7718722 0.9950168
0.655893 0.7679943 0.9965969
0.7249466 0.755473 1
0.9694786 0.8201813 0.9807602
1 0.9672479 0.9726997
1 1 1
1 1 1
0.7614805 0.9678444 0.978105
0.7614727 0.9678404 0.9781011
0.7614053 0.9678053 0.978067
0.760815 0.9674986 0.9777691
0.7555156 0.9647485 0.9750981
0.9595198 0.9595191 0.9595306
1 0.9866151 0.9634885
1 1 1
1 1 1
0.9377107 1 0.9433292
0.9377094 1 0.9433209
0.9376979 1 0.9432484
0.9375977 1 0.9426121
0.9408654 1 0.9409179
0.9747274 1 0.9412672
1 1 0.9768635
1 1 1
1 1 1
1 1 1
1 1 1
1 1 1
1 1 1
1 1 1
1 1 1
1 1 1
1 1 1
1 1 1
1 1 1
1 1 1
1 1 1
1 1 1
1 1 1
1 1 1
1 1 1
1 1 1
1 1 1
0.9243084 0.9400557 1
0.9243204 0.9400603 1
0.9244253 0.9401005 1
0.9253352 0.9404501 1
0.9328765 0.9433966 1
0.9742236 0.9577281 1
1 1 1
1 1 1
1 1 1
0.9243019 0.9400563 1
0.9243139 0.9400609 1
0.9244188 0.9401011 1
0.9253287 0.9404506 1
0.9328709 0.9433973 1
0.9742222 0.95773 1
1 1 1
1 1 1
1 1 1
0.9242449 0.9400611 1
0.9242569 0.9400657 1
0.924362 0.9401059 1
0.9252728 0.9404555 1
0.932822 0.9434028 1
0.9742099 0.957747 1
1 1 1
1 1 1
1 1 1
0.9237431 0.9401023 1
0.9237552 0.9401069 1
0.9238612 0.9401473 1
0.9247798 0.9404976 1
0.9323912 0.9434508 1
0.9741024 0.9578955 1
1 1 1
1 1 1
1 1 1
0.9189721 0.9403922 1
0.9189853 0.9403969 1
0.9191002 0.9404382 1
0.9200962 0.9407965 1
0.9283142 0.9438114 1
0.9731118 0.9592009 1
1 1 1
1 1 1
1 1 1
0.9188674 0.9719684 1
0.918868 0.9719656 1
0.9188731 0.9719409 1
0.9189182 0.9717251 1
0.9193697 0.9698133 1
0.9527575 0.9667655 1
1 1 1
1 1 1
1 1 1
0.9747902 1 1
0.9747898 1 1
0.9747859 1 1
0.9747519 1 1
0.9744542 1 1
0.9717855 1 1
1 1 1
1 1 1
1 1 1
1 1 1
1 1 1
1 1 1
1 1 1
1 1 1
1 1 1
1 1 1
1 1 1
1 1 1
1 1 1
1 1 1
1 1 1
1 1 1
1 1 1
1 1 1
1 1 1
1 1 1
1 1 1
1 1 1
1 1 1
1 1 1
1 1 1
1 1 1
1 1 1
1 1 1
1 1 1
1 1 1
1 1 1
1 1 1
1 1 1
1 1 1
1 1 1
1 1 1
1 1 1
1 1 1
1 1 1
1 1 1
1 1 1
1 1 1
1 1 1
1 1 1
1 1 1
1 1 1
1 1 1
1 1 1
1 1 1
1 1 1
1 1 1
1 1 1
1 1 1
1 1 1
1 1 1
1 1 1
1 1 1
1 1 1
1 1 1
1 1 1
1 1 1
1 1 1
1 1 1
1 1 1
1 1 1
1 1 1
1 1 1
1 1 1
1 1 1
1 1 1
1 1 1
1 1 1
1 1 1
1 1 1
1 1 1
1 1 1
1 1 1
1 1 1
1 1 1
1 1 1
1 1 1
1 1 1
1 1 1
1 1 1
1 1 1
1 1 1
1 1 1
1 1 1
1 1 1
1 1 1
1 1 1
1 1 1
1 1 1
1 1 1
1 1 1
1 1 1
1 1 1
1 1 1
1 1 1
1 1 1
1 1 1
1 1 1
1 1 1
1 1 1
1 1 1
1 1 1
1 1 1
1 1 1
1 1 1
1 1 1
1 1 1
1 1 1
1 1 1
1 1 1
1 1 1
1 1 1
1 1 1
1 1 1
1 1 1
1 1 1
1 1 1
1 1 1
1 1 1
1 1 1
1 1 1
1 1 1
1 1 1
1 1 1
1 1 1
1 1 1
1 1 1
1 1 1
1 1 1
1 1 1
1 1 1
1 1 1
1 1 1
1 1 1
1 1 1
1 1 1
1 1 1
1 1 1
1 1 1
1 1 1
1 1 1
1 1 1
1 1 1
1 1 1
1 1 1
1 1 1
1 1 1
1 1 1
1 1 1
1 1 1
1 1 1
1 1 1
1 1 1
1 1 1
1 1 1
1 1 1
1 1 1
1 1 1
1 1 1
1 1 1
1 1 1
1 1 1
1 1 1
1 1 1
1 1 1
1 1 1
1 1 1
1 1 1
1 1 1
1 1 1
1 1 1
1 1 1
1 1 1
1 1 1
1 1 1
1 1 1
1 1 1
1 1 1
1 1 1
