luts/AgX_Base_Rec2100-HLG_p3_lim.cube
TITLE "AgX_Formation Rec.2100 HLG P3 limited"
# AgX Base Rec.2100 HLG Formation P3 Limited LUT
# This LUT expects input to be E Gamut Log2 encoding from -10 stops to +15 stops
# But the end image formation will be from -10 to 6.5 encoded in power 2.4
# Rec.709 generated parameters rotate = [3.0, -1, -2.0], inset = [0.4, 0.22, 0.13], outset = [0.4, 0.22, 0.04]
#  Same inset matrix can be generated in Rec.2020 with rotation [2.13976149, -1.22827335, -3.05174246], Inset: [0.32965205, 0.28051336, 0.12475368], outset = [0.32317438, 0.28325605, 0.0374326]
# The image formed has 40% per-channel shifts
# HDR max nits is 1000, SDR max nits is 203
LUT_3D_SIZE 57
0.0000079 0.0000036 0.0000306
0.0063834 0.0016329 0
0.0118389 0.0030522 0
0.0174964 0.0045619 0
0.0235428 0.0062214 0
0.0301 0.0080735 0
0.0372804 0.0101565 0
0.0452034 0.0125074 0
0.0540109 0.0151999 0
0.063976 0.0183899 0
0.0752765 0.0219374 0
0.0880951 0.0259022 0
0.1026664 0.0303536 0
0.1192828 0.0353747 0
0.1383042 0.0410661 0
0.1599489 0.0480167 0.005316
0.1846418 0.0565517 0.0135491
0.213416 0.0659846 0.0187482
0.2470179 0.0764944 0.0227615
0.2862497 0.0883208 0.0258636
0.3318747 0.1018085 0.0283493
0.384415 0.1174829 0.0312494
0.4437436 0.1361778 0.0373463
0.5081514 0.1592425 0.0514387
0.5705674 0.1870017 0.0709507
0.6276168 0.2199786 0.0955677
0.6797223 0.2590839 0.1274903
0.7273429 0.3044382 0.1675155
0.7708821 0.3556393 0.2147132
0.8105683 0.4141676 0.266748
0.8465773 0.4817568 0.3303551
0.8792403 0.5525073 0.4045171
0.9088827 0.614631 0.4873825
0.9358031 0.6695791 0.5684249
0.9602777 0.718641 0.6356228
0.9825596 0.7627046 0.693004
1 0.8024349 0.7429509
1 0.838362 0.7869609
1 0.8709266 0.8260675
1 0.9005046 0.8610342
1 0.9274221 0.8924524
1 0.9519646 0.9207969
1 0.9743831 0.9464579
1 0.9948995 0.969762
1 1 0.990986
1 1 1
1 1 1
1 1 1
1 1 1
1 1 1
1 1 1
1 1 1
1 1 1
1 1 1
1 1 1
1 1 1
1 1 1
0.0028429 0.0061072 0.0023333
0.0067116 0.0065595 0.0008393
0.012055 0.0078733 0.0008898
0.0176472 0.0091239 0.0008605
0.0236448 0.0104428 0.000742
0.0301636 0.0119118 0.0004583
0.0373137 0.0135956 0
0.0452131 0.0155501 0
0.0540179 0.0178879 0
0.0639913 0.0207264 0
0.0752838 0.023952 0
0.0880915 0.0276287 0
0.1026541 0.0318266 0
0.1192653 0.0366275 0
0.1382847 0.0421295 0
0.1599304 0.0489104 0.0055187
0.18463 0.0572881 0.0136194
0.2134087 0.0665989 0.0187917
0.2470135 0.0770121 0.0227919
0.2862469 0.0887606 0.0258865
0.3318727 0.1021839 0.028368
0.3844129 0.1178036 0.0312663
0.4437406 0.1364501 0.037363
0.5081472 0.15947 0.0514548
0.5705644 0.1871896 0.0709638
0.6276144 0.2201328 0.0955791
0.6797203 0.2592083 0.1275003
0.7273413 0.3045363 0.1675241
0.7708808 0.3557168 0.2147199
0.8105672 0.4142286 0.2667533
0.8465764 0.481804 0.3303597
0.8792396 0.5525371 0.4045209
0.9088821 0.6146491 0.4873856
0.9358027 0.6695904 0.5684268
0.9602774 0.7186481 0.635624
0.9825594 0.7627091 0.6930047
1 0.8024378 0.7429513
1 0.8383639 0.7869612
1 0.8709278 0.8260677
1 0.9005054 0.8610343
1 0.9274226 0.8924525
1 0.9519649 0.9207969
1 0.9743834 0.9464579
1 0.9948997 0.9697621
1 1 0.990986
1 1 1
1 1 1
1 1 1
1 1 1
1 1 1
1 1 1
1 1 1
1 1 1
1 1 1
1 1 1
1 1 1
1 1 1
0.0052833 0.0113508 0.0043229
0.0079948 0.0116133 0.0015565
0.0123705 0.0120991 0.0015483
0.0178417 0.0133453 0.0015968
0.0237672 0.0145722 0.0015893
0.0302368 0.01587 0.0015224
0.0373505 0.0173174 0.0013818
0.0452218 0.0189873 0.0011287
0.0540343 0.021046 0.0006596
0.0640114 0.0235562 0
0.0752922 0.0264555 0
0.0880858 0.0298198 0
0.1026371 0.0337278 0
0.1192416 0.0382662 0
0.1382584 0.0435348 0
0.1599053 0.0501011 0.0057823
0.184614 0.0582758 0.0137142
0.2133987 0.0674265 0.0188506
0.2470075 0.0777117 0.0228332
0.2862432 0.0893562 0.0259176
0.3318699 0.1026932 0.0283935
0.38441 0.1182391 0.0312895
0.4437364 0.1368203 0.0373857
0.5081415 0.1597794 0.0514766
0.5705604 0.1874454 0.0709816
0.6276111 0.2203426 0.0955947
0.6797176 0.2593777 0.127514
0.7273392 0.3046699 0.1675359
0.770879 0.3558224 0.2147289
0.8105657 0.4143118 0.2667605
0.8465751 0.4818682 0.330366
0.8792386 0.5525776 0.4045262
0.9088814 0.6146738 0.4873898
0.9358022 0.6696057 0.5684294
0.960277 0.7186577 0.6356256
0.9825591 0.7627152 0.6930057
1 0.8024417 0.742952
1 0.8383664 0.7869616
1 0.8709295 0.826068
1 0.9005064 0.8610345
1 0.9274233 0.8924526
1 0.9519654 0.920797
1 0.9743837 0.946458
1 0.9948999 0.9697621
1 1 0.9909861
1 1 1
1 1 1
1 1 1
1 1 1
1 1 1
1 1 1
1 1 1
1 1 1
1 1 1
1 1 1
1 1 1
1 1 1
0.0078206 0.0168045 0.0063662
0.0093857 0.0169566 0.0023019
0.013544 0.0172795 0.0022906
0.0181583 0.0177722 0.0022746
0.0239566 0.0189635 0.0023108
0.0303444 0.0201646 0.0022985
0.0374028 0.0214521 0.0022335
0.0452349 0.0229042 0.0021057
0.0540684 0.0247473 0.0019215
0.0640392 0.0269528 0.0016192
0.0753023 0.0295292 0.001035
0.0880772 0.0325657 0
0.1026138 0.0361531 0
0.1192095 0.0403877 0
0.1382229 0.0453763 0
0.1598717 0.0516768 0.0061211
0.1845923 0.0595938 0.0138419
0.2133852 0.0685373 0.0189304
0.2469993 0.0786546 0.0228892
0.286238 0.0901613 0.0259599
0.3318661 0.1033831 0.0284282
0.384406 0.11883 0.0313209
0.4437308 0.137323 0.0374166
0.5081337 0.1602001 0.0515064
0.570555 0.1877933 0.0710059
0.6276067 0.2206281 0.0956159
0.6797139 0.2596084 0.1275326
0.7273362 0.3048519 0.167552
0.7708765 0.3559662 0.2147412
0.8105636 0.414425 0.2667704
0.8465734 0.4819558 0.3303747
0.8792373 0.5526329 0.4045333
0.9088803 0.6147074 0.4873955
0.9358014 0.6696265 0.5684329
0.9602765 0.7186708 0.6356277
0.9825587 0.7627235 0.6930071
1 0.8024471 0.7429528
1 0.8383699 0.7869621
1 0.8709317 0.8260684
1 0.9005079 0.8610347
1 0.9274243 0.8924527
1 0.951966 0.9207971
1 0.9743841 0.9464581
1 0.9949002 0.9697621
1 1 0.9909861
1 1 1
1 1 1
1 1 1
1 1 1
1 1 1
1 1 1
1 1 1
1 1 1
1 1 1
1 1 1
1 1 1
1 1 1
0.0105339 0.0226394 0.0085177
0.0109298 0.0227081 0.0030999
0.0148677 0.0229516 0.003089
0.0192584 0.0232713 0.0030677
0.0242753 0.0237734 0.003043
0.0305291 0.0249167 0.003063
0.0374965 0.0260939 0.0030371
0.0452664 0.0273785 0.0029603
0.0541343 0.0290686 0.0028558
0.0640808 0.0309952 0.0026689
0.075316 0.0332598 0.0023625
0.0880653 0.0359631 0.0018459
0.1025827 0.0392079 0.0006536
0.1191666 0.0431027 0
0.1381754 0.0477651 0
0.1598267 0.053745 0.006551
0.1845632 0.0613417 0.0140129
0.2133669 0.0700213 0.0190381
0.246988 0.0799209 0.022965
0.286231 0.0912466 0.0260172
0.3318609 0.1043156 0.0284752
0.3844005 0.1196304 0.0313637
0.4437231 0.1380051 0.0374587
0.508123 0.1607715 0.0515468
0.5705475 0.1882664 0.071039
0.6276006 0.2210166 0.0956448
0.6797089 0.2599224 0.127558
0.7273322 0.3050996 0.1675739
0.7708732 0.356162 0.2147579
0.8105608 0.4145792 0.2667837
0.8465711 0.482075 0.3303864
0.8792355 0.5527082 0.404543
0.908879 0.6147532 0.4874032
0.9358004 0.6696549 0.5684377
0.9602757 0.7186887 0.6356306
0.9825581 0.7627349 0.6930089
1 0.8024543 0.742954
1 0.8383746 0.7869629
1 0.8709348 0.8260689
1 0.9005099 0.861035
1 0.9274256 0.8924529
1 0.9519669 0.9207972
1 0.9743847 0.9464581
1 0.9949005 0.9697622
1 1 0.9909861
1 1 1
1 1 1
1 1 1
1 1 1
1 1 1
1 1 1
1 1 1
1 1 1
1 1 1
1 1 1
1 1 1
1 1 1
0.013473 0.0289635 0.0108068
0.0133482 0.0289902 0.0060321
0.0163563 0.029153 0.003955
0.0205381 0.0293927 0.003935
0.0253174 0.0297155 0.0039043
0.0308496 0.0302268 0.0038694
0.0376744 0.0313277 0.0038705
0.045453 0.0326055 0.003842
0.0542548 0.0340915 0.003773
0.0641479 0.035767 0.0036388
0.0753382 0.0377386 0.0034208
0.0880512 0.0401138 0.0030825
0.1025423 0.0430053 0.0025434
0.1191103 0.0465336 0.0015383
0.1381125 0.0508289 0
0.159767 0.0564332 0.0070892
0.184524 0.0636415 0.0142406
0.2133421 0.0719916 0.019183
0.2469727 0.0816133 0.0230674
0.2862213 0.0927042 0.0260948
0.3318537 0.1055726 0.028539
0.3843929 0.1207123 0.0314217
0.4437125 0.138929 0.0375159
0.5081085 0.1615468 0.0516019
0.5705374 0.188909 0.071084
0.6275924 0.2215448 0.0956841
0.679702 0.2603496 0.1275925
0.7273267 0.3054367 0.1676038
0.7708686 0.3564287 0.2147807
0.8105569 0.4147893 0.266802
0.846568 0.4822375 0.3304024
0.879233 0.5528107 0.4045563
0.9088771 0.6148156 0.4874138
0.935799 0.6696936 0.5684442
0.9602747 0.7187131 0.6356346
0.9825574 0.7627504 0.6930114
1 0.8024643 0.7429556
1 0.838381 0.7869639
1 0.8709389 0.8260695
1 0.9005126 0.8610355
1 0.9274274 0.8924532
1 0.951968 0.9207974
1 0.9743854 0.9464583
1 0.9949011 0.9697623
1 1 0.9909862
1 1 1
1 1 1
1 1 1
1 1 1
1 1 1
1 1 1
1 1 1
1 1 1
1 1 1
1 1 1
1 1 1
1 1 1
0.0166833 0.0358746 0.0132582
0.0165746 0.0358876 0.0096092
0.0180763 0.0359737 0.0049032
0.0220018 0.0361531 0.0048841
0.0265638 0.0363938 0.0048555
0.0318426 0.0367228 0.0048149
0.0380877 0.0373357 0.0047798
0.0457951 0.0385958 0.004785
0.054464 0.0399031 0.0047395
0.0642614 0.0413572 0.0046381
0.0753799 0.0430612 0.0044694
0.0880394 0.0451242 0.004212
0.102493 0.0476647 0.0038264
0.1190382 0.0508122 0.0032316
0.1380304 0.0547095 0.0021955
0.1596889 0.0598882 0.0077533
0.184472 0.0666396 0.014542
0.2133086 0.0745881 0.019377
0.2469518 0.083862 0.0232052
0.286208 0.0946531 0.0261997
0.3318437 0.1072612 0.0286254
0.3843826 0.1221708 0.0315005
0.4436981 0.1401779 0.0375936
0.5080887 0.1625971 0.0516767
0.5705236 0.1897811 0.0711453
0.6275811 0.2222625 0.0957377
0.6796926 0.2609304 0.1276396
0.7273193 0.3058955 0.1676444
0.7708623 0.3567916 0.2148117
0.8105516 0.4150753 0.2668268
0.8465637 0.4824588 0.3304243
0.8792296 0.5529503 0.4045743
0.9088745 0.6149005 0.4874283
0.9357971 0.6697463 0.568453
0.9602733 0.7187462 0.6356401
0.9825564 0.7627715 0.6930148
1 0.8024778 0.7429578
1 0.8383898 0.7869654
1 0.8709446 0.8260705
1 0.9005164 0.8610361
1 0.9274298 0.8924536
1 0.9519696 0.9207977
1 0.9743865 0.9464584
1 0.9949018 0.9697624
1 1 0.9909863
1 1 1
1 1 1
1 1 1
1 1 1
1 1 1
1 1 1
1 1 1
1 1 1
1 1 1
1 1 1
1 1 1
1 1 1
0.0202126 0.0434769 0.0159001
0.0201177 0.0434824 0.0129157
0.0200925 0.0435124 0.0059481
0.0237232 0.0436462 0.0059298
0.0280433 0.0438467 0.005906
0.0332332 0.0442316 0.0058865
0.0392795 0.044739 0.005857
0.0463458 0.0454519 0.0058193
0.0548086 0.0466005 0.0057902
0.064455 0.0478622 0.0057124
0.0754625 0.0493289 0.0055772
0.0880413 0.0511053 0.0053699
0.1024394 0.05331 0.0050657
0.1189504 0.0560777 0.0046208
0.1379262 0.0595601 0.0039479
0.1595886 0.0642742 0.0085611
0.1844035 0.0705059 0.014937
0.2132638 0.0779791 0.0196353
0.2469234 0.0868282 0.0233902
0.2861897 0.0972435 0.026341
0.33183 0.109519 0.0287422
0.3843683 0.1241299 0.0316071
0.4436783 0.1418617 0.037699
0.5080618 0.1640171 0.0517783
0.5705047 0.1909627 0.0712286
0.6275658 0.2232365 0.0958106
0.6796799 0.2617196 0.1277037
0.7273091 0.3065192 0.1676999
0.7708538 0.3572856 0.214854
0.8105444 0.4154647 0.2668607
0.8465578 0.4827601 0.330454
0.879225 0.5531404 0.4045989
0.908871 0.6150162 0.4874479
0.9357945 0.6698181 0.5684651
0.9602714 0.7187914 0.6356475
0.982555 0.7628002 0.6930195
1 0.8024963 0.7429608
1 0.8384017 0.7869673
1 0.8709524 0.8260717
1 0.9005214 0.8610369
1 0.9274331 0.8924542
1 0.9519718 0.920798
1 0.974388 0.9464587
1 0.9949027 0.9697626
1 1 0.9909864
1 1 1
1 1 1
1 1 1
1 1 1
1 1 1
1 1 1
1 1 1
1 1 1
1 1 1
1 1 1
1 1 1
1 1 1
0.0241562 0.0519819 0.018716
0.0240881 0.0520189 0.0161478
0.0239879 0.0520842 0.0111395
0.0260562 0.0522277 0.0071205
0.03012 0.0524414 0.0071063
0.0349689 0.0527252 0.0070851
0.0407044 0.0531018 0.0070542
0.04744 0.0535997 0.0070099
0.0553476 0.0542948 0.0069518
0.0647779 0.0553896 0.006892
0.0756216 0.0566514 0.0067822
0.08808 0.058174 0.0066112
0.1023939 0.0600705 0.0063611
0.1188515 0.0624747 0.0060031
0.1377994 0.0655427 0.0054874
0.1594633 0.0697694 0.0095301
0.1843153 0.0754321 0.0154495
0.2132046 0.0823614 0.0199769
0.2468851 0.0907061 0.023637
0.2861646 0.1006619 0.0265305
0.3318109 0.1125204 0.0288994
0.3843485 0.1267496 0.0317511
0.4436511 0.1441237 0.0378417
0.5080251 0.165932 0.0519161
0.570479 0.1925608 0.0713418
0.6275449 0.2245565 0.0959098
0.6796625 0.2627908 0.127791
0.7272953 0.3073666 0.1677754
0.7708423 0.3579575 0.2149116
0.8105346 0.4159945 0.2669068
0.8465498 0.4831702 0.3304945
0.8792188 0.553399 0.4046324
0.9088663 0.6151737 0.4874747
0.9357909 0.6699159 0.5684816
0.9602688 0.718853 0.6356576
0.9825531 0.7628394 0.6930259
1 0.8025214 0.7429649
1 0.8384179 0.7869699
1 0.8709629 0.8260734
1 0.9005283 0.861038
1 0.9274377 0.8924549
1 0.9519748 0.9207985
1 0.9743899 0.946459
1 0.994904 0.9697628
1 1 0.9909865
1 1 1
1 1 1
1 1 1
1 1 1
1 1 1
1 1 1
1 1 1
1 1 1
1 1 1
1 1 1
1 1 1
1 1 1
0.0286312 0.0616474 0.0217229
0.0285728 0.0616807 0.0194922
0.0284901 0.0617372 0.0156421
0.0288139 0.0618403 0.008451
0.0325112 0.0619988 0.0084362
0.0369994 0.0622102 0.0084148
0.0423902 0.0624922 0.0083845
0.048805 0.0628679 0.0083417
0.0563778 0.0633672 0.0082818
0.0652959 0.064064 0.0082029
0.0759117 0.0651518 0.008114
0.0881955 0.0664573 0.0079721
0.1023828 0.0680824 0.007763
0.1187559 0.070154 0.0074656
0.1376553 0.0728263 0.0070463
0.1593139 0.0765629 0.0106772
0.1842049 0.0816281 0.0161058
0.2131279 0.0879585 0.0204244
0.246834 0.0957243 0.0239641
0.2861302 0.1051336 0.0267836
0.3317844 0.1164819 0.0291104
0.3843211 0.1302322 0.0319451
0.4436138 0.1471485 0.0380347
0.507975 0.1685051 0.0521027
0.570444 0.1947165 0.0714956
0.6275165 0.226342 0.0960447
0.6796389 0.2642427 0.1279098
0.7272766 0.3085169 0.1678782
0.7708265 0.3588707 0.21499
0.8105213 0.4167153 0.2669696
0.846539 0.4837284 0.3305497
0.8792103 0.5537506 0.4046781
0.9088598 0.615388 0.4875112
0.9357861 0.670049 0.568504
0.9602652 0.7189368 0.6356714
0.9825506 0.7628928 0.6930345
1 0.8025556 0.7429704
1 0.83844 0.7869735
1 0.8709773 0.8260758
1 0.9005377 0.8610396
1 0.9274438 0.8924559
1 0.9519789 0.9207992
1 0.9743926 0.9464594
1 0.9949058 0.9697631
1 1 0.9909867
1 1 1
1 1 1
1 1 1
1 1 1
1 1 1
1 1 1
1 1 1
1 1 1
1 1 1
1 1 1
1 1 1
1 1 1
0.0336124 0.0724001 0.0251446
0.0335643 0.0724327 0.0232327
0.0334974 0.0724848 0.0201704
0.033404 0.072572 0.0145574
0.0353159 0.0726997 0.0099211
0.0394267 0.072859 0.0099007
0.0444415 0.0730725 0.009872
0.0504928 0.0733587 0.0098321
0.0577239 0.0737419 0.0097767
0.0662923 0.0742547 0.0097004
0.076408 0.0749731 0.0095999
0.0884498 0.0760981 0.0094828
0.1024521 0.077494 0.009308
0.1186941 0.0792753 0.0090583
0.137511 0.0815876 0.0087087
0.1591483 0.0848531 0.0120185
0.1840737 0.0893187 0.0169338
0.2130317 0.0950167 0.0210041
0.2467671 0.1021428 0.0243939
0.2860838 0.110924 0.0271191
0.3317478 0.1216651 0.029392
0.3842831 0.1348289 0.0322054
0.4435624 0.1511702 0.0382948
0.5079068 0.1719473 0.0523549
0.5703962 0.1976145 0.0717041
0.6274778 0.2287512 0.096228
0.6796068 0.266207 0.1280715
0.7272511 0.3100759 0.1680183
0.7708051 0.3601109 0.2150966
0.8105032 0.417695 0.2670552
0.8465242 0.4844878 0.3306249
0.8791987 0.5542285 0.4047403
0.9088509 0.6156795 0.4875609
0.9357795 0.6702302 0.5685346
0.9602604 0.719051 0.6356901
0.9825471 0.7629654 0.6930464
1 0.8026022 0.742978
1 0.8384702 0.7869784
1 0.8709969 0.8260789
1 0.9005505 0.8610416
1 0.9274522 0.8924573
1 0.9519844 0.9208001
1 0.9743963 0.9464601
1 0.9949083 0.9697635
1 1 0.990987
1 1 1
1 1 1
1 1 1
1 1 1
1 1 1
1 1 1
1 1 1
1 1 1
1 1 1
1 1 1
1 1 1
1 1 1
0.0392033 0.0844632 0.0290525
0.0391646 0.084496 0.0274277
0.0391113 0.0845456 0.0249489
0.0390378 0.0846234 0.0208835
0.0389358 0.0847506 0.0127721
0.0423617 0.0848778 0.0115717
0.0469751 0.085042 0.0115455
0.0526234 0.085263 0.0115092
0.0594622 0.0855607 0.0114593
0.0676603 0.0859616 0.0113907
0.0774026 0.0865017 0.011297
0.0889304 0.0872638 0.0111737
0.1026739 0.0884733 0.0110291
0.1187201 0.0900131 0.0108203
0.1374024 0.0920144 0.0105271
0.1589882 0.0948483 0.0135689
0.1839307 0.0987409 0.0179618
0.2129179 0.1038013 0.021745
0.2466829 0.1102501 0.0249525
0.2860221 0.1183363 0.0275602
0.3316975 0.1283788 0.0297653
0.3842303 0.1408438 0.0325529
0.4434917 0.1564791 0.0386441
0.5078139 0.1765257 0.0526947
0.5703312 0.2014934 0.0719865
0.6274252 0.2319911 0.0964769
0.6795631 0.2688578 0.1282914
0.7272165 0.3121849 0.1682091
0.7707759 0.361793 0.2152417
0.8104785 0.4190256 0.2671717
0.8465041 0.48552 0.3307274
0.8791829 0.5548774 0.404825
0.9088389 0.6160759 0.4876287
0.9357705 0.6704768 0.5685763
0.9602538 0.7192064 0.6357157
0.9825423 0.7630643 0.6930625
1 0.8026657 0.7429883
1 0.8385112 0.786985
1 0.8710235 0.8260833
1 0.9005679 0.8610445
1 0.9274637 0.8924592
1 0.951992 0.9208013
1 0.9744013 0.9464609
1 0.9949116 0.969764
1 1 0.9909873
1 1 1
1 1 1
1 1 1
1 1 1
1 1 1
1 1 1
1 1 1
1 1 1
1 1 1
1 1 1
1 1 1
1 1 1
0.0455242 0.0980965 0.0335356
0.0454937 0.0981293 0.0321626
0.045452 0.0981772 0.0301359
0.0453947 0.0982488 0.0270116
0.0453159 0.098359 0.0217596
0.0459248 0.0985151 0.0134628
0.05012 0.0986439 0.0134394
0.0553327 0.098818 0.0134072
0.0617322 0.0990533 0.0133631
0.0695013 0.0993715 0.0133026
0.0788382 0.0998024 0.0132201
0.0899608 0.1003864 0.0131077
0.1031511 0.1012184 0.0129606
0.1189187 0.1025665 0.0127888
0.1373932 0.1043135 0.012545
0.1588767 0.1067718 0.0153422
0.1837997 0.1101447 0.0192155
0.2127967 0.1145938 0.0226773
0.2465835 0.1203583 0.0256689
0.2859436 0.1277075 0.0281337
0.3316297 0.1369757 0.0302559
0.3841576 0.1486351 0.0330138
0.4433945 0.1634268 0.0391112
0.5076877 0.1825726 0.053151
0.5702426 0.2066565 0.0723681
0.6273536 0.2363297 0.0968144
0.6795039 0.2724236 0.1285903
0.7271697 0.3150308 0.1684689
0.7707362 0.364071 0.2154387
0.8104449 0.4208306 0.2673305
0.8464767 0.486922 0.3308669
0.8791614 0.5557573 0.4049404
0.9088226 0.6166142 0.487721
0.9357583 0.670812 0.568633
0.9602449 0.7194178 0.6357505
0.9825358 0.763199 0.6930844
1 0.8027522 0.7430023
1 0.8385671 0.7869941
1 0.8710599 0.8260892
1 0.9005917 0.8610483
1 0.9274793 0.8924617
1 0.9520023 0.920803
1 0.9744081 0.946462
1 0.9949161 0.9697648
1 1 0.9909878
1 1 1
1 1 1
1 1 1
1 1 1
1 1 1
1 1 1
1 1 1
1 1 1
1 1 1
1 1 1
1 1 1
1 1 1
0.0527178 0.1136073 0.0387024
0.0526943 0.1136398 0.0375467
0.0526622 0.1136861 0.0358793
0.0526182 0.113753 0.0334063
0.0525579 0.1138519 0.0295583
0.052475 0.1140019 0.0229358
0.0540179 0.1141754 0.0155953
0.0587728 0.1143157 0.0155674
0.0646937 0.1145058 0.0155291
0.0719789 0.1147637 0.0154767
0.0808427 0.1151137 0.0154052
0.0915185 0.1155897 0.0153078
0.1042631 0.1162381 0.0151757
0.1194115 0.1171716 0.0150032
0.1375839 0.1187219 0.0148049
0.1588889 0.1208708 0.0173496
0.1837286 0.1237985 0.0207164
0.2126946 0.1276928 0.0238293
0.2464806 0.1328003 0.0265734
0.2858504 0.1394036 0.0288693
0.3315415 0.147849 0.0308938
0.3840588 0.1586127 0.0336202
0.4432613 0.1724272 0.0397321
0.5075168 0.1904902 0.0537608
0.5701221 0.213481 0.0728824
0.6272565 0.2421072 0.0972714
0.6794236 0.2771996 0.1289962
0.7271064 0.3188582 0.1688226
0.7706822 0.367149 0.2157063
0.8103993 0.4232753 0.2675466
0.8464395 0.4888241 0.3310569
0.8791322 0.5569482 0.4050977
0.9088003 0.6173447 0.4878467
0.9357417 0.6712676 0.5687103
0.9602327 0.7197054 0.635798
0.982527 0.7633823 0.6931143
1 0.8028699 0.7430214
1 0.8386432 0.7870064
1 0.8711094 0.8260972
1 0.900624 0.8610536
1 0.9275005 0.8924652
1 0.9520163 0.9208053
1 0.9744174 0.9464635
1 0.9949223 0.9697658
1 1 0.9909885
1 1 1
1 1 1
1 1 1
1 1 1
1 1 1
1 1 1
1 1 1
1 1 1
1 1 1
1 1 1
1 1 1
1 1 1
0.0609545 0.1313625 0.0446841
0.0609368 0.1313942 0.043714
0.0609125 0.1314388 0.0423366
0.0608793 0.1315018 0.0403448
0.0608339 0.1315925 0.037379
0.0607717 0.131725 0.0327289
0.0606862 0.1319236 0.0245612
0.0631114 0.1321136 0.0180396
0.0685264 0.1322711 0.018007
0.0752815 0.1324851 0.0179624
0.0836085 0.1327759 0.0179015
0.0937593 0.1331716 0.0178184
0.1060092 0.1337113 0.0177053
0.1206619 0.1344492 0.0175521
0.1381187 0.1355223 0.0173528
0.15914 0.1374303 0.0195982
0.1838012 0.1399996 0.0224796
0.2126652 0.1434193 0.025225
0.2464036 0.1479301 0.0276943
0.2857551 0.1538159 0.0297981
0.3314345 0.1614257 0.0317124
0.3839281 0.1712328 0.0344102
0.4430805 0.1839538 0.0405519
0.5072868 0.2007527 0.0545715
0.569959 0.2224248 0.0735734
0.6271249 0.2497478 0.0978891
0.6793152 0.2835611 0.129547
0.7270213 0.3239826 0.1693042
0.7706089 0.3712963 0.216069
0.8103373 0.4265793 0.2678408
0.8463889 0.4914007 0.3313155
0.8790926 0.5585564 0.4053118
0.90877 0.6183342 0.488018
0.9357191 0.6718859 0.5688155
0.9602161 0.7200962 0.6358626
0.982515 0.7636316 0.693155
1 0.8030302 0.7430474
1 0.8387468 0.7870233
1 0.8711768 0.8261082
1 0.9006681 0.8610608
1 0.9275294 0.8924699
1 0.9520353 0.9208084
1 0.97443 0.9464656
1 0.9949307 0.9697672
1 1 0.9909894
1 1 1
1 1 1
1 1 1
1 1 1
1 1 1
1 1 1
1 1 1
1 1 1
1 1 1
1 1 1
1 1 1
1 1 1
0.0704381 0.1518003 0.0516381
0.070425 0.151831 0.050825
0.0704071 0.1518736 0.0496837
0.0703826 0.1519331 0.0480615
0.0703492 0.1520171 0.0457118
0.0703034 0.152137 0.0422029
0.0702406 0.1523109 0.0366694
0.0701543 0.152569 0.0267934
0.0734292 0.1527795 0.0208571
0.0796211 0.1529613 0.0208197
0.0873573 0.1532085 0.0207686
0.0969096 0.1535449 0.0206988
0.1085744 0.1540032 0.0206035
0.1226767 0.154629 0.0204738
0.1395764 0.1554865 0.0202978
0.159793 0.1567911 0.0220885
0.1841478 0.15909 0.0245106
0.2128031 0.1621289 0.0268804
0.2464129 0.1661294 0.0290553
0.2856901 0.1713614 0.0309493
0.3313207 0.1781628 0.0327473
0.3837637 0.1869905 0.035428
0.4428397 0.1985319 0.041626
0.5069805 0.2139014 0.0556423
0.5697395 0.2340278 0.0744983
0.6269477 0.2597661 0.0987222
0.6791693 0.2919754 0.1302938
0.7269073 0.3308031 0.16996
0.7705094 0.3768631 0.2165601
0.8102532 0.4310321 0.2682412
0.8463203 0.4948837 0.3316675
0.8790387 0.5607213 0.4056033
0.9087289 0.619672 0.4882513
0.9356884 0.672724 0.5689588
0.9601935 0.7206269 0.6359507
0.9824987 0.7639705 0.6932104
1 0.8032481 0.7430829
1 0.8388879 0.7870462
1 0.8712686 0.8261231
1 0.9007281 0.8610706
1 0.9275689 0.8924763
1 0.9520613 0.9208127
1 0.9744472 0.9464684
1 0.9949421 0.969769
1 1 0.9909907
