luts/AgX_Base_Rec2100-HLG_P3_Limited.cube
TITLE "AgX_Formation_Rec2100HLG_P3_Limited"
# AgX Base Rec.2020 Formation LUT
# This LUT expects input to be E Gamut Log2 encoding from -10 stops to +15 stops
# But the end image formation will be Rec2100-HLG with gamut limited to Display P3
#  rotate = [3.0, -1, -2.0], inset = [0.4, 0.22, 0.13], outset = [0.4, 0.22, 0.04]
# The image formed has 40% per-channel shifts
LUT_3D_SIZE 5
0 0 0
0.1038272 0.0304313 -0.0034740
0.7585450 0.2673157 -0.0304473
1.0006188 0.9956233 0.9948718
0.9989822 1.0000801 0.9967999
0.0471162 0.1015025 0.0350370
0.1059637 0.1040075 0.0133184
0.7582225 0.2883200 -0.0264244
1.0006184 0.9956264 0.9948741
0.9989822 1.0000801 0.9967999
0.3969614 0.7335373 0.2958505
0.3979945 0.7352174 0.2772417
0.7523695 0.7456734 0.1129490
1.0005868 0.9958587 0.9950445
0.9989816 1.0000802 0.9968000
0.9947292 1.0003070 0.9936063
0.9947327 1.0003068 0.9936087
0.9949901 1.0002933 0.9937956
0.9982320 1.0000966 0.9985480
0.9989323 1.0000824 0.9968081
0.9972306 1.0000633 1.0001344
0.9972306 1.0000633 1.0001344
0.9972307 1.0000639 1.0001344
0.9972400 1.0001050 1.0001284
0.9971555 1.0001550 0.9976672
0.0236315 0.0283729 0.0923135
0.1011086 0.0270646 0.1071798
0.7600778 0.2454513 -0.0340780
1.0006190 0.9956220 0.9948718
0.9989822 1.0000801 0.9967999
0.0516218 0.1013948 0.1051887
0.0966682 0.0966677 0.0966756
0.7596378 0.2686392 -0.0304348
1.0006186 0.9956252 0.9948741
0.9989822 1.0000801 0.9967999
0.3952219 0.7311486 0.3124520
0.3962656 0.7328311 0.2956448
0.7513576 0.7446556 0.1126573
1.0005870 0.9958574 0.9950443
0.9989816 1.0000802 0.9968000
0.9947244 1.0003072 0.9936022
0.9947279 1.0003071 0.9936047
0.9949856 1.0002935 0.9937916
0.9982333 1.0000965 0.9985491
0.9989323 1.0000824 0.9968081
0.9972306 1.0000633 1.0001344
0.9972306 1.0000633 1.0001344
0.9972307 1.0000639 1.0001344
0.9972400 1.0001049 1.0001284
0.9971555 1.0001550 0.9976672
0.2123869 0.2528700 0.7229553
0.2138067 0.2449284 0.7317650
0.7430889 0.3077315 0.7631929
1.0006303 0.9955327 0.9948774
0.9989829 1.0000801 0.9967999
0.2158045 0.2656734 0.7233889
0.2171365 0.2585670 0.7317213
0.7435779 0.3090957 0.7636565
1.0006299 0.9955359 0.9948795
0.9989829 1.0000801 0.9967999
0.4255576 0.7247231 0.7380808
0.4247817 0.7239950 0.7373646
0.7239731 0.7239715 0.7239951
1.0005986 0.9957672 0.9950407
0.9989823 1.0000801 0.9968000
0.9943485 1.0003274 0.9932876
0.9943523 1.0003272 0.9932901
0.9946281 1.0003128 0.9934833
0.9983338 1.0000911 0.9986316
0.9989330 1.0000823 0.9968081
0.9972304 1.0000628 1.0001345
0.9972304 1.0000628 1.0001345
0.9972305 1.0000633 1.0001344
0.9972398 1.0001044 1.0001284
0.9971554 1.0001550 0.9976671
0.9766336 0.9783434 1.0040863
0.9766692 0.9783700 1.0040809
0.9791771 0.9802582 1.0037031
1.0000144 0.9992267 1.0001028
0.9990373 1.0000776 0.9968009
0.9766254 0.9783422 1.0040868
0.9766611 0.9783688 1.0040815
0.9791716 0.9802585 1.0037033
1.0000144 0.9992274 1.0001027
0.9990373 1.0000776 0.9968009
0.9758701 0.9781516 1.0041504
0.9759096 0.9781805 1.0041446
0.9786593 0.9802144 1.0037353
1.0000134 0.9992842 1.0000952
0.9990366 1.0000776 0.9968010
0.9975750 0.9999376 1.0001337
0.9975737 0.9999376 1.0001337
0.9974717 0.9999350 1.0001393
0.9999994 1.0000000 1
0.9989850 1.0000799 0.9968087
0.9972154 1.0000194 1.0001411
0.9972154 1.0000194 1.0001411
0.9972155 1.0000200 1.0001410
0.9972253 1.0000634 1.0001347
0.9971479 1.0001555 0.9976610
0.9965913 1.0001646 0.9992270
0.9965913 1.0001646 0.9992270
0.9965914 1.0001646 0.9992279
0.9965974 1.0001636 0.9992942
0.9965632 0.9977442 1.0004802
0.9965914 1.0001646 0.9992270
0.9965914 1.0001646 0.9992270
0.9965914 1.0001646 0.9992279
0.9965974 1.0001636 0.9992941
0.9965632 0.9977442 1.0004802
0.9965922 1.0001645 0.9992263
0.9965922 1.0001645 0.9992263
0.9965923 1.0001645 0.9992272
0.9965982 1.0001636 0.9992935
0.9965633 0.9977442 1.0004802
0.9966583 1.0001621 0.9991757
0.9966583 1.0001621 0.9991757
0.9966583 1.0001621 0.9991766
0.9966605 1.0001613 0.9992424
0.9965672 0.9977467 1.0004797
0.9973805 1.0001518 0.9969823
0.9973805 1.0001518 0.9969823
0.9973804 1.0001518 0.9969822
0.9973756 1.0001521 0.9969766
1 1 1
