luts/AgX_Base_Rec2100-HLG.cube
TITLE "AgX_Formation_Rec2100HLG"
# AgX Base Rec.2020 Formation LUT
# This LUT expects input to be E Gamut Log2 encoding from -10 stops to +15 stops
# But the end image formation will be Rec2100-HLG
#  rotate = [3.0, -1, -2.0], inset = [0.4, 0.22, 0.13], outset = [0.4, 0.22, 0.04]
# The image formed has 40% per-channel shifts
LUT_3D_SIZE 5
DOMAIN_MIN 0.000000 0.000000 0.000000
DOMAIN_MAX 0.816327 0.816327 0.816327
0 0 0
0.0744647 0 0
0.3942067 0.1152341 0.0244725
0.9544534 0.8067722 0.7730358
1 0.9956071 0.9948332
0.0095280 0.0692816 0
0.0717545 0.0701971 0
0.3956717 0.1303524 0.0215956
0.9544435 0.8070647 0.7730961
1 0.9956074 0.9948333
0.1234938 0.3813677 0.0176865
0.1375322 0.3822790 0.0164204
0.4189973 0.4092191 0
0.9541156 0.8165948 0.7751272
1 0.9956168 0.9948374
0.7978767 0.9495202 0.7496035
0.7982082 0.9495102 0.7496937
0.8089683 0.9491897 0.7527444
0.9519447 0.9489738 0.8232514
1 0.9959226 0.9949719
0.9950930 1 0.9940194
0.9950933 1 0.9940195
0.9951039 1 0.9940246
0.9954521 1 0.9941935
1 0.9999556 0.9974932
0 0.0088951 0.0710160
0.0692409 0.0016428 0.0738317
0.3987133 0.0976839 0.0240894
0.9544970 0.8065429 0.7730499
1 0.9956069 0.9948332
0 0.0677038 0.0714297
0.0654289 0.0654285 0.0654345
0.3992746 0.1158364 0.0216062
0.9544868 0.8068360 0.7731099
1 0.9956072 0.9948333
0.1067093 0.3773837 0.0199913
0.1228827 0.3782570 0.0190369
0.4145175 0.4047927 0
0.9541519 0.8163883 0.7751311
1 0.9956166 0.9948373
0.7975011 0.9495074 0.7494608
0.7978340 0.9494974 0.7495512
0.8086377 0.9491750 0.7526064
0.9519088 0.9489375 0.8231863
1 0.9959224 0.9949719
0.9950927 1 0.9940192
0.9950930 1 0.9940193
0.9951036 1 0.9940244
0.9954518 1 0.9941933
1 0.9999556 0.9974932
0.0889702 0.1074535 0.3295803
0.1032401 0.1098090 0.3337565
0.3680895 0.1284980 0.3966703
0.9562475 0.7983036 0.7739606
1 0.9956003 0.9948324
0.0766224 0.1109157 0.3435341
0.0940840 0.1132937 0.3469977
0.3705445 0.1286918 0.3993034
0.9562289 0.7986236 0.7740077
1 0.9956006 0.9948325
0.0825781 0.3757469 0.3995495
0.0825160 0.3725569 0.3962906
0.3660371 0.3660341 0.3660805
0.9556221 0.8090043 0.7756233
1 0.9956100 0.9948365
0.7834338 0.9491190 0.7444300
0.7838232 0.9491068 0.7445251
0.7963577 0.9487125 0.7477407
0.9506660 0.9476777 0.8209268
1 0.9959162 0.9949708
0.9950802 1 0.9940119
0.9950805 1 0.9940120
0.9950911 1 0.9940171
0.9954405 1 0.9941863
1 0.9999555 0.9974910
0.6996852 0.7235289 0.9448848
0.7008415 0.7240994 0.9448423
0.7342002 0.7411872 0.9437396
0.9411447 0.8371177 0.9500459
1 0.9953712 0.9948198
0.6991353 0.7235164 0.9451611
0.7003014 0.7240897 0.9451171
0.7338932 0.7412444 0.9439754
0.9411631 0.8371475 0.9500636
1 0.9953715 0.9948199
0.6723593 0.7203900 0.9555461
0.6740673 0.7211231 0.9554391
0.7198209 0.7419115 0.9526080
0.9417911 0.8381650 0.9506666
1 0.9953813 0.9948236
0.7983408 0.9444504 0.9528950
0.7982943 0.9444258 0.9528712
0.7966875 0.9435746 0.9520498
0.9360019 0.9360013 0.9360093
1 0.9957024 0.9949453
0.9946168 1 0.9937507
0.9946172 1 0.9937509
0.9946293 1 0.9937563
0.9950263 1 0.9939381
1 0.9999542 0.9974168
0.9889704 0.9897798 1
0.9889724 0.9897812 1
0.9890411 0.9898303 1
0.9910419 0.9912787 1
1 0.9973961 1
0.9889695 0.9897794 1
0.9889715 0.9897808 1
0.9890402 0.9898299 1
0.9910414 0.9912785 1
1 0.9973961 1
0.9889391 0.9897659 1
0.9889411 0.9897674 1
0.9890103 0.9898168 1
0.9910230 0.9912722 1
1 0.9973971 1
0.9875355 0.9890607 1
0.9875382 0.9890626 1
0.9876312 0.9891268 1
0.9902155 0.9909330 1
1 0.9974324 1
0.9959036 0.9998980 1
0.9959035 0.9998980 1
0.9959017 0.9998979 1
0.9958370 0.9998963 1
1 1 1
