luts/AgX_Base_Rec2100-HLG_P3_Limited.cube
TITLE "AgX_Formation_Rec2100HLG_P3_Limited"
# AgX Base Rec.2020 Formation LUT
# This LUT expects input to be E Gamut Log2 encoding from -10 stops to +15 stops
# But the end image formation will be Rec2100-HLG with gamut limited to Display P3
#  rotate = [3.0, -1, -2.0], inset = [0.4, 0.22, 0.13], outset = [0.4, 0.22, 0.04]
# The image formed has 40% per-channel shifts
LUT_3D_SIZE 45
0 0 0
0.0020156 0.0004968 0.0001470
0.0058284 0.0014365 0.0004041
0.0109947 0.0027096 0.0007009
0.0174223 0.0042933 0.0009365
0.0251111 0.0061871 0.0008320
0.0341157 0.0084039 -0.0013022
0.0442062 0.0114092 -0.0017072
0.0559524 0.0151058 -0.0020714
0.0696337 0.0194754 -0.0024792
0.0854928 0.0245614 -0.0029423
0.1038272 0.0304313 -0.0034740
0.1250231 0.0371767 -0.0040915
0.1496056 0.0449205 -0.0048190
0.1783257 0.0538307 -0.0056922
0.2123348 0.0641475 -0.0067686
0.2536086 0.0762487 -0.0081510
0.3063814 0.0908580 -0.0100698
0.3927581 0.1113119 -0.0137586
0.5130701 0.1393683 -0.0188968
0.6129235 0.1711460 -0.0237949
0.6916750 0.2086926 -0.0284192
0.7585450 0.2673157 -0.0304473
0.8176638 0.3563191 0.1137687
0.8591290 0.5060146 0.3434968
0.8959915 0.6269744 0.5231022
0.9291454 0.7167307 0.6536624
0.9592456 0.7899907 0.7475023
0.9867759 0.8527692 0.8230264
1.0118006 0.9081011 0.8872440
1.0073666 0.9450294 0.9340746
1.0042146 0.9693723 0.9637232
1.0020548 0.9853143 0.9827267
1.0006188 0.9956233 0.9948718
0.9991811 1.0000651 0.9973730
0.9979825 1.0001598 0.9934999
0.9975690 1.0001922 0.9921693
0.9975420 1.0001941 0.9921015
0.9976953 1.0001818 0.9926186
0.9979219 1.0001639 0.9933682
0.9981673 1.0001445 0.9941715
0.9984045 1.0001257 0.9949426
0.9986216 1.0001086 0.9956438
0.9988143 1.0000934 0.9962629
0.9989822 1.0000801 0.9967999
0.0008835 0.0018956 0.0007535
0.0022280 0.0021583 0.0002757
0.0060539 0.0035276 0.0003717
0.0112021 0.0050326 0.0003741
0.0176022 0.0066732 -0.0000386
0.0252536 0.0085270 -0.0006070
0.0341988 0.0106978 -0.0010198
0.0443050 0.0135292 -0.0013855
0.0560576 0.0169633 -0.0017818
0.0697175 0.0210567 -0.0022234
0.0855478 0.0258799 -0.0027205
0.1038562 0.0315137 -0.0032852
0.1250328 0.0380552 -0.0039336
0.1496032 0.0456277 -0.0046889
0.1783172 0.0543969 -0.0055867
0.2123247 0.0645999 -0.0066842
0.2536006 0.0766106 -0.0080846
0.3063794 0.0911500 -0.0100186
0.3927785 0.1115586 -0.0137217
0.5130832 0.1395786 -0.0188679
0.6129289 0.1713215 -0.0237711
0.6916764 0.2088400 -0.0283985
0.7585429 0.2674565 -0.0304231
0.8176613 0.3564198 0.1137971
0.8591276 0.5060709 0.3435053
0.8959908 0.6269968 0.5231068
0.9291449 0.7167410 0.6536644
0.9592453 0.7899958 0.7475033
0.9867758 0.8527717 0.8230270
1.0118005 0.9081024 0.8872443
1.0073665 0.9450299 0.9340748
1.0042146 0.9693725 0.9637233
1.0020548 0.9853144 0.9827267
1.0006188 0.9956233 0.9948719
0.9991811 1.0000651 0.9973730
0.9979825 1.0001598 0.9934999
0.9975690 1.0001922 0.9921693
0.9975420 1.0001941 0.9921015
0.9976953 1.0001818 0.9926186
0.9979219 1.0001639 0.9933682
0.9981673 1.0001445 0.9941715
0.9984045 1.0001257 0.9949426
0.9986216 1.0001086 0.9956438
0.9988143 1.0000934 0.9962629
0.9989822 1.0000801 0.9967999
0.0025801 0.0055359 0.0021980
0.0035575 0.0057420 0.0007749
0.0063138 0.0061349 0.0007842
0.0114202 0.0078309 0.0009056
0.0177770 0.0096147 0.0009513
0.0253889 0.0115041 0.0008730
0.0342833 0.0136259 0.0005630
0.0444457 0.0162943 -0.0006038
0.0562023 0.0194563 -0.0012123
0.0698332 0.0232318 -0.0017695
0.0856246 0.0277299 -0.0023507
0.1038971 0.0330562 -0.0029826
0.1250465 0.0393217 -0.0036869
0.1495994 0.0466559 -0.0044893
0.1783045 0.0552252 -0.0054267
0.2123098 0.0652644 -0.0065573
0.2535887 0.0771438 -0.0079853
0.3063763 0.0915810 -0.0099423
0.3928089 0.1119234 -0.0136667
0.5131026 0.1398898 -0.0188250
0.6129369 0.1715813 -0.0237359
0.6916785 0.2090583 -0.0283678
0.7585398 0.2676650 -0.0303871
0.8176576 0.3565690 0.1138391
0.8591256 0.5061543 0.3435178
0.8959896 0.6270300 0.5231138
0.9291443 0.7167563 0.6536674
0.9592450 0.7900032 0.7475048
0.9867757 0.8527754 0.8230279
1.0118003 0.9081042 0.8872448
1.0073664 0.9450306 0.9340750
1.0042146 0.9693728 0.9637234
1.0020548 0.9853145 0.9827268
1.0006188 0.9956233 0.9948719
0.9991811 1.0000651 0.9973730
0.9979825 1.0001598 0.9934999
0.9975690 1.0001922 0.9921693
0.9975420 1.0001941 0.9921015
0.9976953 1.0001818 0.9926186
0.9979219 1.0001639 0.9933682
0.9981673 1.0001445 0.9941715
0.9984045 1.0001257 0.9949426
0.9986216 1.0001086 0.9956438
0.9988143 1.0000934 0.9962629
0.9989822 1.0000801 0.9967999
0.0049042 0.0105229 0.0041708
0.0052006 0.0106671 0.0014555
0.0079224 0.0109394 0.0014604
0.0117220 0.0114168 0.0014599
0.0180011 0.0132912 0.0015831
0.0255559 0.0152189 0.0016286
0.0344340 0.0173649 0.0015881
0.0446439 0.0198673 0.0014413
0.0563966 0.0227478 0.0010713
0.0699892 0.0261702 -0.0006269
0.0857293 0.0302829 -0.0016493
0.1039533 0.0352237 -0.0024648
0.1250650 0.0411274 -0.0032872
0.1495933 0.0481383 -0.0041761
0.1782856 0.0564293 -0.0051805
0.2122878 0.0662363 -0.0063646
0.2535712 0.0779270 -0.0078357
0.3063719 0.0922161 -0.0098281
0.3928538 0.1124621 -0.0135848
0.5131314 0.1403500 -0.0187611
0.6129487 0.1719659 -0.0236834
0.6916816 0.2093816 -0.0283223
0.7585352 0.2679738 -0.0303337
0.8176521 0.3567901 0.1139014
0.8591225 0.5062779 0.3435365
0.8959879 0.6270793 0.5231240
0.9291434 0.7167789 0.6536718
0.9592446 0.7900142 0.7475070
0.9867754 0.8527810 0.8230291
1.0118000 0.9081070 0.8872455
1.0073663 0.9450317 0.9340754
1.0042145 0.9693732 0.9637236
1.0020548 0.9853146 0.9827268
1.0006188 0.9956234 0.9948719
0.9991810 1.0000651 0.9973729
0.9979825 1.0001598 0.9934999
0.9975690 1.0001922 0.9921693
0.9975420 1.0001941 0.9921015
0.9976953 1.0001818 0.9926186
0.9979219 1.0001639 0.9933682
0.9981673 1.0001445 0.9941715
0.9984045 1.0001257 0.9949426
0.9986216 1.0001086 0.9956438
0.9988143 1.0000934 0.9962629
0.9989822 1.0000801 0.9967999
0.0078153 0.0167708 0.0066284
0.0077822 0.0168700 0.0041574
0.0098425 0.0170675 0.0023123
0.0134854 0.0173531 0.0023023
0.0183389 0.0178945 0.0022890
0.0257848 0.0198542 0.0023987
0.0347121 0.0220975 0.0024636
0.0449235 0.0244288 0.0024296
0.0566525 0.0270213 0.0022732
0.0701935 0.0300646 0.0019364
0.0858678 0.0337396 0.0012167
0.1040282 0.0382181 -0.0013708
0.1250891 0.0436661 -0.0025831
0.1495832 0.0502523 -0.0036636
0.1782575 0.0581656 -0.0047932
0.2122553 0.0676495 -0.0060681
0.2535455 0.0790728 -0.0076088
0.3063653 0.0931491 -0.0096564
0.3929202 0.1132562 -0.0134624
0.5131740 0.1410296 -0.0186660
0.6129662 0.1725345 -0.0236055
0.6916862 0.2098603 -0.0282545
0.7585283 0.2684309 -0.0302543
0.8176440 0.3571177 0.1139937
0.8591179 0.5064610 0.3435641
0.8959854 0.6271523 0.5231392
0.9291421 0.7168124 0.6536782
0.9592439 0.7900306 0.7475104
0.9867751 0.8527892 0.8230310
1.0117996 0.9081111 0.8872466
1.0073661 0.9450333 0.9340759
1.0042144 0.9693738 0.9637239
1.0020547 0.9853148 0.9827270
1.0006188 0.9956234 0.9948720
0.9991810 1.0000651 0.9973729
0.9979825 1.0001598 0.9934999
0.9975690 1.0001922 0.9921693
0.9975420 1.0001941 0.9921015
0.9976953 1.0001818 0.9926187
0.9979219 1.0001639 0.9933682
0.9981673 1.0001445 0.9941715
0.9984045 1.0001257 0.9949426
0.9986216 1.0001086 0.9956438
0.9988143 1.0000934 0.9962629
0.9989822 1.0000801 0.9967999
0.0113082 0.0242697 0.0095493
0.0112712 0.0243408 0.0075498
0.0120058 0.0244647 0.0033374
0.0155629 0.0246764 0.0033267
0.0201813 0.0249713 0.0033001
0.0264268 0.0258339 0.0033057
0.0352029 0.0280064 0.0034178
0.0453269 0.0301645 0.0034407
0.0569886 0.0324723 0.0033636
0.0704548 0.0351248 0.0031634
0.0860455 0.0383251 0.0027868
0.1041246 0.0422749 0.0020882
0.1251185 0.0471742 -0.0007412
0.1495664 0.0532246 -0.0027347
0.1782159 0.0606420 -0.0041547
0.2122075 0.0696874 -0.0056009
0.2535075 0.0807390 -0.0072600
0.3063557 0.0945144 -0.0093963
0.3930182 0.1144234 -0.0132788
0.5132369 0.1420313 -0.0185241
0.6129920 0.1733744 -0.0234894
0.6916929 0.2105684 -0.0281538
0.7585182 0.2691072 -0.0301363
0.8176320 0.3576026 0.1141303
0.8591112 0.5067321 0.3436050
0.8959817 0.6272605 0.5231617
0.9291401 0.7168620 0.6536879
0.9592428 0.7900548 0.7475153
0.9867746 0.8528013 0.8230337
1.0117990 0.9081171 0.8872482
1.0073658 0.9450358 0.9340768
1.0042143 0.9693747 0.9637243
1.0020547 0.9853152 0.9827271
1.0006188 0.9956235 0.9948720
0.9991810 1.0000651 0.9973729
0.9979825 1.0001598 0.9934999
0.9975689 1.0001922 0.9921693
0.9975420 1.0001941 0.9921015
0.9976953 1.0001818 0.9926187
0.9979219 1.0001639 0.9933682
0.9981673 1.0001445 0.9941715
0.9984045 1.0001257 0.9949426
0.9986216 1.0001086 0.9956438
0.9988143 1.0000934 0.9962629
0.9989822 1.0000801 0.9967999
0.0153974 0.0330532 0.0129181
0.0153653 0.0331191 0.0111874
0.0153134 0.0332620 0.0068400
0.0181263 0.0335036 0.0045528
0.0227475 0.0338564 0.0045455
0.0286223 0.0343787 0.0045289
0.0360306 0.0352768 0.0045153
0.0459290 0.0372602 0.0045727
0.0574411 0.0392986 0.0045404
0.0707880 0.0415684 0.0044049
0.0862679 0.0442792 0.0041402
0.1042441 0.0476547 0.0036903
0.1251520 0.0519262 0.0029165
0.1495386 0.0573317 0.0011395
0.1781542 0.0641237 -0.0029708
0.2121375 0.0725941 -0.0048285
0.2534520 0.0831423 -0.0067109
0.3063417 0.0965004 -0.0089974
0.3931627 0.1161325 -0.0130018
0.5133296 0.1435041 -0.0183115
0.6130300 0.1746126 -0.0233162
0.6917028 0.2116147 -0.0280035
0.7585032 0.2701064 -0.0299605
0.8176142 0.3583201 0.1143323
0.8591012 0.5071331 0.3436657
0.8959761 0.6274207 0.5231951
0.9291371 0.7169356 0.6537021
0.9592413 0.7900907 0.7475226
0.9867739 0.8528194 0.8230378
1.0117980 0.9081260 0.8872506
1.0073654 0.9450393 0.9340780
1.0042142 0.9693761 0.9637248
1.0020546 0.9853157 0.9827274
1.0006188 0.9956237 0.9948721
0.9991810 1.0000651 0.9973729
0.9979825 1.0001598 0.9934998
0.9975689 1.0001922 0.9921693
0.9975419 1.0001941 0.9921015
0.9976952 1.0001818 0.9926187
0.9979219 1.0001639 0.9933682
0.9981673 1.0001445 0.9941715
0.9984045 1.0001257 0.9949426
0.9986216 1.0001086 0.9956438
0.9988143 1.0000934 0.9962629
0.9989822 1.0000801 0.9967999
0.0202570 0.0435200 0.0165789
0.0202286 0.0435877 0.0149207
0.0201764 0.0436951 0.0115456
0.0212938 0.0438727 0.0059874
0.0256066 0.0441197 0.0059755
0.0311566 0.0444810 0.0059539
0.0381368 0.0450180 0.0059189
0.0468452 0.0459096 0.0058772
0.0580795 0.0476976 0.0058734
0.0712264 0.0496119 0.0057766
0.0865476 0.0518463 0.0055705
0.1043894 0.0546321 0.0052243
0.1251869 0.0582236 0.0046749
0.1494935 0.0628931 0.0037717
0.1780637 0.0689344 0.0018984
0.2120358 0.0766816 -0.0033811
0.2533713 0.0865713 -0.0058055
0.3063218 0.0993666 -0.0083724
0.3933752 0.1186214 -0.0125796
0.5134659 0.1456609 -0.0179915
0.6130860 0.1764333 -0.0230568
0.6917172 0.2131583 -0.0277790
0.7584810 0.2715805 -0.0296981
0.8175879 0.3593807 0.1146310
0.8590863 0.5077258 0.3437556
0.8959679 0.6276579 0.5232446
0.9291327 0.7170446 0.6537233
0.9592391 0.7901439 0.7475335
0.9867729 0.8528461 0.8230439
1.0117966 0.9081393 0.8872541
1.0073648 0.9450446 0.9340798
1.0042139 0.9693782 0.9637257
1.0020545 0.9853164 0.9827277
1.0006187 0.9956239 0.9948723
0.9991809 1.0000651 0.9973728
0.9979824 1.0001598 0.9934998
0.9975689 1.0001922 0.9921693
0.9975419 1.0001941 0.9921015
0.9976952 1.0001818 0.9926187
0.9979219 1.0001639 0.9933682
0.9981672 1.0001445 0.9941715
0.9984045 1.0001257 0.9949426
0.9986216 1.0001086 0.9956438
0.9988143 1.0000934 0.9962629
0.9989822 1.0000801 0.9967999
0.0257731 0.0554188 0.0205061
0.0257436 0.0554715 0.0189835
0.0256955 0.0555560 0.0162195
0.0256158 0.0557012 0.0099690
0.0288829 0.0558788 0.0076079
0.0340203 0.0561207 0.0075832
0.0405905 0.0564781 0.0075446
0.0488194 0.0570115 0.0074863
0.0590174 0.0578754 0.0074099
0.0718391 0.0594702 0.0073387
0.0869180 0.0612671 0.0071690
0.1045721 0.0634833 0.0068805
0.1252232 0.0663812 0.0064362
0.1494243 0.0702583 0.0057610
0.1779334 0.0754470 0.0046754
0.2118900 0.0823298 0.0024605
0.2532552 0.0913951 -0.0041219
0.3062938 0.1034588 -0.0073517
0.3936865 0.1222189 -0.0119257
0.5136656 0.1488028 -0.0175059
0.6131681 0.1791008 -0.0226663
0.6917380 0.2154307 -0.0274421
0.7584481 0.2737503 -0.0293049
0.8175490 0.3609463 0.1150718
0.8590644 0.5086004 0.3438889
0.8959558 0.6280089 0.5233180
0.9291262 0.7172060 0.6537546
0.9592358 0.7902228 0.7475496
0.9867713 0.8528857 0.8230529
1.0117945 0.9081590 0.8872594
1.0073639 0.9450525 0.9340825
1.0042135 0.9693812 0.9637269
1.0020544 0.9853175 0.9827283
1.0006187 0.9956242 0.9948725
0.9991809 1.0000651 0.9973727
0.9979823 1.0001598 0.9934998
0.9975688 1.0001922 0.9921693
0.9975419 1.0001941 0.9921015
0.9976952 1.0001818 0.9926187
0.9979219 1.0001639 0.9933682
0.9981672 1.0001445 0.9941715
0.9984045 1.0001257 0.9949426
0.9986216 1.0001086 0.9956438
0.9988143 1.0000934 0.9962629
0.9989822 1.0000801 0.9967999
0.0320134 0.0688893 0.0248119
0.0319869 0.0689337 0.0234619
0.0319459 0.0690042 0.0211764
0.0318818 0.0691210 0.0168711
0.0327275 0.0692963 0.0094658
0.0373770 0.0694525 0.0094400
0.0434384 0.0696826 0.0094006
0.0511681 0.0700263 0.0093417
0.0608281 0.0705437 0.0092556
0.0727446 0.0713678 0.0091380
0.0874529 0.0727801 0.0089938
0.1048290 0.0744792 0.0087429
0.1252733 0.0767139 0.0083603
0.1493288 0.0797903 0.0078001
0.1777527 0.0840688 0.0069679
0.2116857 0.0899775 0.0056301
0.2530912 0.0980648 0.0027570
0.3062559 0.1092218 -0.0055095
0.3941399 0.1273671 -0.0108831
0.5139564 0.1533460 -0.0167590
0.6132877 0.1829885 -0.0220737
0.6917677 0.2187654 -0.0269332
0.7583995 0.2769332 -0.0287126
0.8174914 0.3632524 0.1157210
0.8590319 0.5098881 0.3440862
0.8959378 0.6285276 0.5234266
0.9291165 0.7174450 0.6538011
0.9592308 0.7903396 0.7475734
0.9867690 0.8529443 0.8230662
1.0117914 0.9081881 0.8872672
1.0073625 0.9450641 0.9340865
1.0042130 0.9693857 0.9637287
1.0020542 0.9853191 0.9827291
1.0006186 0.9956247 0.9948729
0.9991808 1.0000651 0.9973726
0.9979822 1.0001598 0.9934998
0.9975688 1.0001922 0.9921693
0.9975418 1.0001941 0.9921016
0.9976952 1.0001819 0.9926187
0.9979218 1.0001639 0.9933682
0.9981672 1.0001445 0.9941715
0.9984045 1.0001257 0.9949426
0.9986216 1.0001086 0.9956438
0.9988143 1.0000934 0.9962629
0.9989822 1.0000801 0.9967999
0.0390824 0.0841536 0.0296114
0.0390608 0.0841932 0.0284478
0.0390281 0.0842550 0.0265634
0.0389784 0.0843542 0.0233219
0.0389023 0.0845202 0.0168919
0.0414098 0.0846827 0.0115537
0.0468801 0.0848256 0.0115158
0.0539982 0.0850391 0.0114595
0.0630605 0.0853625 0.0113771
0.0743718 0.0858565 0.0112585
0.0882823 0.0866365 0.0110936
0.1052433 0.0878905 0.0108709
0.1253804 0.0895318 0.0105309
0.1492220 0.0918528 0.0100421
0.1775186 0.0952235 0.0093455
0.2114103 0.1001049 0.0083146
0.2528658 0.1071035 0.0066082
0.3062082 0.1172025 0.0021362
0.3947959 0.1346412 -0.0091179
0.5143767 0.1598516 -0.0155836
0.6134605 0.1886148 -0.0211624
0.6918091 0.2236386 -0.0261566
0.7583279 0.2815802 -0.0278125
0.8174064 0.3666391 0.1166739
0.8589839 0.5117777 0.3443782
0.8959111 0.6292930 0.5235874
0.9291022 0.7177984 0.6538699
0.9592235 0.7905125 0.7476088
0.9867655 0.8530313 0.8230860
1.0117869 0.9082313 0.8872787
1.0073605 0.9450814 0.9340924
1.0042121 0.9693923 0.9637314
1.0020539 0.9853214 0.9827303
1.0006185 0.9956254 0.9948734
0.9991806 1.0000651 0.9973724
0.9979821 1.0001598 0.9934997
0.9975686 1.0001922 0.9921693
0.9975418 1.0001941 0.9921016
0.9976951 1.0001819 0.9926187
0.9979218 1.0001639 0.9933682
0.9981672 1.0001445 0.9941715
0.9984045 1.0001257 0.9949426
0.9986216 1.0001086 0.9956438
0.9988143 1.0000934 0.9962629
0.9989822 1.0000801 0.9967999
0.0471162 0.1015025 0.0350370
0.0470999 0.1015390 0.0340567
0.0470754 0.1015949 0.0325146
0.0470387 0.1016824 0.0299987
0.0469835 0.1018226 0.0255943
0.0468999 0.1020562 0.0162583
0.0511374 0.1021745 0.0139284
0.0575516 0.1023022 0.0138769
0.0658884 0.1024968 0.0138015
0.0764927 0.1027974 0.0136923
0.0897213 0.1032665 0.0135366
0.1059637 0.1040075 0.0133184
0.1256430 0.1051503 0.0130129
0.1491577 0.1068088 0.0125768
0.1772514 0.1093393 0.0119695
0.2110633 0.1132154 0.0111111
0.2525712 0.1190890 0.0098156
0.3061562 0.1280427 0.0074768
0.3957362 0.1447621 -0.0055394
0.5149774 0.1690517 -0.0136500
0.6137074 0.1966815 -0.0197287
0.6918649 0.2307220 -0.0249515
0.7582225 0.2883200 -0.0264244
0.8172812 0.3715911 0.1180666
0.8589131 0.5145375 0.3448100
0.8958718 0.6304201 0.5238255
0.9290811 0.7183205 0.6539718
0.9592127 0.7907683 0.7476611
0.9867605 0.8531600 0.8231153
1.0117801 0.9082953 0.8872958
1.0073575 0.9451069 0.9341012
1.0042109 0.9694022 0.9637355
1.0020534 0.9853249 0.9827320
1.0006184 0.9956264 0.9948741
0.9991804 1.0000651 0.9973721
0.9979819 1.0001598 0.9934997
0.9975685 1.0001922 0.9921693
0.9975417 1.0001941 0.9921016
0.9976951 1.0001819 0.9926187
0.9979218 1.0001639 0.9933682
0.9981672 1.0001445 0.9941715
0.9984045 1.0001257 0.9949426
0.9986216 1.0001086 0.9956438
0.9988143 1.0000934 0.9962629
0.9989822 1.0000801 0.9967999
0.0562957 0.1213232 0.0412558
0.0562841 0.1213570 0.0404453
0.0562670 0.1214084 0.0391947
0.0562414 0.1214871 0.0372206
0.0562032 0.1216097 0.0339774
0.0561461 0.1218051 0.0282018
0.0564457 0.1221004 0.0166903
0.0620982 0.1221743 0.0166450
0.0696057 0.1222877 0.0165785
0.0793581 0.1224647 0.0164817
0.0917604 0.1227459 0.0163428
0.1072351 0.1231969 0.0161455
0.1262372 0.1239184 0.0158682
0.1492567 0.1250386 0.0154782
0.1770211 0.1268544 0.0149415
0.2106756 0.1298286 0.0142039
0.2522175 0.1346384 0.0131491
0.3061218 0.1424663 0.0114534
0.3970690 0.1586008 0.0068786
0.5158237 0.1818692 -0.0101080
0.6140539 0.2081134 -0.0173732
0.6919344 0.2409556 -0.0230236
0.7580681 0.2980060 -0.0242271
0.8170975 0.3787870 0.1200893
0.8588087 0.5185403 0.3454479
0.8958137 0.6320743 0.5241774
0.9290498 0.7190903 0.6541227
0.9591967 0.7911465 0.7477387
0.9867529 0.8533504 0.8231587
1.0117700 0.9083900 0.8873211
1.0073530 0.9451448 0.9341142
1.0042091 0.9694168 0.9637415
1.0020527 0.9853301 0.9827346
1.0006182 0.9956279 0.9948752
0.9991801 1.0000651 0.9973717
0.9979815 1.0001598 0.9934996
0.9975682 1.0001922 0.9921693
0.9975415 1.0001941 0.9921016
0.9976950 1.0001819 0.9926187
0.9979217 1.0001639 0.9933682
0.9981672 1.0001445 0.9941715
0.9984045 1.0001257 0.9949426
0.9986216 1.0001086 0.9956438
0.9988143 1.0000934 0.9962629
0.9989822 1.0000801 0.9967999
0.0668689 0.1441471 0.0484950
0.0668615 0.1441786 0.0478355
0.0668504 0.1442259 0.0468310
0.0668340 0.1442974 0.0452786
0.0668095 0.1444067 0.0428212
0.0667732 0.1445761 0.0387610
0.0667190 0.1448443 0.0314237
0.0679307 0.1451714 0.0198362
0.0745461 0.1452374 0.0197795
0.0833306 0.1453415 0.0196968
0.0947429 0.1455092 0.0195771
0.1092641 0.1457839 0.0194058
0.1274058 0.1462375 0.0191630
0.1497330 0.1469833 0.0188218
0.1769801 0.1482495 0.0183510
0.2103423 0.1504976 0.0177155
0.2518598 0.1544119 0.0168400
0.3061634 0.1612770 0.0155325
0.3989351 0.1771844 0.0127864
0.5169935 0.1994309 0.0048335
0.6145278 0.2240974 -0.0130820
0.6920055 0.2556761 -0.0197414
0.7578433 0.3117589 -0.0205583
0.8168292 0.3891541 0.1230016
0.8586556 0.5242894 0.3463887
0.8957282 0.6344905 0.5246969
0.9290037 0.7202227 0.6543459
0.9591730 0.7917046 0.7478535
0.9867418 0.8536321 0.8232230
1.0117552 0.9085302 0.8873586
1.0073464 0.9452009 0.9341334
1.0042064 0.9694384 0.9637503
1.0020517 0.9853378 0.9827385
1.0006179 0.9956302 0.9948769
0.9991796 1.0000652 0.9973710
0.9979811 1.0001598 0.9934995
0.9975679 1.0001922 0.9921693
0.9975413 1.0001941 0.9921016
0.9976948 1.0001819 0.9926187
0.9979216 1.0001639 0.9933682
0.9981671 1.0001445 0.9941716
0.9984044 1.0001257 0.9949426
0.9986216 1.0001086 0.9956438
0.9988143 1.0000934 0.9962629
0.9989822 1.0000801 0.9967999
0.0791943 0.1707418 0.0570867
0.0791901 0.1707709 0.0565575
0.0791840 0.1708145 0.0557585
0.0791748 0.1708798 0.0545409
0.0791613 0.1709785 0.0526572
0.0791412 0.1711286 0.0496697
0.0791114 0.1713600 0.0447146
0.0790670 0.1717236 0.0356694
0.0810848 0.1721029 0.0235109
0.0888342 0.1721701 0.0234426
0.0991286 0.1722786 0.0233432
0.1125141 0.1724575 0.0231998
0.1295743 0.1727565 0.0229947
0.1509481 0.1732594 0.0227039
0.1773954 0.1741196 0.0222963
0.2102627 0.1758718 0.0217620
0.2516389 0.1791596 0.0210485
0.3064187 0.1853948 0.0200502
0.4015190 0.2017271 0.0183583
0.5185740 0.2230937 0.0145349
0.6151507 0.2461459 0.0050454
0.6920137 0.2771000 -0.0130286
0.7575193 0.3309844 -0.0134395
0.8164401 0.4039155 0.1271473
0.8584319 0.5324336 0.3477727
0.8956026 0.6379957 0.5254625
0.9289358 0.7218820 0.6546758
0.9591381 0.7925265 0.7480234
0.9867253 0.8540479 0.8233182
1.0117332 0.9087374 0.8874142
1.0073367 0.9452839 0.9341619
1.0042024 0.9694705 0.9637635
1.0020502 0.9853492 0.9827442
1.0006174 0.9956336 0.9948793
0.9991789 1.0000652 0.9973701
0.9979803 1.0001599 0.9934993
0.9975673 1.0001922 0.9921693
0.9975409 1.0001941 0.9921017
0.9976946 1.0001819 0.9926188
0.9979215 1.0001639 0.9933682
0.9981670 1.0001445 0.9941716
0.9984044 1.0001258 0.9949426
0.9986216 1.0001086 0.9956438
0.9988143 1.0000934 0.9962629
0.9989822 1.0000802 0.9967999
0.0938295 0.2023006 0.0675598
0.0938279 0.2023276 0.0671406
0.0938257 0.2023678 0.0665115
0.0938224 0.2024279 0.0655617
0.0938174 0.2025179 0.0641138
0.0938101 0.2026533 0.0618732
0.0937993 0.2028587 0.0583172
0.0937832 0.2031737 0.0524111
0.0937592 0.2036649 0.0415923
0.0963788 0.2041482 0.0278867
0.1054863 0.2042375 0.0278077
0.1175996 0.2043817 0.0276930
0.1333822 0.2046182 0.0275277
0.1535640 0.2050107 0.0272910
0.1789842 0.2056653 0.0269540
0.2107813 0.2068330 0.0264841
0.2518358 0.2098547 0.0259415
0.3071789 0.2159907 0.0252481
0.4050679 0.2337406 0.0244508
0.5206515 0.2545479 0.0222365
0.6159104 0.2763071 0.0180338
0.6916903 0.3099279 0.0142964
0.7570601 0.3573493 0.0132141
0.8158819 0.4246114 0.1329634
0.8581073 0.5437564 0.3498018
0.8954193 0.6430311 0.5265874
0.9288361 0.7243001 0.6551626
0.9590868 0.7937330 0.7482746
0.9867010 0.8546608 0.8234590
1.0117007 0.9090435 0.8874964
1.0073223 0.9454066 0.9342042
1.0041964 0.9695179 0.9637829
1.0020480 0.9853661 0.9827527
1.0006168 0.9956386 0.9948829
0.9991779 1.0000653 0.9973687
0.9979793 1.0001599 0.9934990
0.9975665 1.0001923 0.9921694
0.9975404 1.0001941 0.9921018
0.9976943 1.0001819 0.9926188
0.9979213 1.0001639 0.9933683
0.9981669 1.0001445 0.9941716
0.9984043 1.0001258 0.9949426
0.9986215 1.0001086 0.9956438
0.9988142 1.0000934 0.9962629
0.9989822 1.0000802 0.9967999
0.1117538 0.2409169 0.0808682
0.1117544 0.2409422 0.0805406
0.1117554 0.2409799 0.0800509
0.1117569 0.2410361 0.0793163
0.1117591 0.2411197 0.0782073
0.1117624 0.2412449 0.0765173
0.1117672 0.2414328 0.0739032
0.1117744 0.2417168 0.0697583
0.1117851 0.2421500 0.0628870
0.1118006 0.2428203 0.0503647
0.1145899 0.2435286 0.0332697
0.1253708 0.2436912 0.0331847
0.1397454 0.2439471 0.0330613
0.1585471 0.2443548 0.0328835
0.1827387 0.2450110 0.0326281
0.2135230 0.2460711 0.0322610
0.2529264 0.2480338 0.0317562
0.3090129 0.2548856 0.0314230
0.4099049 0.2753934 0.0315552
0.5232682 0.2962752 0.0304852
0.6165508 0.3190758 0.0285081
0.6912552 0.3525714 0.0274326
0.7564278 0.3926958 0.0263265
0.8150933 0.4530648 0.1409819
0.8576414 0.5591135 0.3527634
0.8951533 0.6501665 0.5282336
0.9286906 0.7277967 0.6558792
0.9590114 0.7954959 0.7486452
0.9866653 0.8555615 0.8236671
1.0116527 0.9094946 0.8876181
1.0073009 0.9455879 0.9342666
1.0041876 0.9695880 0.9638117
1.0020448 0.9853911 0.9827652
1.0006158 0.9956460 0.9948883
0.9991764 1.0000654 0.9973666
0.9979777 1.0001600 0.9934986
0.9975653 1.0001923 0.9921694
0.9975396 1.0001942 0.9921019
0.9976938 1.0001819 0.9926189
0.9979210 1.0001639 0.9933683
0.9981667 1.0001445 0.9941716
0.9984042 1.0001258 0.9949426
0.9986215 1.0001086 0.9956439
0.9988142 1.0000934 0.9962629
0.9989822 1.0000802 0.9967999
0.1351510 0.2912536 0.0991947
0.1351539 0.2912787 0.0989433
0.1351583 0.2913160 0.0985686
0.1351648 0.2913713 0.0980089
0.1351744 0.2914537 0.0971693
0.1351886 0.2915763 0.0959028
0.1352097 0.2917594 0.0939750
0.1352410 0.2920337 0.0909983
0.1352875 0.2924465 0.0862937
0.1353564 0.2930729 0.0785446
0.1354586 0.2940342 0.0646555
0.1373370 0.2952938 0.0403570
0.1503056 0.2956950 0.0402853
0.1676823 0.2963142 0.0401825
0.1905866 0.2972809 0.0400365
0.2204350 0.2988091 0.0398300
0.2593244 0.3012524 0.0395336
0.3129512 0.3061973 0.0391871
