luts/AgX_Base_Rec2100-HLG_P3_Limited.cube
TITLE "AgX_Formation_Rec2100HLG_P3_Limited"
# AgX Base Rec.2020 Formation LUT
# This LUT expects input to be E Gamut Log2 encoding from -10 stops to +15 stops
# But the end image formation will be Rec2100-HLG with gamut limited to Display P3
#  rotate = [3.0, -1, -2.0], inset = [0.4, 0.22, 0.13], outset = [0.4, 0.22, 0.04]
# The image formed has 40% per-channel shifts
LUT_3D_SIZE 8
DOMAIN_MIN 0.000000 0.000000 0.000000
DOMAIN_MAX 0.954545 0.954545 0.954545
0 0 0
0.0341157 0.0084039 -0.0013022
0.1250231 0.0371767 -0.0040915
0.3927581 0.1113119 -0.0137586
0.8591290 0.5060146 0.3434968
1.0073666 0.9450294 0.9340746
0.9975690 1.0001922 0.9921693
0.9986216 1.0001086 0.9956438
0.0153974 0.0330532 0.0129181
0.0360306 0.0352768 0.0045153
0.1251520 0.0519262 0.0029165
0.3931627 0.1161325 -0.0130018
0.8591012 0.5071331 0.3436657
1.0073654 0.9450393 0.9340780
0.9975689 1.0001922 0.9921693
0.9986216 1.0001086 0.9956438
0.0562957 0.1213232 0.0412558
0.0564457 0.1221004 0.0166903
0.1262372 0.1239184 0.0158682
0.3970690 0.1586008 0.0068786
0.8588087 0.5185403 0.3454479
1.0073530 0.9451448 0.9341142
0.9975682 1.0001922 0.9921693
0.9986216 1.0001086 0.9956438
0.1760418 0.3789585 0.1346970
0.1762042 0.3796015 0.1309720
0.1779117 0.3867726 0.0715912
0.4234831 0.4141421 0.0529973
0.8560722 0.6048507 0.3632457
1.0072232 0.9462482 0.9344953
0.9975610 1.0001925 0.9921695
0.9986212 1.0001086 0.9956439
0.5246022 0.8433013 0.3411816
0.5246743 0.8433969 0.3394362
0.5254355 0.8444138 0.3199987
0.6018841 0.8446784 0.3131151
0.8463403 0.8412169 0.4997581
1.0060144 0.9563630 0.9382268
0.9974847 1.0001960 0.9921715
0.9986173 1.0001088 0.9956446
0.9429763 1.0029714 0.9289245
0.9429863 1.0029710 0.9289280
0.9430924 1.0029669 0.9289648
0.9442046 1.0029238 0.9293542
0.9545844 1.0025085 0.9333059
1.0004726 0.9993685 0.9616932
0.9967333 1.0002301 0.9921998
0.9985761 1.0001106 0.9956523
0.9925600 1.0001259 1.0003633
0.9925600 1.0001259 1.0003633
0.9925600 1.0001266 1.0003632
0.9925595 1.0001330 1.0003623
0.9925547 1.0002005 1.0003534
0.9925261 1.0003427 0.9997431
0.9926796 1.0003952 0.9940072
0.9981781 1.0001282 0.9957262
0.9961539 1.0000835 1.0001868
0.9961539 1.0000835 1.0001868
0.9961539 1.0000835 1.0001868
0.9961540 1.0000838 1.0001868
0.9961547 1.0000872 1.0001863
0.9961623 1.0001225 1.0001812
0.9961635 1.0001776 0.9998435
0.9961978 1.0002068 0.9968830
0.0081582 0.0094020 0.0324085
0.0324076 0.0086851 0.0346194
0.1243047 0.0307751 0.0308091
0.3937198 0.1065187 -0.0145440
0.8591970 0.5050389 0.3435201
1.0073674 0.9450223 0.9340747
0.9975690 1.0001922 0.9921693
0.9986216 1.0001086 0.9956438
0.0170340 0.0334157 0.0348957
0.0321253 0.0321250 0.0321291
0.1277781 0.0380746 -0.0041678
0.3940631 0.1115971 -0.0138175
0.8591688 0.5061649 0.3436884
1.0073662 0.9450322 0.9340781
0.9975690 1.0001922 0.9921693
0.9986216 1.0001086 0.9956438
0.0559392 0.1194440 0.0539075
0.0555737 0.1197659 0.0407438
0.1236432 0.1213712 0.0155420
0.3974288 0.1556073 0.0053281
0.8588735 0.5176454 0.3454634
1.0073538 0.9451377 0.9341143
0.9975683 1.0001922 0.9921693
0.9986216 1.0001086 0.9956438
0.1754895 0.3774835 0.1379243
0.1756509 0.3781208 0.1343503
0.1773485 0.3852289 0.0788931
0.4222262 0.4128974 0.0528377
0.8561112 0.6043743 0.3632000
1.0072240 0.9462412 0.9344952
0.9975610 1.0001925 0.9921695
0.9986212 1.0001086 0.9956439
0.5244882 0.8431725 0.3428940
0.5245604 0.8432682 0.3411610
0.5253227 0.8442855 0.3218696
0.6012745 0.8446570 0.3128017
0.8462971 0.8411730 0.4995799
1.0060151 0.9563573 0.9382258
0.9974847 1.0001960 0.9921715
0.9986173 1.0001088 0.9956446
0.9429643 1.0029719 0.9289185
0.9429743 1.0029715 0.9289220
0.9430805 1.0029674 0.9289588
0.9441931 1.0029243 0.9293482
0.9545757 1.0025089 0.9333005
1.0004726 0.9993684 0.9616908
0.9967334 1.0002301 0.9921998
0.9985761 1.0001106 0.9956523
0.9925600 1.0001258 1.0003633
0.9925600 1.0001259 1.0003633
0.9925600 1.0001265 1.0003632
0.9925595 1.0001329 1.0003623
0.9925547 1.0002004 1.0003534
0.9925261 1.0003427 0.9997431
0.9926796 1.0003952 0.9940072
0.9981781 1.0001282 0.9957262
0.9961539 1.0000835 1.0001868
0.9961539 1.0000835 1.0001868
0.9961539 1.0000835 1.0001868
0.9961540 1.0000838 1.0001868
0.9961547 1.0000872 1.0001863
0.9961623 1.0001225 1.0001812
0.9961635 1.0001776 0.9998435
0.9961978 1.0002068 0.9968830
0.0286725 0.0347065 0.1116060
0.0341680 0.0259989 0.1259326
0.1212081 0.0347519 0.1283587
0.3881814 0.0961604 0.1017149
0.8599487 0.4942813 0.3438617
1.0073760 0.9449470 0.9340762
0.9975697 1.0001921 0.9921692
0.9986217 1.0001086 0.9956438
0.0332651 0.0479466 0.1168382
0.0327650 0.0398488 0.1272655
0.1224506 0.0353903 0.1296632
0.3899648 0.0965466 0.0966433
0.8599175 0.4954705 0.3440222
1.0073748 0.9449570 0.9340796
0.9975696 1.0001921 0.9921692
0.9986217 1.0001086 0.9956438
0.0615572 0.1209170 0.1254018
0.0607018 0.1192361 0.1236614
0.1155681 0.1155675 0.1155766
0.4077715 0.1146541 -0.0144257
0.8595902 0.5077527 0.3457167
1.0073624 0.9450626 0.9341156
0.9975690 1.0001922 0.9921692
0.9986216 1.0001086 0.9956438
0.1707462 0.3642937 0.1674899
0.1705675 0.3641714 0.1647035
0.1715945 0.3694270 0.1307501
0.4085222 0.3993247 0.0510969
0.8565450 0.5991915 0.3627698
1.0072325 0.9461677 0.9344953
0.9975617 1.0001925 0.9921694
0.9986213 1.0001086 0.9956439
0.5232663 0.8417978 0.3604231
0.5233398 0.8418940 0.3588119
0.5241150 0.8429162 0.3409411
0.5946031 0.8444320 0.3094515
0.8458365 0.8407046 0.4976821
1.0060222 0.9562976 0.9382152
0.9974854 1.0001960 0.9921714
0.9986174 1.0001088 0.9956446
0.9428370 1.0029769 0.9288548
0.9428470 1.0029766 0.9288583
0.9429535 1.0029724 0.9288951
0.9440698 1.0029292 0.9292850
0.9544835 1.0025128 0.9332425
1.0004729 0.9993680 0.9616645
0.9967339 1.0002301 0.9921997
0.9985762 1.0001106 0.9956523
0.9925601 1.0001252 1.0003634
0.9925601 1.0001253 1.0003633
0.9925601 1.0001259 1.0003633
0.9925596 1.0001323 1.0003624
0.9925547 1.0001998 1.0003535
0.9925261 1.0003427 0.9997436
0.9926796 1.0003952 0.9940072
0.9981781 1.0001282 0.9957262
0.9961539 1.0000835 1.0001868
0.9961539 1.0000835 1.0001868
0.9961539 1.0000835 1.0001868
0.9961540 1.0000838 1.0001868
0.9961547 1.0000872 1.0001863
0.9961623 1.0001225 1.0001812
0.9961635 1.0001776 0.9998435
0.9961978 1.0002068 0.9968830
0.0849524 0.1041554 0.3287605
0.0853804 0.1019969 0.3342519
0.1226520 0.1032245 0.3499877
0.3752400 0.1024194 0.4055952
0.8627609 0.4527035 0.4679201
1.0074671 0.9441449 0.9341093
0.9975768 1.0001918 0.9921685
0.9986221 1.0001086 0.9956438
0.0858095 0.1076587 0.3284446
0.0862220 0.1056719 0.3337323
0.1207935 0.1039653 0.3534140
0.3759784 0.1023111 0.4063498
0.8628394 0.4527823 0.4667462
1.0074659 0.9441550 0.9341125
0.9975767 1.0001918 0.9921685
0.9986221 1.0001086 0.9956438
0.0992180 0.1456649 0.3433915
0.0990672 0.1439977 0.3456634
0.0998253 0.1216866 0.3873381
0.3832214 0.1028705 0.4136941
0.8636788 0.4536148 0.4538552
1.0074534 0.9442622 0.9341472
0.9975760 1.0001918 0.9921685
0.9986220 1.0001086 0.9956438
0.1925665 0.3774258 0.3959590
0.1921255 0.3765556 0.3950773
0.1873430 0.3671169 0.3855287
0.3706441 0.3706407 0.3706909
0.8630598 0.5320398 0.3824798
1.0073220 0.9453836 0.9345123
0.9975688 1.0001922 0.9921687
0.9986217 1.0001086 0.9956439
0.5131131 0.8295661 0.5013242
0.5129805 0.8294968 0.5002197
0.5126540 0.8296043 0.4893064
0.5198632 0.8395619 0.3390285
0.8407788 0.8355618 0.4769824
1.0060982 0.9556590 0.9381128
0.9974923 1.0001957 0.9921707
0.9986177 1.0001088 0.9956446
0.9414540 1.0030317 0.9281722
0.9414644 1.0030313 0.9281757
0.9415749 1.0030271 0.9282131
0.9427316 1.0029826 0.9286085
0.9534855 1.0025554 0.9326222
1.0004760 0.9993638 0.9613842
0.9967395 1.0002298 0.9921993
0.9985766 1.0001106 0.9956523
0.9925609 1.0001188 1.0003642
0.9925609 1.0001188 1.0003642
0.9925608 1.0001195 1.0003641
0.9925604 1.0001259 1.0003633
0.9925555 1.0001935 1.0003543
0.9925265 1.0003426 0.9997493
0.9926795 1.0003952 0.9940071
0.9981784 1.0001281 0.9957262
0.9961538 1.0000831 1.0001869
0.9961538 1.0000831 1.0001869
0.9961538 1.0000832 1.0001869
0.9961539 1.0000835 1.0001868
0.9961546 1.0000869 1.0001864
0.9961622 1.0001222 1.0001812
0.9961635 1.0001776 0.9998438
0.9961978 1.0002068 0.9968830
0.2992424 0.3622541 0.8527293
0.2994222 0.3617531 0.8532882
0.3101010 0.3621491 0.8554238
0.4698650 0.4047279 0.8575636
0.8373888 0.5870765 0.8527503
1.0073277 0.9444046 0.9454264
0.9976534 1.0001884 0.9921603
0.9986262 1.0001084 0.9956438
0.2994292 0.3632697 0.8525986
0.2996086 0.3627744 0.8531552
0.3094178 0.3625955 0.8556672
0.4694885 0.4052152 0.8577504
0.8374108 0.5871350 0.8527712
1.0073274 0.9444074 0.9454213
0.9976533 1.0001884 0.9921603
0.9986262 1.0001084 0.9956438
0.3014244 0.3738382 0.8512610
0.3015987 0.3733994 0.8517944
0.3034852 0.3684166 0.8575700
0.4653521 0.4104244 0.8597451
0.8376440 0.5877549 0.8529930
1.0073246 0.9444376 0.9453667
0.9976526 1.0001884 0.9921603
0.9986262 1.0001084 0.9956438
0.3392018 0.5060650 0.8504956
0.3391056 0.5054515 0.8507047
0.3381041 0.4987167 0.8530104
0.3704683 0.4465582 0.8856832
0.8400810 0.5941876 0.8553111
1.0072940 0.9447585 0.9447743
0.9976452 1.0001887 0.9921605
0.9986258 1.0001084 0.9956438
0.5552116 0.8320340 0.8442528
0.5551709 0.8320004 0.8442195
0.5547365 0.8316432 0.8438653
0.5500066 0.8277632 0.8400181
0.8243158 0.8243147 0.8243311
1.0067815 0.9496484 0.9398430
0.9975669 1.0001923 0.9921628
0.9986219 1.0001086 0.9956446
0.9291574 1.0034630 0.9276187
0.9291396 1.0034638 0.9275887
0.9289491 1.0034726 0.9272678
0.9286323 1.0034958 0.9255973
0.9410923 1.0030567 0.9265507
1.0005109 0.9993171 0.9582211
0.9967996 1.0002271 0.9921940
0.9985806 1.0001104 0.9956523
0.9925695 1.0000491 1.0003732
0.9925695 1.0000492 1.0003732
0.9925695 1.0000498 1.0003731
0.9925689 1.0000564 1.0003722
0.9925637 1.0001258 1.0003631
0.9925308 1.0003418 0.9998104
0.9926784 1.0003953 0.9940062
0.9981815 1.0001280 0.9957260
0.9961526 1.0000798 1.0001874
0.9961526 1.0000798 1.0001874
0.9961526 1.0000798 1.0001874
0.9961527 1.0000801 1.0001874
0.9961534 1.0000835 1.0001869
0.9961611 1.0001189 1.0001817
0.9961631 1.0001776 0.9998467
0.9961972 1.0002069 0.9968825
0.8803500 0.8914749 1.0198948
0.8804034 0.8915051 1.0198886
0.8809675 0.8918240 1.0198235
0.8866638 0.8950745 1.0191600
0.9215322 0.9139175 1.0151449
1.0009742 0.9598042 1.0051072
0.9992417 0.9925113 1.0010364
0.9986711 1.0001063 0.9956434
0.8803339 0.8914774 1.0198952
0.8803873 0.8915076 1.0198890
0.8809516 0.8918266 1.0198239
0.8866503 0.8950780 1.0191602
0.9215340 0.9139301 1.0151432
1.0009741 0.9598054 1.0051070
0.9992418 0.9925113 1.0010364
0.9986711 1.0001063 0.9956434
0.8801612 0.8915033 1.0198998
0.8802148 0.8915336 1.0198936
0.8807818 0.8918536 1.0198282
0.8865058 0.8951139 1.0191624
0.9215530 0.9140641 1.0151256
1.0009738 0.9598179 1.0051055
0.9992427 0.9925111 1.0010364
0.9986710 1.0001063 0.9956434
0.8781573 0.8916796 1.0199679
0.8782140 0.8917110 1.0199615
0.8788127 0.8920430 1.0198933
0.8848366 0.8954152 1.0192012
0.9217566 0.9154843 1.0149389
1.0009698 0.9599510 1.0050894
0.9992521 0.9925091 1.0010361
0.9986706 1.0001064 0.9956435
0.8844738 0.9135640 1.0169085
0.8844792 0.9135575 1.0169091
0.8845371 0.9134889 1.0169156
0.8851941 0.9127753 1.0169799
0.9166796 0.9237147 1.0141488
1.0009294 0.9613269 1.0049227
0.9993548 0.9924877 1.0010335
0.9986666 1.0001065 0.9956442
0.9472182 0.9988551 1.0026156
0.9472161 0.9988550 1.0026157
0.9471944 0.9988546 1.0026167
0.9469625 0.9988505 1.0026269
0.9443996 0.9988051 1.0027389
0.9999977 0.9999975 1.0000004
0.9975621 1.0001929 0.9921239
0.9986241 1.0001084 0.9956517
0.9926526 0.9990946 1.0004981
0.9926526 0.9990947 1.0004981
0.9926527 0.9990956 1.0004980
0.9926535 0.9991056 1.0004966
0.9926563 0.9992087 1.0004825
0.9925989 1.0001200 1.0003621
0.9926706 1.0003957 0.9939998
0.9982150 1.0001265 0.9957237
0.9961403 1.0000431 1.0001930
0.9961403 1.0000431 1.0001930
0.9961403 1.0000431 1.0001930
0.9961404 1.0000434 1.0001929
0.9961411 1.0000469 1.0001924
0.9961490 1.0000836 1.0001871
0.9961593 1.0001774 0.9998782
0.9961912 1.0002072 0.9968776
0.9947355 1.0002529 0.9988326
0.9947353 1.0002529 0.9988326
0.9947330 1.0002530 0.9988326
0.9947087 1.0002541 0.9988327
0.9944746 1.0002646 0.9988425
0.9935176 1.0003021 0.9993776
0.9932425 0.9955894 1.0009399
0.9994795 0.9949452 1.0007014
0.9947355 1.0002529 0.9988325
0.9947353 1.0002529 0.9988325
0.9947330 1.0002530 0.9988325
0.9947087 1.0002541 0.9988327
0.9944745 1.0002646 0.9988424
0.9935175 1.0003021 0.9993775
0.9932425 0.9955894 1.0009399
0.9994795 0.9949452 1.0007014
0.9947355 1.0002529 0.9988320
0.9947353 1.0002529 0.9988320
0.9947330 1.0002530 0.9988320
0.9947087 1.0002541 0.9988322
0.9944744 1.0002646 0.9988419
0.9935169 1.0003021 0.9993770
0.9932425 0.9955894 1.0009399
0.9994795 0.9949452 1.0007014
0.9947357 1.0002530 0.9988265
0.9947355 1.0002530 0.9988265
0.9947332 1.0002531 0.9988265
0.9947086 1.0002542 0.9988266
0.9944728 1.0002647 0.9988358
0.9935105 1.0003025 0.9993709
0.9932423 0.9955893 1.0009399
0.9994802 0.9949452 1.0007014
0.9947498 1.0002529 0.9987707
0.9947495 1.0002529 0.9987707
0.9947470 1.0002530 0.9987707
0.9947203 1.0002542 0.9987700
0.9944647 1.0002658 0.9987729
0.9934433 1.0003062 0.9993052
0.9932403 0.9955880 1.0009402
0.9994870 0.9949457 1.0007010
0.9940415 1.0002932 0.9979670
0.9940415 1.0002932 0.9979670
0.9940413 1.0002932 0.9979674
0.9940389 1.0002933 0.9979708
0.9940121 1.0002941 0.9980081
0.9929898 1.0003355 0.9984479
0.9932206 0.9955752 1.0009429
0.9995607 0.9949509 1.0006964
0.9934234 1.0003779 0.9924207
0.9934234 1.0003779 0.9924207
0.9934234 1.0003779 0.9924207
0.9934235 1.0003779 0.9924209
0.9934251 1.0003778 0.9924227
0.9934451 1.0003767 0.9924461
1 1 1
0.9986487 1.0001066 0.9957154
0.9959682 0.9995016 1.0002747
0.9959682 0.9995016 1.0002747
0.9959682 0.9995017 1.0002747
0.9959684 0.9995022 1.0002746
0.9959701 0.9995082 1.0002737
0.9959858 0.9995692 1.0002647
0.9960981 1.0000817 1.0001899
0.9961247 1.0002108 0.9968231
0.9952761 1.0002274 0.9989356
0.9952761 1.0002274 0.9989356
0.9952761 1.0002274 0.9989356
0.9952763 1.0002274 0.9989362
0.9952780 1.0002272 0.9989417
0.9952955 1.0002258 0.9990004
0.9954715 1.0002119 0.9995736
0.9956129 0.9971245 1.0006123
0.9952761 1.0002274 0.9989356
0.9952761 1.0002274 0.9989356
0.9952761 1.0002274 0.9989356
0.9952763 1.0002274 0.9989362
0.9952780 1.0002272 0.9989417
0.9952955 1.0002258 0.9990004
0.9954715 1.0002119 0.9995736
0.9956129 0.9971245 1.0006123
0.9952761 1.0002274 0.9989355
0.9952761 1.0002274 0.9989355
0.9952762 1.0002274 0.9989356
0.9952763 1.0002274 0.9989361
0.9952780 1.0002272 0.9989417
0.9952956 1.0002258 0.9990004
0.9954715 1.0002119 0.9995735
0.9956129 0.9971245 1.0006123
0.9952765 1.0002274 0.9989351
0.9952765 1.0002274 0.9989351
0.9952765 1.0002274 0.9989352
0.9952767 1.0002273 0.9989357
0.9952784 1.0002272 0.9989413
0.9952959 1.0002258 0.9990000
0.9954717 1.0002118 0.9995732
0.9956130 0.9971245 1.0006123
0.9952802 1.0002272 0.9989307
0.9952802 1.0002272 0.9989307
0.9952803 1.0002272 0.9989308
0.9952804 1.0002272 0.9989313
0.9952821 1.0002271 0.9989369
0.9952995 1.0002257 0.9989956
0.9954741 1.0002118 0.9995695
0.9956132 0.9971247 1.0006122
0.9953208 1.0002259 0.9988842
0.9953208 1.0002259 0.9988842
0.9953208 1.0002259 0.9988842
0.9953209 1.0002259 0.9988848
0.9953225 1.0002257 0.9988904
0.9953384 1.0002244 0.9989493
0.9954997 1.0002110 0.9995296
0.9956162 0.9971266 1.0006118
0.9956834 1.0002136 0.9984873
0.9956834 1.0002136 0.9984873
0.9956834 1.0002136 0.9984873
0.9956835 1.0002136 0.9984876
0.9956851 1.0002135 0.9984913
0.9957029 1.0002122 0.9985312
0.9958281 1.0002011 0.9990575
0.9956468 0.9971465 1.0006076
0.9964584 1.0002049 0.9959193
0.9964584 1.0002049 0.9959193
0.9964584 1.0002049 0.9959193
0.9964583 1.0002049 0.9959193
0.9964579 1.0002049 0.9959189
0.9964540 1.0002051 0.9959143
0.9964110 1.0002076 0.9958647
0.9999985 1 1
