luts/Inverse_AgX_Base_Rec2100-HLG.cube
TITLE "Inverse AgX_Formation Rec.2100 HLG"
# Inverse of AgX Base Rec.2100-HLG Formation LUT
# This LUT expects input to be Rec.2100 HLG, output to be Rec.2020 Log2 from -10 stops to +6.5 stops
LUT_3D_SIZE 40
0 0 0
0.1999028 0.0291586 0.0463010
0.3035927 -0.0094313 0.0614301
0.3705822 0 0.0627694
0.4187739 0 0.0624097
0.4558673 0 0.0699402
0.4858024 0 0.0887783
0.5108342 0 0.1150355
0.5323631 0 0.1430658
0.5513152 0 0.1693035
0.5683380 0 0.1921836
0.5839089 0 0.2110873
0.5984029 0 0.2255890
0.6121453 0 0.2348692
0.6255051 0 0.2363755
0.6388573 0 0.2236941
0.6522449 0 0.1806072
0.6656703 0 0
0.6791349 0 0
0.6926400 0 0
0.7063449 0 0
0.7212095 0 0
0.7364897 0 0
0.7517245 0 0
0.7669323 0 0
0.7821286 0 0
0.7973274 0 0
0.8125406 0 0
0.8277789 0 0
0.8430516 0 0
0.8583667 0 0
0.8737310 0 0
0.8891491 0 0
0.9046272 0 0
0.9201709 0 0
0.9357855 0 0
0.9514752 0 0
0.9672437 0 0
0.9831021 0 0
0.9990682 0 0
0.0337520 0.2098740 0.0464245
0.1997807 0.2052622 0.0544411
0.3044359 0.1982556 0.0626480
0.3711504 0.1824501 0.0628876
0.4191145 0.1565023 0.0627254
0.4560750 0.1142729 0.0707188
0.4859344 0.0266021 0.0898126
0.5109224 0 0.1160524
0.5324255 0 0.1439364
0.5513623 0 0.1700086
0.5683762 0 0.1927394
0.5839423 0 0.2115194
0.5984345 0 0.2259180
0.6121772 0 0.2351057
0.6255404 0 0.2365033
0.6388967 0 0.2236754
0.6522879 0 0.1802509
0.6657163 0 0
0.6791833 0 0
0.6926903 0 0
0.7063963 0 0
0.7212603 0 0
0.7365349 0 0
0.7517647 0 0
0.7669678 0 0
0.7821601 0 0
0.7973552 0 0
0.8125651 0 0
0.8278004 0 0
0.8430704 0 0
0.8583830 0 0
0.8737450 0 0
0.8891610 0 0
0.9046372 0 0
0.9201792 0 0
0.9357923 0 0
0.9514807 0 0
0.9672480 0 0
0.9831055 0 0
0.9990712 0 0
0.0227749 0.3148029 0.0667460
0.1975156 0.3134698 0.0662515
0.3040478 0.3103263 0.0684959
0.3715464 0.3064636 0.0652661
0.4195587 0.3001583 0.0649634
0.4564270 0.2924031 0.0737910
0.4861939 0.2837050 0.0933050
0.5111138 0.2742887 0.1193225
0.5325710 0.2641118 0.1466850
0.5514787 0.2527554 0.1722126
0.5684753 0.2391554 0.1944742
0.5840325 0.2209069 0.2128711
0.5985220 0.1918936 0.2269518
0.6122678 0.1281098 0.2358544
0.6256423 0 0.2369245
0.6390117 0 0.2236605
0.6524142 0 0.1792317
0.6658518 0 0
0.6793263 0 0
0.6928391 0 0
0.7065489 0 0
0.7214111 0 0
0.7366692 0 0
0.7518840 0 0
0.7670737 0 0
0.7822538 0 0
0.7974380 0 0
0.8126381 0 0
0.8278646 0 0
0.8431266 0 0
0.8584319 0 0
0.8737869 0 0
0.8891965 0 0
0.9046670 0 0
0.9202041 0 0
0.9358127 0 0
0.9514970 0 0
0.9672607 0 0
0.9831158 0 0
0.9990803 0 0
-0.0574264 0.3821357 0.0767250
0.1885532 0.3815388 0.0749753
0.3028330 0.3799358 0.0727671
0.3710380 0.3775460 0.0707561
0.4195456 0.3744971 0.0706186
0.4565676 0.3706010 0.0803247
0.4863653 0.3663407 0.0999686
0.5112770 0.3619542 0.1252602
0.5327180 0.3575158 0.1515814
0.5516121 0.3529641 0.1761154
0.5686004 0.3480903 0.1975446
0.5841552 0.3424913 0.2152698
0.5986482 0.3354499 0.2288001
0.6124040 0.3256205 0.2372154
0.6258003 0.3098425 0.2377352
0.6391932 0.2798374 0.2237579
0.6526155 0.2039378 0.1776928
0.6660696 0 0
0.6795574 0 0
0.6930805 0 0
0.7067974 0 0
0.7216568 0 0
0.7368886 0 0
0.7520794 0 0
0.7672474 0 0
0.7824078 0 0
0.7975743 0 0
0.8127583 0 0
0.8279703 0 0
0.8432192 0 0
0.8585125 0 0
0.8738559 0 0
0.8892550 0 0
0.9047162 0 0
0.9202449 0 0
0.9358462 0 0
0.9515239 0 0
0.9672815 0 0
0.9831327 0 0
0.9990954 0 0
0 0.4304414 0.0861384
0.1744542 0.4300927 0.0846526
0.2994391 0.4291041 0.0820022
0.3698293 0.4275825 0.0800112
0.4190684 0.4256502 0.0806441
0.4564070 0.4230044 0.0911080
0.4863513 0.4200784 0.1102680
0.5113309 0.4170887 0.1341437
0.5328043 0.4141236 0.1588202
0.5517159 0.4111783 0.1818721
0.5687168 0.4081672 0.2020881
0.5842842 0.4049165 0.2188397
0.5987923 0.4011324 0.2315756
0.6125689 0.3963142 0.2392956
0.6260000 0.3894429 0.2390483
0.6394281 0.3786096 0.2241036
0.6528801 0.3607769 0.1758123
0.6663588 0.3285344 0
0.6798666 0.2497305 0
0.6934055 0 0
0.7071335 0 0
0.7219895 0 0
0.7371868 0 0
0.7523459 0 0
0.7674848 0 0
0.7826189 0 0
0.7977614 0 0
0.8129237 0 0
0.8281159 0 0
0.8433467 0 0
0.8586233 0 0
0.8739507 0 0
0.8893353 0 0
0.9047837 0 0
0.9203011 0 0
0.9358922 0 0
0.9515607 0 0
0.9673100 0 0
0.9831560 0 0
0.9991165 0 0
0 0.4675700 0.1004176
0.1558443 0.4673338 0.0995070
0.2949912 0.4666496 0.0978544
0.3677838 0.4655774 0.0972066
0.4178424 0.4641977 0.0994166
0.4559857 0.4625843 0.1060210
0.4861482 0.4602527 0.1240108
0.5112529 0.4578718 0.1458254
0.5328018 0.4555327 0.1683257
0.5517627 0.4532550 0.1894673
0.5687998 0.4510005 0.2081207
0.5843975 0.4486769 0.2236237
0.5989354 0.4461256 0.2353408
0.6127458 0.4430850 0.2421683
0.6262263 0.4390525 0.2409499
0.6397019 0.4331814 0.2248150
0.6531942 0.4243786 0.1737696
0.6667064 0.4107985 0
0.6802416 0.3886295 0
0.6938026 0.3471365 0
0.7075466 0.2031994 0
0.7223989 0 0
0.7375554 0 0
0.7526767 0 0
0.7677806 0 0
0.7828827 0 0
0.7979958 0 0
0.8131313 0 0
0.8282989 0 0
0.8435071 0 0
0.8587623 0 0
0.8740694 0 0
0.8894360 0 0
0.9048684 0 0
0.9203715 0 0
0.9359497 0 0
0.9516067 0 0
0.9673459 0 0
0.9831855 0 0
0.9991434 0 0
0 0.4975105 0.1203954
0.1328144 0.4973366 0.1199737
0.2901672 0.4968287 0.1193868
0.3654032 0.4960251 0.1199726
0.4162911 0.4949803 0.1231360
0.4548127 0.4937487 0.1298857
0.4857801 0.4923724 0.1403394
0.5110471 0.4903282 0.1597087
0.5327034 0.4883336 0.1797132
0.5517398 0.4864194 0.1986618
0.5688341 0.4845723 0.2155110
0.5844797 0.4827403 0.2295487
0.5990621 0.4808287 0.2400597
0.6129202 0.4786831 0.2458288
0.6264648 0.4760203 0.2434672
0.6400003 0.4723710 0.2259480
0.6535434 0.4671522 0.1716473
0.6670983 0.4595381 0
0.6806690 0.4481916 0
0.6942589 0.4305875 0
0.7080246 0.3992631 0
0.7228733 0.3154118 0
0.7379846 0 0
0.7530636 0 0
0.7681281 0 0
0.7831936 0 0
0.7982728 0 0
0.8133771 0 0
0.8285160 0 0
0.8436973 0 0
0.8589264 0 0
0.8742097 0 0
0.8895551 0 0
0.9049686 0 0
0.9204548 0 0
0.9360177 0 0
0.9516607 0 0
0.9673885 0 0
0.9832212 0 0
0.9991761 0 0
0 0.5225382 0.1437817
0.1047045 0.5224038 0.1436637
0.2853646 0.5220101 0.1437451
0.3629727 0.5213838 0.1449804
0.4146442 0.5205636 0.1483615
0.4535351 0.5195897 0.1545452
0.4847132 0.5184949 0.1635859
0.5107240 0.5173017 0.1749451
0.5325102 0.5155328 0.1923900
0.5516422 0.5138560 0.2090530
0.5688114 0.5122723 0.2239771
0.5845201 0.5107533 0.2364253
0.5991608 0.5092414 0.2456050
0.6130799 0.5076420 0.2501889
0.6267030 0.5057926 0.2465427
0.6403098 0.5034004 0.2274742
0.6539140 0.5000852 0.1694077
0.6675207 0.4953675 0
0.6811349 0.4885736 0
0.6947609 0.4786445 0
0.7085546 0.4627559 0
0.7233996 0.4327069 0
0.7384635 0.3672318 0
0.7534973 0 0
0.7685194 0 0
0.7835450 0 0
0.7985870 0 0
0.8136565 0 0
0.8287628 0 0
0.8439128 0 0
0.8591122 0 0
0.8743687 0 0
0.8896903 0 0
0.9050823 0 0
0.9205491 0 0
0.9360945 0 0
0.9517215 0 0
0.9674371 0 0
0.9832630 0 0
0.9992143 0 0
0 0.5440625 0.1677960
0.0688810 0.5439556 0.1678246
0.2807569 0.5436421 0.1682116
0.3606244 0.5431417 0.1696253
0.4130210 0.5424830 0.1727652
0.4522587 0.5416961 0.1780876
0.4836434 0.5408067 0.1856363
0.5097968 0.5398334 0.1950492
0.5322244 0.5387865 0.2057032
0.5514674 0.5372868 0.2201504
0.5687258 0.5358978 0.2331561
0.5845108 0.5346064 0.2439779
0.5992220 0.5333790 0.2517675
0.6132148 0.5321596 0.2550827
0.6269295 0.5308638 0.2500406
0.6406183 0.5292909 0.2292601
0.6542930 0.5271609 0.1667855
0.6679603 0.5241501 0
0.6816259 0.5198477 0
0.6952951 0.5136792 0
0.7091232 0.5040216 0
0.7239647 0.4871822 0
0.7389802 0.4589651 0
0.7539677 0.4029410 0
0.7689457 0 0
0.7839292 0 0
0.7989316 0 0
0.8139634 0 0
0.8290335 0 0
0.8441482 0 0
0.8593156 0 0
0.8745433 0 0
0.8898388 0 0
0.9052072 0 0
0.9206526 0 0
0.9361785 0 0
0.9517876 0 0
0.9674910 0 0
0.9833106 0 0
0.9992579 0 0
0 0.5630152 0.1905220
0.0151390 0.5629288 0.1906100
0.2762906 0.5626749 0.1910786
0.3583696 0.5622690 0.1924137
0.4114579 0.5617326 0.1951213
0.4510287 0.5610888 0.1995352
0.4826171 0.5603580 0.2057075
0.5089160 0.5595551 0.2133987
0.5314595 0.5586890 0.2221642
0.5512125 0.5577622 0.2314669
0.5685721 0.5565320 0.2426531
0.5844448 0.5554233 0.2518874
0.5992376 0.5544192 0.2582795
0.6133159 0.5534918 0.2602797
0.6271344 0.5526120 0.2537444
0.6409148 0.5516289 0.2310654
0.6546687 0.5503187 0.1632446
0.6684044 0.5484409 0
0.6821288 0.5457130 0
0.6958483 0.5417734 0
0.7097175 0.5354686 0
0.7245549 0.5246272 0
0.7395226 0.5079056 0
0.7544639 0.4810524 0
0.7693971 0.4298392 0
0.7843376 0.1174826 0
0.7992984 0 0
0.8142898 0 0
0.8293202 0 0
0.8443983 0 0
0.8595323 0 0
0.8747296 0 0
0.8899974 0 0
0.9053405 0 0
0.9207628 0 0
0.9362675 0 0
0.9518580 0 0
0.9675492 0 0
0.9833639 0 0
0.9993067 0 0
0 0.5800476 0.2109493
-0.1482721 0.5799771 0.2110469
0.2716445 0.5797699 0.2114890
0.3561085 0.5794379 0.2126333
0.4099215 0.5789981 0.2148594
0.4498409 0.5784686 0.2184285
0.4816439 0.5778654 0.2234006
0.5080981 0.5772007 0.2296162
0.5307670 0.5764819 0.2367556
0.5506293 0.5757115 0.2443973
0.5683433 0.5748862 0.2520832
0.5843140 0.5739351 0.2598181
0.5991989 0.5731200 0.2648436
0.6133744 0.5724349 0.2654983
0.6273079 0.5718926 0.2573730
0.6411883 0.5713669 0.2325393
0.6550292 0.5706695 0.1577968
0.6688406 0.5696093 0
0.6826307 0.5679757 0
0.6964070 0.5655176 0
0.7103237 0.5613073 0
0.7251561 0.5538807 0
0.7400776 0.5427563 0
0.7549736 0.5262063 0
0.7698624 0.5000399 0
0.7847591 0.4513553 0
0.7996763 0.2471184 0
0.8146251 0 0
0.8296159 0 0
0.8446574 0 0
0.8597573 0 0
0.8749234 0 0
0.8901626 0 0
0.9054792 0 0
0.9208772 0 0
0.9363594 0 0
0.9519322 0 0
0.9676123 0 0
0.9834225 0 0
0.9993605 0 0
0 0.5956406 0.2285761
0 0.5955830 0.2286607
0.2661392 0.5954137 0.2290248
0.3536192 0.5951421 0.2299384
0.4083112 0.5947816 0.2316988
0.4486459 0.5943467 0.2345157
0.4807014 0.5938500 0.2384534
0.5073359 0.5933018 0.2434100
0.5301490 0.5927081 0.2491471
0.5501359 0.5920712 0.2553277
0.5679638 0.5913884 0.2615645
0.5841077 0.5906515 0.2674281
0.5990948 0.5900057 0.2711358
0.6133802 0.5895350 0.2704088
0.6274384 0.5892828 0.2605675
0.6414267 0.5891336 0.2331729
0.6553617 0.5889231 0.1486507
0.6692555 0.5884921 0
0.6831177 0.5876746 0
0.6969568 0.5862837 0
0.7109271 0.5835148 0
0.7257528 0.5782971 0
0.7406299 0.5704859 0
0.7554815 0.5592408 0
0.7703255 0.5427787 0
0.7851781 0.5170947 0
0.8000527 0.4701941 0
0.8149611 0.2999506 0
0.8299136 0 0
0.8449190 0 0
0.8599854 0 0
0.8751203 0 0
0.8903303 0 0
0.9056199 0 0
0.9209926 0 0
0.9364515 0 0
0.9520091 0 0
0.9676806 0 0
0.9834864 0 0
0.9994192 0 0
0 0.6101742 0.2430558
0 0.6101274 0.2431146
0.2585063 0.6099901 0.2433750
0.3505136 0.6097696 0.2440460
0.4064440 0.6094768 0.2453657
0.4473449 0.6091232 0.2475107
0.4797338 0.6087193 0.2505445
0.5065996 0.6082733 0.2544013
0.5295923 0.6077905 0.2588992
0.5497306 0.6072728 0.2637624
0.5676943 0.6067181 0.2686487
0.5839660 0.6061197 0.2731542
0.5989095 0.6054637 0.2767838
0.6133186 0.6051930 0.2746075
0.6275102 0.6052026 0.2628423
0.6416139 0.6053795 0.2321987
0.6556496 0.6055769 0.1319333
0.6696316 0.6056582 0
0.6835715 0.6054877 0
0.6974784 0.6049210 0
0.7115072 0.6032277 0
0.7263224 0.5995823 0
0.7411566 0.5939895 0
0.7559662 0.5859993 0
0.7707695 0.5747026 0
0.7855822 0.5583388 0
0.8004181 0.5330347 0
0.8152892 0.4874436 0
0.8302058 0.3356796 0
0.8451770 0 0
0.8602108 0 0
0.8753151 0 0
0.8904962 0 0
0.9057586 0 0
0.9211058 0 0
0.9365441 0 0
0.9520882 0 0
0.9677541 0 0
0.9835551 0 0
0.9994823 0 0
0 0.6239823 0.2538611
0 0.6239452 0.2538831
0.2461833 0.6238362 0.2540177
0.3461167 0.6236614 0.2544310
0.4040091 0.6234295 0.2553167
0.4457675 0.6231500 0.2568242
0.4786426 0.6228315 0.2590170
0.5058329 0.6224811 0.2618516
0.5290689 0.6221033 0.2651793
0.5494061 0.6217004 0.2687599
0.5675438 0.6212710 0.2722733
0.5839767 0.6208103 0.2753145
0.5990773 0.6203077 0.2773436
0.6131608 0.6197384 0.2774880
0.6274940 0.6199988 0.2633862
0.6417195 0.6204763 0.2281429
0.6558615 0.6210376 0.0954663
0.6699372 0.6215621 0
0.6839600 0.6219341 0
0.6979411 0.6220346 0
0.7120364 0.6211798 0
0.7268410 0.6187036 0
0.7416391 0.6146780 0
0.7564137 0.6088580 0
0.7711824 0.6007387 0
0.7859609 0.5894050 0
0.8007630 0.5731235 0
0.8156007 0.5481363 0
0.8304847 0.5036447 0
0.8454242 0.3649994 0
0.8604275 0 0
0.8755026 0 0
0.8906558 0 0
0.9058914 0 0
0.9212139 0 0
0.9366364 0 0
0.9521719 0 0
0.9678321 0 0
0.9836284 0 0
0.9995497 0 0
0 0.6374635 0.2594782
0 0.6374360 0.2594475
0.2220722 0.6373551 0.2594083
0.3389840 0.6372259 0.2594956
0.4003833 0.6370556 0.2598724
0.4435849 0.6368518 0.2606680
0.4772446 0.6366219 0.2619400
0.5049392 0.6363718 0.2636552
0.5285397 0.6361056 0.2656806
0.5491650 0.6358249 0.2677870
0.5675467 0.6355285 0.2696484
0.5841975 0.6352116 0.2708234
0.5995020 0.6348635 0.2706743
0.6137888 0.6344610 0.2680549
0.6273456 0.6339645 0.2608645
0.6417058 0.6347145 0.2183819
0.6559660 0.6355939 -0.0511203
0.6701466 0.6364943 0
0.6842634 0.6373147 0
0.6983291 0.6379551 0
0.7125013 0.6377652 0
0.7272957 0.6361845 0
0.7420654 0.6333171 0
0.7568124 0.6290379 0
0.7715535 0.6230559 0
0.7863041 0.6148503 0
0.8010779 0.6035088 0
0.8158872 0.5873331 0
0.8307427 0.5626940 0
0.8456538 0.5193866 0
0.8606293 0.3931693 0
0.8756772 0 0
0.8908037 0 0
0.9060137 0 0
0.9213186 0 0
0.9367307 0 0
0.9522599 0 0
0.9679146 0 0
0.9837059 0 0
0.9996212 0 0
0 0.6509622 0.2572858
0 0.6509430 0.2571777
0.1589202 0.6508869 0.2568943
0.3264198 0.6507977 0.2565534
0.3945530 0.6506812 0.2562941
0.4402763 0.6505436 0.2562293
0.4752323 0.6503907 0.2564134
0.5037206 0.6502272 0.2568071
0.5278675 0.6500564 0.2572707
0.5489030 0.6498793 0.2575484
0.5676141 0.6496945 0.2572520
0.5845444 0.6494976 0.2557982
0.6000982 0.6492785 0.2522567
0.6146229 0.6490151 0.2447507
0.6284009 0.6486742 0.2295060
0.6415596 0.6482355 0.1986831
0.6559518 0.6493932 0
0.6702496 0.6506157 0
0.6844715 0.6518134 0
0.6986319 0.6529002 0
0.7128914 0.6532517 0
0.7276751 0.6523774 0
0.7424242 0.6503972 0
0.7571513 0.6472626 0
0.7718722 0.6428078 0
0.7866018 0.6367222 0
0.8013535 0.6284798 0
0.8161398 0.6171827 0
0.8309715 0.6011873 0
0.8458584 0.5770467 0
0.8608094 0.5353913 0
0.8758328 0.4241432 0
0.8909349 0 0
0.9061273 0 0
0.9214230 0 0
0.9368288 0 0
0.9523518 0 0
0.9680010 0 0
0.9837874 0 0
0.9996964 0 0
0 0.6645025 0.2437077
0 0.6644903 0.2434660
0 0.6644549 0.2427822
0.3037036 0.6643993 0.2417521
0.3852372 0.6643279 0.2404951
0.4352311 0.6642457 0.2391081
0.4722321 0.6641573 0.2376163
0.5019132 0.6640664 0.2359424
0.5268477 0.6639755 0.2338703
0.5484512 0.6638853 0.2310009
0.5676008 0.6637942 0.2266606
0.5848890 0.6636979 0.2197059
0.6007500 0.6635871 0.2079388
0.6155571 0.6634405 0.1857453
0.6295871 0.6632311 0.1347953
0.6429701 0.6629415 0
0.6558080 0.6625528 0
0.6702359 0.6640548 0
0.6845742 0.6655745 0
0.6988399 0.6670364 0
0.7131971 0.6678384 0
0.7279683 0.6675340 0
0.7427048 0.6662530 0
0.7574200 0.6639988 0
0.7721284 0.6606840 0
0.7868442 0.6561214 0
0.8015806 0.6499921 0
0.8163500 0.6417766 0
0.8311633 0.6306087 0
0.8460306 0.6149374 0
0.8609611 0.5916254 0
0.8759636 0.5524605 0
0.8910533 0.4516044 0
0.9062403 0 0
0.9215303 0 0
0.9369301 0 0
0.9524473 0 0
0.9680911 0 0
0.9838725 0 0
0.9997750 0 0
0 0.6780857 0.2068211
0 0.6780793 0.2062471
0 0.6780611 0.2045455
0.2562697 0.6780335 0.2017772
0.3701493 0.6779999 0.1979895
0.4275642 0.6779641 0.1931644
0.4677655 0.6779298 0.1871258
0.4992079 0.6778998 0.1794347
0.5252572 0.6778760 0.1691603
0.5476363 0.6778587 0.1544032
0.5673649 0.6778463 0.1308097
0.5851106 0.6778346 0.0847250
0.6013527 0.6778148 -0.1615608
0.6164982 0.6777670 0
0.6308200 0.6776690 0
0.6444567 0.6775063 0
0.6575183 0.6772620 0
0.6700946 0.6769167 0
0.6845616 0.6787141 0
0.6989433 0.6804951 0
0.7134016 0.6816787 0
0.7281649 0.6818419 0
0.7428969 0.6811245 0
0.7576084 0.6795661 0
0.7723123 0.6771311 0
0.7870219 0.6737099 0
0.8017501 0.6691051 0
0.8165091 0.6630008 0
0.8313099 0.6548987 0
0.8461630 0.6440006 0
0.8610834 0.6288926 0
0.8760842 0.6059270 0
0.8911723 0.5657484 0
0.9063551 0.4569304 0
0.9216399 0 0
0.9370341 0 0
0.9525458 0 0
0.9681844 0 0
0.9839609 0 0
0.9998567 0 0
0 0.6917122 0.0345469
0 0.6917107 0.0285115
0 0.6917069 0.0077290
-0.0918388 0.6917027 -0.0426753
0.3441584 0.6917005 0
0.4158025 0.6917035 0
0.4611509 0.6917144 0
0.4952081 0.6917354 0
0.5228315 0.6917678 0
0.5462653 0.6918118 0
0.5667567 0.6918655 0
0.5850879 0.6919250 0
0.6018049 0.6919820 0
0.6173589 0.6920176 0
0.6320233 0.6920145 0
0.6459517 0.6919600 0
0.6592654 0.6918391 0
0.6720623 0.6916348 0
0.6844227 0.6913278 0
0.6989322 0.6933826 0
0.7134909 0.6948933 0
0.7282543 0.6954456 0
0.7429903 0.6951909 0
0.7577067 0.6941943 0
0.7724144 0.6924563 0
0.7871262 0.6899337 0
0.8018556 0.6865467 0
0.8166150 0.6821351 0
0.8314181 0.6762913 0
0.8462774 0.6683090 0
0.8612031 0.6572283 0
0.8762049 0.6413039 0
0.8912915 0.6167549 0
0.9064710 0.5728106 0
0.9217514 0.4360589 0
0.9371405 0 0
0.9526469 0 0
0.9682807 0 0
0.9840521 0 0
0.9999413 0 0
0 0.7053825 0
0 0.7053851 0
0 0.7053932 0
0 0.7054083 0
0.2901711 0.7054323 0
0.3970676 0.7054676 0
0.4513048 0.7055162 0
0.4893560 0.7055799 0
0.5192301 0.7056594 0
0.5441066 0.7057547 0
0.5656062 0.7058640 0
0.5846897 0.7059834 0
0.6020024 0.7061049 0
0.6180521 0.7062113 0
0.6331229 0.7062892 0
0.6473909 0.7063270 0
0.6609931 0.7063117 0
0.6740384 0.7062284 0
0.6866150 0.7060599 0
0.6987954 0.7057866 0
0.7134537 0.7076065 0
0.7282279 0.7085743 0
0.7429806 0.7088296 0
0.7577157 0.7084475 0
0.7724424 0.7074493 0
0.7871741 0.7057625 0
0.8019229 0.7032777 0
0.8167007 0.6998225 0
0.8315187 0.6951275 0
0.8463880 0.6887816 0
0.8613196 0.6801647 0
0.8763239 0.6682213 0
0.8914102 0.6509524 0
0.9065875 0.6239459 0
0.9218642 0.5736653 0
0.9372488 0.3403846 0
0.9527503 0 0
0.9683795 0 0
0.9841459 0 0
1.0000285 0 0
0 0.7192571 0
0 0.7192630 0
0 0.7192811 0
0 0.7193125 0
0 0.7193585 0
0.3635354 0.7194210 0
0.4359689 0.7195014 0
0.4805933 0.7196012 0
0.5138233 0.7197207 0
0.5407241 0.7198597 0
0.5635759 0.7200164 0
0.5836297 0.7201874 0
0.6016847 0.7203647 0
0.6183236 0.7205333 0
0.6338596 0.7206828 0
0.6485005 0.7208032 0
0.6624047 0.7208830 0
0.6756963 0.7209027 0
0.6884736 0.7208421 0
0.7008242 0.7206812 0
0.7132884 0.7203664 0
0.7280947 0.7217789 0
0.7428868 0.7224460 0
0.7576636 0.7224526 0
0.7724309 0.7218308 0
0.7871980 0.7205640 0
0.8019761 0.7185859 0
0.8167770 0.7157728 0
0.8316123 0.7119278 0
0.8464940 0.7067565 0
0.8614334 0.6998341 0
0.8764418 0.6904616 0
0.8915292 0.6774301 0
0.9067052 0.6584327 0
0.9219790 0.6281624 0
0.9373597 0.5686172 0
0.9528567 0 0
0.9684816 0 0
0.9842430 0 0
1.0001189 0 0
0 0.7342326 0
0 0.7342403 0
0 0.7342635 0
0 0.7343030 0
0 0.7343596 0
0.2671857 0.7344341 0
0.4072628 0.7345273 0
0.4654665 0.7346396 0
0.5045283 0.7347705 0
0.5346430 0.7349191 0
0.5595186 0.7350827 0
0.5809622 0.7352571 0
0.6000445 0.7354335 0
0.6174680 0.7355982 0
0.6336088 0.7357417 0
0.6487245 0.7358538 0
0.6630068 0.7359230 0
0.6766021 0.7359361 0
0.6896253 0.7358783 0
0.7022054 0.7357301 0
0.7149504 0.7354430 0
0.7279155 0.7350727 0
0.7427571 0.7360630 0
0.7575839 0.7363850 0
0.7723976 0.7360916 0
0.7872056 0.7351900 0
0.8020182 0.7336426 0
0.8168468 0.7313637 0
0.8317037 0.7282107 0
0.8466011 0.7239739 0
0.8615512 0.7183547 0
0.8765659 0.7108739 0
0.8916560 0.7007578 0
0.9068319 0.6866727 0
0.9221036 0.6660375 0
0.9374807 0.6327394 0
0.9529736 0.5642927 0
0.9685942 0 0
0.9843503 0 0
1.0002191 0 0
0 0.7494464 0
0 0.7494536 0
0 0.7494755 0
0 0.7495124 0
0 0.7495649 0
0 0.7496337 0
0.3463737 0.7497190 0
0.4405301 0.7498209 0
0.4902150 0.7499392 0
0.5253997 0.7500725 0
0.5532259 0.7502185 0
0.5765970 0.7503730 0
0.5970563 0.7505276 0
0.6154972 0.7506714 0
0.6324080 0.7507966 0
0.6481207 0.7508941 0
0.6628746 0.7509540 0
0.6768480 0.7509647 0
0.6901779 0.7509131 0
0.7030497 0.7507798 0
