luts/Inverse_AgX_Base_Rec2100-HLG.cube
TITLE "Inverse AgX_Formation Rec.2100 HLG"
# Inverse of AgX Base Rec.2100-HLG Formation LUT
# This LUT expects input to be Rec.2100 HLG, output to be Rec.2020 Log2 from -10 stops to +6.5 stops
LUT_3D_SIZE 8
DOMAIN_MIN 0.000000 0.000000 0.000000
DOMAIN_MAX 0.897436 0.897436 0.897436
0 0 0
0.4558673 0 0.0699402
0.5683380 0 0.1921836
0.6388573 0 0.2236941
0.7063449 0 0
0.7821286 0 0
0.8583667 0 0
0.9357855 0 0
0 0.4675700 0.1004176
0.4559857 0.4625843 0.1060210
0.5687998 0.4510005 0.2081207
0.6397019 0.4331814 0.2248150
0.7075466 0.2031994 0
0.7828827 0 0
0.8587623 0 0
0.9359497 0 0
0 0.5800476 0.2109493
0.4498409 0.5784686 0.2184285
0.5683433 0.5748862 0.2520832
0.6411883 0.5713669 0.2325393
0.7103237 0.5613073 0
0.7847591 0.4513553 0
0.8597573 0 0
0.9363594 0 0
0 0.6509622 0.2572858
0.4402763 0.6505436 0.2562293
0.5676141 0.6496945 0.2572520
0.6415596 0.6482355 0.1986831
0.7128914 0.6532517 0
0.7866018 0.6367222 0
0.8608094 0.5353913 0
0.9368288 0 0
0 0.7192571 0
0.3635354 0.7194210 0
0.5635759 0.7200164 0
0.6485005 0.7208032 0
0.7132884 0.7203664 0
0.7871980 0.7205640 0
0.8614334 0.6998341 0
0.9373597 0.5686172 0
0 0.7949524 0
0 0.7951012 0
0.5103177 0.7955350 0
0.6409167 0.7960011 0
0.7164925 0.7957965 0
0.7868919 0.7942831 0
0.8620182 0.7872678 0
0.9380804 0.7590479 0
0 0.8711163 0
0 0.8712080 0
0 0.8714478 0
0.5900796 0.8716772 0
0.7047294 0.8716486 0
0.7834495 0.8712629 0
0.8619850 0.8694869 0
0.9389568 0.8593121 0
0 0.9485804 0
0 0.9486198 0
0 0.9487121 0
0 0.9487860 0
0.6383548 0.9488465 0
0.7639541 0.9488342 0
0.8550358 0.9484284 0
0.9390348 0.9464292 0
0 0 0.4544383
0.4538582 0 0.4514502
0.5677949 0 0.4496262
0.6386764 0 0.4500719
0.7063335 0 0.4117367
0.7821434 0 0
0.8583778 0 0
0.9357866 0 0
0 0.4586687 0.4553601
0.4534932 0.4534932 0.4534932
0.5682288 0.4436950 0.4530542
0.6394863 0.4205985 0.4501395
0.7074062 0 0.3918148
0.7827847 0 0
0.8587118 0 0
0.9359407 0 0
0 0.5777713 0.4547156
0.4494463 0.5760937 0.4560291
0.5676848 0.5725830 0.4558745
0.6409547 0.5687332 0.4506630
0.7102003 0.5548887 0.3771448
0.7846638 0.4133099 0
0.8597062 0 0
0.9363499 0 0
0 0.6500073 0.4573944
0.4370726 0.6496038 0.4565079
0.5666950 0.6487929 0.4545473
0.6413377 0.6473521 0.4469036
0.7128152 0.6513248 0.3245727
0.7865302 0.6329360 0
0.8607647 0.5214595 0
0.9368186 0 0
0 0.7188347 0.4385359
0.3187534 0.7190989 0.4235272
0.5595931 0.7197169 0.4111632
0.6473100 0.7205133 0.3684941
0.7132412 0.7200396 0
0.7871567 0.7192595 0
0.8613929 0.6975962 0
0.9373494 0.5627324 0
0 0.7947710 0
0 0.7949982 0
0.4965253 0.7954392 0
0.6381517 0.7959069 0
0.7155664 0.7956959 0
0.7868748 0.7941391 0
0.8619905 0.7864394 0
0.9380721 0.7585668 0
0 0.8710377 0
0 0.8711716 0
0 0.8714123 0
0.5835307 0.8716398 0
0.7029863 0.8716078 0
0.7827879 0.8712120 0
0.8619666 0.8693883 0
0.9389506 0.8593386 0
0 0.9485391 0
0 0.9485918 0
0 0.9486829 0
0 0.9487544 0
0.6352817 0.9488126 0
0.7632979 0.9487940 0
0.8550202 0.9483691 0
0.9390199 0.9463641 0
0 0 0.5672122
0.4450725 0 0.5651537
0.5662966 0 0.5638954
0.6381768 0 0.5640952
0.7063005 0 0.5633123
0.7821791 0 0.5186269
0.8583981 0 0
0.9357821 0 0
0 0.4254728 0.5675230
0.4467797 0.4234800 0.5664415
0.5665319 0.4105285 0.5647673
0.6389128 0.3726118 0.5646823
0.7073324 0 0.5607636
0.7828046 0 0.5089640
0.8587269 0 0
0.9359345 0 0
0 0.5711091 0.5678034
0.4423715 0.5694713 0.5670384
0.5658794 0.5658794 0.5658794
0.6402595 0.5587536 0.5634474
0.7097911 0.5295865 0.5487775
0.7843738 0 0.4692333
0.8595779 0 0
0.9363379 0 0
0 0.6472328 0.5690393
0.4283423 0.6468409 0.5686478
0.5623296 0.6462574 0.5656488
0.6406969 0.6447248 0.5626448
0.7125713 0.6446791 0.5444858
0.7863085 0.6205951 0.4521782
0.8606475 0.4687012 0
0.9368064 0 0
0 0.7175645 0.5723752
0.2649734 0.7178402 0.5693037
0.5441709 0.7188748 0.5566241
0.6430945 0.7196630 0.5497517
0.7130857 0.7190136 0.5287519
0.7870207 0.7153146 0.3867812
0.8612835 0.6915825 0
0.9373412 0.5532856 0
0 0.7942028 0.5517341
0 0.7944362 0.5436276
0.4340108 0.7951401 0.5130464
0.6293052 0.7955999 0.4978327
0.7128162 0.7953458 0.4480103
0.7867939 0.7936240 0
0.8619063 0.7843023 0
0.9380710 0.7585453 0
0 0.8707785 0.2379198
0 0.8709137 0
0 0.8712673 0
0.5641596 0.8714821 0
0.6984972 0.8714334 0
0.7811592 0.8710020 0
0.8618924 0.8690392 0
0.9389397 0.8597240 0
0 0.9484008 0
0 0.9484530 0
0 0.9485694 0
0 0.9486324 0
0.6289116 0.9486805 0
0.7624006 0.9486376 0
0.8554088 0.9481713 0
0.9389737 0.9461642 0
0 0 0.6362742
0.4331832 0 0.6350973
0.5643802 0 0.6346056
0.6371894 0 0.6347719
0.7061201 0 0.6421540
0.7821517 0 0.6352942
0.8583798 0 0.5908774
0.9357552 0 0
0 0.3266317 0.6369058
0.4340023 0.3201124 0.6363701
0.5648462 0.2607669 0.6357211
0.6378201 0 0.6356681
0.7070872 0 0.6421162
0.7827506 0 0.6336437
0.8587000 0 0.5868119
0.9359054 0 0
0 0.5597280 0.6381228
0.4276500 0.5585322 0.6378656
0.5624871 0.5524313 0.6375880
0.6390166 0.5436082 0.6376109
0.7094312 0.5021847 0.6406660
0.7842620 0 0.6279856
0.8595290 0 0.5766776
0.9363031 0 0
0 0.6422689 0.6389455
0.4107827 0.6418658 0.6389080
0.5585541 0.6411219 0.6391873
0.6393433 0.6393433 0.6393433
0.7119945 0.6306893 0.6353658
0.7859399 0.5993776 0.6200453
0.8605134 0.2051333 0.5706927
0.9368347 0 0
0 0.7152275 0.6482690
0 0.7154912 0.6475740
0.5381156 0.7164689 0.6447906
0.6346006 0.7178051 0.6378763
0.7126174 0.7166868 0.6332246
0.7867296 0.7092865 0.6176697
0.8611454 0.6848593 0.5695930
0.9373718 0.5569077 0
0 0.7931039 0.6490709
0 0.7933332 0.6468685
0.4055820 0.7940225 0.6397860
0.6157291 0.7947737 0.6288631
0.7091100 0.7944071 0.6238446
0.7865314 0.7924057 0.6079326
0.8617651 0.7823041 0.5630633
0.9380846 0.7596175 0
0 0.8702499 0.6283043
0 0.8703837 0.6243713
0 0.8707310 0.6133568
0.5377074 0.8710330 0.6010048
0.6939730 0.8709421 0.5964456
0.7799338 0.8704238 0.5839278
0.8617113 0.8682973 0.5205990
0.9389006 0.8598544 0
0 0.9481241 0.4965670
0 0.9481756 0.4821754
0 0.9482895 0.4403100
0 0.9483397 0.4379944
0.6310519 0.9483713 0.4285433
0.7644502 0.9483029 0.3269185
0.8563364 0.9478143 0
0.9388916 0.9458165 0
0 0 0.7005207
0.4057891 0 0.7000729
0.5657993 0 0.7005252
0.6441488 0 0.7020596
0.7053086 0 0.7028100
0.7818323 0 0.7072977
0.8582368 0 0.6989036
0.9357035 0 0.6497686
0 0 0.7019160
0.3945682 0 0.7013592
0.5641699 0 0.7017608
0.6440849 0 0.7031437
0.7062061 0 0.7038221
0.7823993 0 0.7072684
0.8585474 0 0.6978619
0.9358510 0 0.6489498
0 0.5410502 0.7045198
0.3753150 0.5360951 0.7043345
0.5541274 0.5144967 0.7042000
0.6423366 0.4936798 0.7056662
0.7084128 0.4113765 0.7063597
0.7838405 0 0.7068209
0.8593529 0 0.6955835
0.9362411 0 0.6499037
0 0.6434238 0.7068638
0.3049562 0.6421283 0.7069975
0.5477720 0.6374268 0.7076220
0.6359196 0.6263409 0.7087284
0.7107983 0.6152814 0.7093917
0.7854412 0.5748459 0.7063701
0.8603087 0 0.6952034
0.9367631 0 0.6601209
0 0.7108869 0.7074757
0 0.7111024 0.7078490
0.5259492 0.7118841 0.7090819
0.6306526 0.7127691 0.7108410
0.7112578 0.7112578 0.7112578
0.7861860 0.7043911 0.7091099
0.8610186 0.6820930 0.7009968
0.9373474 0.5363144 0.6674225
0 0.7910541 0.7156348
0 0.7912664 0.7151305
0.3021609 0.7919019 0.7135230
0.6103892 0.7925617 0.7112399
0.7081579 0.7920428 0.7114745
0.7858742 0.7898541 0.7093455
0.8615660 0.7816150 0.7012779
0.9380400 0.7581768 0.6671837
0 0.8692895 0.7138705
0 0.8694227 0.7125062
0 0.8697656 0.7089474
0.5236266 0.8700556 0.7055227
0.6957450 0.8698382 0.7081047
0.7811129 0.8692627 0.7063342
0.8614187 0.8671401 0.6973259
0.9388145 0.8592913 0.6612744
0 0.9477121 0.6885545
0 0.9477655 0.6866847
0 0.9478821 0.6827102
0 0.9479270 0.6833449
0.6387446 0.9478848 0.6901365
0.7664928 0.9478052 0.6881063
0.8568320 0.9473063 0.6778369
0.9387669 0.9453002 0.6272085
0 0 0.7764620
0 0 0.7763215
0.5496845 0 0.7767259
0.6419594 0 0.7778019
0.7085421 0 0.7782949
0.7807911 0 0.7782078
0.8578674 0 0.7769711
0.9355811 0 0.7619819
0 0 0.7775829
0 0 0.7771136
0.5452138 0 0.7774993
0.6408088 0 0.7784911
0.7085553 0 0.7789341
0.7813177 0 0.7787819
0.8581646 0 0.7766468
0.9357241 0 0.7618189
0 0.2698341 0.7799958
0 0 0.7796834
0.5260096 0 0.7790771
0.6359722 0 0.7800712
0.7080665 0 0.7805180
0.7826662 0 0.7802779
0.8589362 0 0.7760401
0.9361011 0 0.7625600
0 0.6195328 0.7821510
0 0.6160251 0.7820452
0.5147313 0.6043410 0.7818858
0.6263169 0.5825684 0.7819621
0.7069506 0.5634463 0.7824397
0.7841609 0.4623865 0.7820901
0.8598493 0 0.7764969
0.9366072 0 0.7667645
0 0.7071987 0.7826440
0 0.7063007 0.7827258
0.4753904 0.7035418 0.7830325
0.6201732 0.6993443 0.7835447
0.7078202 0.6975525 0.7839162
0.7848400 0.6893251 0.7834334
0.8605226 0.6622945 0.7796968
0.9371753 0 0.7700999
0 0.7862340 0.7827326
0 0.7864137 0.7829769
0 0.7869409 0.7837009
0.5969009 0.7874272 0.7846053
0.7044884 0.7868345 0.7849031
0.7844609 0.7844609 0.7844609
0.8610651 0.7772213 0.7821191
0.9378834 0.7520851 0.7725710
0 0.8672639 0.7851075
0 0.8674023 0.7844660
0 0.8677535 0.7828571
0.4845177 0.8680378 0.7815202
0.6915463 0.8677852 0.7832290
0.7810800 0.8670480 0.7845237
0.8608347 0.8648814 0.7821785
0.9386165 0.8573681 0.7724329
0 0.9468886 0.7763904
0 0.9469445 0.7755265
0 0.9470639 0.7738292
0 0.9470978 0.7746509
0.6301402 0.9470362 0.7783061
0.7667478 0.9468875 0.7800581
0.8568347 0.9463680 0.7777208
0.9385255 0.9443270 0.7671316
0 0 0.8532596
0 0 0.8532228
0.4592456 0 0.8534217
0.6227569 0 0.8539185
0.7024404 0 0.8540269
0.7794503 0 0.8540086
0.8568118 0 0.8541808
0.9352258 0 0.8492828
0 0 0.8539462
0 0 0.8536285
0.4388766 0 0.8538234
0.6201001 0 0.8542963
0.7016766 0 0.8543870
0.7791005 0 0.8543460
0.8570809 0 0.8544726
0.9353598 0 0.8493239
0 0 0.8556564
0 0 0.8553680
0.2969258 0 0.8547193
0.6112384 0 0.8551933
0.6992317 0 0.8552947
0.7780860 0 0.8552438
0.8577804 0 0.8552506
0.9357114 0 0.8499368
0 0.1236851 0.8573323
0 0 0.8571311
0 0 0.8566599
0.5973985 0 0.8563236
0.6965464 0 0.8564798
0.7774900 0 0.8564486
0.8586026 0 0.8562463
0.9361879 0 0.8519812
0 0.6713434 0.8577344
0 0.6689042 0.8576397
0 0.6617833 0.8574299
0.5885943 0.6527277 0.8573343
0.6987083 0.6523028 0.8576419
0.7796388 0.6391168 0.8575954
0.8592200 0.5774987 0.8571807
0.9367261 0 0.8537279
0 0.7765208 0.8579590
0 0.7755555 0.8579725
0 0.7728436 0.8580400
0.5564215 0.7699360 0.8582250
0.6951618 0.7706073 0.8585573
0.7808904 0.7702443 0.8587300
0.8597111 0.7614800 0.8582827
0.9373996 0.7299114 0.8553711
0 0.8621774 0.8586227
0 0.8622818 0.8587557
0 0.8625398 0.8591117
0 0.8627230 0.8595145
0.6797180 0.8624991 0.8597111
0.7772408 0.8617675 0.8598053
0.8594029 0.8594029 0.8594029
0.9381001 0.8516721 0.8568013
0 0.9448616 0.8565930
0 0.9449170 0.8562585
0 0.9450308 0.8556670
0 0.9450480 0.8563207
0.6043989 0.9449729 0.8580630
0.7620820 0.9448054 0.8591485
0.8556920 0.9442113 0.8592954
0.9379511 0.9420784 0.8566540
0 0 0.9308472
0 0 0.9308458
0 0 0.9309421
0.5219994 0 0.9311313
0.6785098 0 0.9310645
0.7706438 0 0.9309541
0.8521851 0 0.9311500
0.9341432 0 0.9315043
0 0 0.9312440
0 0 0.9310545
0 0 0.9311479
0.5091891 0 0.9313314
0.6765725 0 0.9312569
0.7695673 0 0.9311286
0.8518764 0 0.9313211
0.9342602 0 0.9316369
0 0 0.9323282
0 0 0.9321312
0 0 0.9316616
0.4588506 0 0.9318421
0.6711286 0 0.9317669
0.7668994 0 0.9316204
0.8513499 0 0.9318102
0.9345672 0 0.9319971
0 0 0.9335236
0 0 0.9333454
0 0 0.9329061
0.2756504 0 0.9325511
0.6661694 0 0.9325088
0.7653748 0 0.9323915
0.8519150 0 0.9325468
0.9349986 0 0.9325243
0 0 0.9339315
0 0 0.9337890
0 0 0.9334382
0 0 0.9331727
0.6700527 0 0.9333861
0.7689820 0 0.9333334
0.8541944 0 0.9333836
0.9354887 0 0.9331572
0 0.7325127 0.9342432
0 0.7297856 0.9341344
0 0.7224725 0.9338785
0 0.7157987 0.9337461
0.6650263 0.7197318 0.9340750
0.7710798 0.7208617 0.9343661
0.8556110 0.7049223 0.9343940
0.9361041 0.6249076 0.9340402
0 0.8478832 0.9348926
0 0.8470723 0.9348769
0 0.8452095 0.9348674
0 0.8440214 0.9349592
0.6432476 0.8459024 0.9352612
0.7668584 0.8466551 0.9355256
0.8556641 0.8445350 0.9356693
0.9367337 0.8350475 0.9352784
0 0.9395343 0.9359601
0 0.9395700 0.9360139
0 0.9396404 0.9361464
0 0.9396629 0.9362941
0.4235518 0.9396393 0.9364595
0.7490307 0.9394874 0.9366658
0.8516393 0.9388459 0.9368470
0.9364970 0.9364970 0.9364970
