luts/Inverse_AgX_Base_Rec2100-HLG.cube
TITLE "Inverse AgX_Formation Rec.2100 HLG"
# Inverse of AgX Base Rec.2100-HLG Formation LUT
# This LUT expects input to be Rec.2100 HLG, output to be Rec.2020 Log2 from -10 stops to +6.5 stops
LUT_3D_SIZE 4
0 0 0
0.6121453 0 0.2348692
0.7973274 0 0
0.9990682 0 0
0 0.6239823 0.2538611
0.6131608 0.6197384 0.2774880
0.8007630 0.5731235 0
0.9995497 0 0
0 0.8101242 0
0.5921188 0.8109271 0
0.8017763 0.8092078 0
1.0009042 0.7307848 0
0 1.0119036 0
0 1.0119912 0
0.7463034 1.0121387 0
1.0024958 1.0098413 0
0 0 0.6105729
0.6102353 0 0.6078326
0.7973810 0 0.5903675
0.9990564 0 0
0 0.6151376 0.6118304
0.6108121 0.6108121 0.6108121
0.8002555 0.4971468 0.5624824
0.9995759 0 0
0 0.8089934 0.6122628
0.5503854 0.8102695 0.5825764
0.8015691 0.8080637 0.5067279
1.0009145 0.7301314 0
0 1.0117221 0
0 1.0117781 0
0.7513834 1.0119058 0
1.0024404 1.0095941 0
0 0 0.7918290
0.6070886 0 0.7926295
0.7959307 0 0.7933354
0.9989656 0 0.7585169
0 0.5406967 0.7964999
0.5851112 0.4410285 0.7956724
0.7984263 0 0.7961399
0.9994651 0 0.7635605
0 0.8013484 0.7978341
0.4799242 0.8022819 0.7991746
0.7992968 0.7992968 0.7992968
1.0008022 0.7098802 0.7688063
0 1.0109157 0.7738626
0 1.0109472 0.7791309
0.7526898 1.0109854 0.7843683
1.0022015 1.0085770 0.7448294
0 0 0.9942049
0 0 0.9943095
0.7698128 0 0.9940302
0.9974476 0 0.9948293
0 0 0.9956567
0 0 0.9950274
0.7635652 0 0.9947309
0.9978587 0 0.9953084
0 0.5639488 0.9967532
0 0 0.9962381
0.7711323 0.4491623 0.9967951
0.9989843 0 0.9967152
0 1.0028602 0.9993038
0 1.0029191 0.9994510
0.6919348 1.0029601 0.9998641
1.0000000 1.0000000 1.0000000
