luts/PQ_1000_to_2000_nits.spi1d
Version 1
From 0.0000000 1.0000000
Length 4096
Components 1
{
 0.0000000
 0.0002442
 0.0004884
 0.0007326
 0.0009768
 0.0012210
 0.0014652
 0.0017094
 0.0019536
 0.0021978
 0.0024420
 0.0026862
 0.0029304
 0.0031746
 0.0034188
 0.0036630
 0.0039072
 0.0041514
 0.0043956
 0.0046398
 0.0048840
 0.0051282
 0.0053724
 0.0056166
 0.0058608
 0.0061050
 0.0063492
 0.0065934
 0.0068376
 0.0070818
 0.0073260
 0.0075702
 0.0078144
 0.0080586
 0.0083028
 0.0085470
 0.0087912
 0.0090354
 0.0092796
 0.0095238
 0.0097680
 0.0100122
 0.0102564
 0.0105006
 0.0107448
 0.0109890
 0.0112332
 0.0114774
 0.0117216
 0.0119658
 0.0122100
 0.0124542
 0.0126984
 0.0129426
 0.0131868
 0.0134310
 0.0136752
 0.0139194
 0.0141636
 0.0144078
 0.0146520
 0.0148962
 0.0151404
 0.0153846
 0.0156288
 0.0158730
 0.0161172
 0.0163614
 0.0166056
 0.0168498
 0.0170940
 0.0173382
 0.0175824
 0.0178266
 0.0180708
 0.0183150
 0.0185592
 0.0188034
 0.0190476
 0.0192918
 0.0195360
 0.0197802
 0.0200244
 0.0202686
 0.0205128
 0.0207570
 0.0210012
 0.0212454
 0.0214896
 0.0217338
 0.0219780
 0.0222222
 0.0224664
 0.0227106
 0.0229548
 0.0231990
 0.0234432
 0.0236874
 0.0239316
 0.0241758
 0.0244200
 0.0246642
 0.0249084
 0.0251526
 0.0253968
 0.0256410
 0.0258852
 0.0261294
 0.0263736
 0.0266178
 0.0268620
 0.0271062
 0.0273504
 0.0275946
 0.0278388
 0.0280830
 0.0283272
 0.0285714
 0.0288156
 0.0290598
 0.0293040
 0.0295482
 0.0297924
 0.0300366
 0.0302808
 0.0305250
 0.0307692
 0.0310134
 0.0312576
 0.0315018
 0.0317460
 0.0319902
 0.0322344
 0.0324786
 0.0327228
 0.0329670
 0.0332112
 0.0334554
 0.0336996
 0.0339438
 0.0341880
 0.0344322
 0.0346764
 0.0349206
 0.0351648
 0.0354090
 0.0356532
 0.0358974
 0.0361416
 0.0363858
 0.0366300
 0.0368742
 0.0371184
 0.0373626
 0.0376068
 0.0378510
 0.0380952
 0.0383394
 0.0385836
 0.0388278
 0.0390720
 0.0393162
 0.0395604
 0.0398046
 0.0400488
 0.0402930
 0.0405372
 0.0407814
 0.0410256
 0.0412698
 0.0415140
 0.0417582
 0.0420024
 0.0422466
 0.0424908
 0.0427350
 0.0429792
 0.0432234
 0.0434676
 0.0437118
 0.0439560
 0.0442002
 0.0444444
 0.0446886
 0.0449328
 0.0451770
 0.0454212
 0.0456654
 0.0459096
 0.0461538
 0.0463980
 0.0466422
 0.0468864
 0.0471306
 0.0473748
 0.0476190
 0.0478632
 0.0481074
 0.0483516
 0.0485958
 0.0488400
 0.0490842
 0.0493284
 0.0495726
 0.0498168
 0.0500611
 0.0503053
 0.0505495
 0.0507937
 0.0510379
 0.0512821
 0.0515263
 0.0517705
 0.0520147
 0.0522589
 0.0525031
 0.0527473
 0.0529915
 0.0532357
 0.0534799
 0.0537241
 0.0539683
 0.0542125
 0.0544567
 0.0547009
 0.0549451
 0.0551893
 0.0554335
 0.0556777
 0.0559219
 0.0561661
 0.0564103
 0.0566545
 0.0568987
 0.0571429
 0.0573871
 0.0576313
 0.0578755
 0.0581197
 0.0583639
 0.0586081
 0.0588523
 0.0590965
 0.0593407
 0.0595849
 0.0598291
 0.0600733
 0.0603175
 0.0605617
 0.0608059
 0.0610501
 0.0612943
 0.0615385
 0.0617827
 0.0620269
 0.0622711
 0.0625153
 0.0627595
 0.0630037
 0.0632479
 0.0634921
 0.0637363
 0.0639805
 0.0642247
 0.0644689
 0.0647131
 0.0649573
 0.0652015
 0.0654457
 0.0656899
 0.0659341
 0.0661783
 0.0664225
 0.0666667
 0.0669109
 0.0671551
 0.0673993
 0.0676435
 0.0678877
 0.0681319
 0.0683761
 0.0686203
 0.0688645
 0.0691087
 0.0693529
 0.0695971
 0.0698413
 0.0700855
 0.0703297
 0.0705739
 0.0708181
 0.0710623
 0.0713065
 0.0715507
 0.0717949
 0.0720391
 0.0722833
 0.0725275
 0.0727717
 0.0730159
 0.0732601
 0.0735043
 0.0737485
 0.0739927
 0.0742369
 0.0744811
 0.0747253
 0.0749695
 0.0752137
 0.0754579
 0.0757021
 0.0759463
 0.0761905
 0.0764347
 0.0766789
 0.0769231
 0.0771673
 0.0774115
 0.0776557
 0.0778999
 0.0781441
 0.0783883
 0.0786325
 0.0788767
 0.0791209
 0.0793651
 0.0796093
 0.0798535
 0.0800977
 0.0803419
 0.0805861
 0.0808303
 0.0810745
 0.0813187
 0.0815629
 0.0818071
 0.0820513
 0.0822955
 0.0825397
 0.0827839
 0.0830281
 0.0832723
 0.0835165
 0.0837607
 0.0840049
 0.0842491
 0.0844933
 0.0847375
 0.0849817
 0.0852259
 0.0854701
 0.0857143
 0.0859585
 0.0862027
 0.0864469
 0.0866911
 0.0869353
 0.0871795
 0.0874237
 0.0876679
 0.0879121
 0.0881563
 0.0884005
 0.0886447
 0.0888889
 0.0891331
 0.0893773
 0.0896215
 0.0898657
 0.0901099
 0.0903541
 0.0905983
 0.0908425
 0.0910867
 0.0913309
 0.0915751
 0.0918193
 0.0920635
 0.0923077
 0.0925519
 0.0927961
 0.0930403
 0.0932845
 0.0935287
 0.0937729
 0.0940171
 0.0942613
 0.0945055
 0.0947497
 0.0949939
 0.0952381
 0.0954823
 0.0957265
 0.0959707
 0.0962149
 0.0964591
 0.0967033
 0.0969475
 0.0971917
 0.0974359
 0.0976801
 0.0979243
 0.0981685
 0.0984127
 0.0986569
 0.0989011
 0.0991453
 0.0993895
 0.0996337
 0.0998779
 0.1001221
 0.1003663
 0.1006105
 0.1008547
 0.1010989
 0.1013431
 0.1015873
 0.1018315
 0.1020757
 0.1023199
 0.1025641
 0.1028083
 0.1030525
 0.1032967
 0.1035409
 0.1037851
 0.1040293
 0.1042735
 0.1045177
 0.1047619
 0.1050061
 0.1052503
 0.1054945
 0.1057387
 0.1059829
 0.1062271
 0.1064713
 0.1067155
 0.1069597
 0.1072039
 0.1074481
 0.1076923
 0.1079365
 0.1081807
 0.1084249
 0.1086691
 0.1089133
 0.1091575
 0.1094017
 0.1096459
 0.1098901
 0.1101343
 0.1103785
 0.1106227
 0.1108669
 0.1111111
 0.1113553
 0.1115995
 0.1118437
 0.1120879
 0.1123321
 0.1125763
 0.1128205
 0.1130647
 0.1133089
 0.1135531
 0.1137973
 0.1140415
 0.1142857
 0.1145299
 0.1147741
 0.1150183
 0.1152625
 0.1155067
 0.1157509
 0.1159951
 0.1162393
 0.1164835
 0.1167277
 0.1169719
 0.1172161
 0.1174603
 0.1177045
 0.1179487
 0.1181929
 0.1184371
 0.1186813
 0.1189255
 0.1191697
 0.1194139
 0.1196581
 0.1199023
 0.1201465
 0.1203907
 0.1206349
 0.1208791
 0.1211233
 0.1213675
 0.1216117
 0.1218559
 0.1221001
 0.1223443
 0.1225885
 0.1228327
 0.1230769
 0.1233211
 0.1235653
 0.1238095
 0.1240537
 0.1242979
 0.1245421
 0.1247863
 0.1250305
 0.1252747
 0.1255189
 0.1257631
 0.1260073
 0.1262515
 0.1264957
 0.1267399
 0.1269841
 0.1272283
 0.1274725
 0.1277167
 0.1279609
 0.1282051
 0.1284493
 0.1286935
 0.1289377
 0.1291819
 0.1294261
 0.1296703
 0.1299145
 0.1301587
 0.1304029
 0.1306471
 0.1308913
 0.1311355
 0.1313797
 0.1316239
 0.1318681
 0.1321123
 0.1323565
 0.1326007
 0.1328449
 0.1330891
 0.1333333
 0.1335775
 0.1338217
 0.1340659
 0.1343101
 0.1345543
 0.1347985
 0.1350427
 0.1352869
 0.1355311
 0.1357753
 0.1360195
 0.1362637
 0.1365079
 0.1367521
 0.1369963
 0.1372405
 0.1374847
 0.1377289
 0.1379731
 0.1382173
 0.1384615
 0.1387057
 0.1389499
 0.1391941
 0.1394383
 0.1396825
 0.1399267
 0.1401709
 0.1404151
 0.1406593
 0.1409035
 0.1411477
 0.1413919
 0.1416361
 0.1418803
 0.1421245
 0.1423687
 0.1426129
 0.1428571
 0.1431013
 0.1433455
 0.1435897
 0.1438339
 0.1440781
 0.1443223
 0.1445665
 0.1448107
 0.1450549
 0.1452991
 0.1455433
 0.1457875
 0.1460317
 0.1462759
 0.1465201
 0.1467643
 0.1470085
 0.1472527
 0.1474969
 0.1477411
 0.1479853
 0.1482295
 0.1484737
 0.1487179
 0.1489621
 0.1492063
 0.1494505
 0.1496947
 0.1499389
 0.1501832
 0.1504274
 0.1506716
 0.1509158
 0.1511600
 0.1514042
 0.1516484
 0.1518926
 0.1521368
 0.1523810
 0.1526252
 0.1528694
 0.1531136
 0.1533578
 0.1536020
 0.1538462
 0.1540904
 0.1543346
 0.1545788
 0.1548230
 0.1550672
 0.1553114
 0.1555556
 0.1557998
 0.1560440
 0.1562882
 0.1565324
 0.1567766
 0.1570208
 0.1572650
 0.1575092
 0.1577534
 0.1579976
 0.1582418
 0.1584860
 0.1587302
 0.1589744
 0.1592186
 0.1594628
 0.1597070
 0.1599512
 0.1601954
 0.1604396
 0.1606838
 0.1609280
 0.1611722
 0.1614164
 0.1616606
 0.1619048
 0.1621490
 0.1623932
 0.1626374
 0.1628816
 0.1631258
 0.1633700
 0.1636142
 0.1638584
 0.1641026
 0.1643468
 0.1645910
 0.1648352
 0.1650794
 0.1653236
 0.1655678
 0.1658120
 0.1660562
 0.1663004
 0.1665446
 0.1667888
 0.1670330
 0.1672772
 0.1675214
 0.1677656
 0.1680098
 0.1682540
 0.1684982
 0.1687424
 0.1689866
 0.1692308
 0.1694750
 0.1697192
 0.1699634
 0.1702076
 0.1704518
 0.1706960
 0.1709402
 0.1711844
 0.1714286
 0.1716728
 0.1719170
 0.1721612
 0.1724054
 0.1726496
 0.1728938
 0.1731380
 0.1733822
 0.1736264
 0.1738706
 0.1741148
 0.1743590
 0.1746032
 0.1748474
 0.1750916
 0.1753358
 0.1755800
 0.1758242
 0.1760684
 0.1763126
 0.1765568
 0.1768010
 0.1770452
 0.1772894
 0.1775336
 0.1777778
 0.1780220
 0.1782662
 0.1785104
 0.1787546
 0.1789988
 0.1792430
 0.1794872
 0.1797314
 0.1799756
 0.1802198
 0.1804640
 0.1807082
 0.1809524
 0.1811966
 0.1814408
 0.1816850
 0.1819292
 0.1821734
 0.1824176
 0.1826618
 0.1829060
 0.1831502
 0.1833944
 0.1836386
 0.1838828
 0.1841270
 0.1843712
 0.1846154
 0.1848596
 0.1851038
 0.1853480
 0.1855922
 0.1858364
 0.1860806
 0.1863248
 0.1865690
 0.1868132
 0.1870574
 0.1873016
 0.1875458
 0.1877900
 0.1880342
 0.1882784
 0.1885226
 0.1887668
 0.1890110
 0.1892552
 0.1894994
 0.1897436
 0.1899878
 0.1902320
 0.1904762
 0.1907204
 0.1909646
 0.1912088
 0.1914530
 0.1916972
 0.1919414
 0.1921856
 0.1924298
 0.1926740
 0.1929182
 0.1931624
 0.1934066
 0.1936508
 0.1938950
 0.1941392
 0.1943834
 0.1946276
 0.1948718
 0.1951160
 0.1953602
 0.1956044
 0.1958486
 0.1960928
 0.1963370
 0.1965812
 0.1968254
 0.1970696
 0.1973138
 0.1975580
 0.1978022
 0.1980464
 0.1982906
 0.1985348
 0.1987790
 0.1990232
 0.1992674
 0.1995116
 0.1997558
 0.2000000
 0.2002442
 0.2004884
 0.2007326
 0.2009768
 0.2012210
 0.2014652
 0.2017094
 0.2019536
 0.2021978
 0.2024420
 0.2026862
 0.2029304
 0.2031746
 0.2034188
 0.2036630
 0.2039072
 0.2041514
 0.2043956
 0.2046398
 0.2048840
 0.2051282
 0.2053724
 0.2056166
 0.2058608
 0.2061050
 0.2063492
 0.2065934
 0.2068376
 0.2070818
 0.2073260
 0.2075702
 0.2078144
 0.2080586
 0.2083028
 0.2085470
 0.2087912
 0.2090354
 0.2092796
 0.2095238
 0.2097680
 0.2100122
 0.2102564
 0.2105006
 0.2107448
 0.2109890
 0.2112332
 0.2114774
 0.2117216
 0.2119658
 0.2122100
 0.2124542
 0.2126984
 0.2129426
 0.2131868
 0.2134310
 0.2136752
 0.2139194
 0.2141636
 0.2144078
 0.2146520
 0.2148962
 0.2151404
 0.2153846
 0.2156288
 0.2158730
 0.2161172
 0.2163614
 0.2166056
 0.2168498
 0.2170940
 0.2173382
 0.2175824
 0.2178266
 0.2180708
 0.2183150
 0.2185592
 0.2188034
 0.2190476
 0.2192918
 0.2195360
 0.2197802
 0.2200244
 0.2202686
 0.2205128
 0.2207570
 0.2210012
 0.2212454
 0.2214896
 0.2217338
 0.2219780
 0.2222222
 0.2224664
 0.2227106
 0.2229548
 0.2231990
 0.2234432
 0.2236874
 0.2239316
 0.2241758
 0.2244200
 0.2246642
 0.2249084
 0.2251526
 0.2253968
 0.2256410
 0.2258852
 0.2261294
 0.2263736
 0.2266178
 0.2268620
 0.2271062
 0.2273504
 0.2275946
 0.2278388
 0.2280830
 0.2283272
 0.2285714
 0.2288156
 0.2290598
 0.2293040
 0.2295482
 0.2297924
 0.2300366
 0.2302808
 0.2305250
 0.2307692
 0.2310134
 0.2312576
 0.2315018
 0.2317460
 0.2319902
 0.2322344
 0.2324786
 0.2327228
 0.2329670
 0.2332112
 0.2334554
 0.2336996
 0.2339438
 0.2341880
 0.2344322
 0.2346764
 0.2349206
 0.2351648
 0.2354090
 0.2356532
 0.2358974
 0.2361416
 0.2363858
 0.2366300
 0.2368742
 0.2371184
 0.2373626
 0.2376068
 0.2378510
 0.2380952
 0.2383394
 0.2385836
 0.2388278
 0.2390720
 0.2393162
 0.2395604
 0.2398046
 0.2400488
 0.2402930
 0.2405372
 0.2407814
 0.2410256
 0.2412698
 0.2415140
 0.2417582
 0.2420024
 0.2422466
 0.2424908
 0.2427350
 0.2429792
 0.2432234
 0.2434676
 0.2437118
 0.2439560
 0.2442002
 0.2444444
 0.2446886
 0.2449328
 0.2451770
 0.2454212
 0.2456654
 0.2459096
 0.2461538
 0.2463980
 0.2466422
 0.2468864
 0.2471306
 0.2473748
 0.2476190
 0.2478632
 0.2481074
 0.2483516
 0.2485958
 0.2488400
 0.2490842
 0.2493284
 0.2495726
 0.2498168
 0.2500611
 0.2503053
 0.2505495
 0.2507937
 0.2510379
 0.2512821
 0.2515263
 0.2517705
 0.2520147
 0.2522589
 0.2525031
 0.2527473
 0.2529915
 0.2532357
 0.2534799
 0.2537241
 0.2539683
 0.2542125
 0.2544567
 0.2547009
 0.2549451
 0.2551893
 0.2554335
 0.2556777
 0.2559219
 0.2561661
 0.2564103
 0.2566545
 0.2568987
 0.2571429
 0.2573871
 0.2576313
 0.2578755
 0.2581197
 0.2583639
 0.2586081
 0.2588523
 0.2590965
 0.2593407
 0.2595849
 0.2598291
 0.2600733
 0.2603175
 0.2605617
 0.2608059
 0.2610501
 0.2612943
 0.2615385
 0.2617827
 0.2620269
 0.2622711
 0.2625153
 0.2627595
 0.2630037
 0.2632479
 0.2634921
 0.2637363
 0.2639805
 0.2642247
 0.2644689
 0.2647131
 0.2649573
 0.2652015
 0.2654457
 0.2656899
 0.2659341
 0.2661783
 0.2664225
 0.2666667
 0.2669109
 0.2671551
 0.2673993
 0.2676435
 0.2678877
 0.2681319
 0.2683761
 0.2686203
 0.2688645
 0.2691087
 0.2693529
 0.2695971
 0.2698413
 0.2700855
 0.2703297
 0.2705739
 0.2708181
 0.2710623
 0.2713065
 0.2715507
 0.2717949
 0.2720391
 0.2722833
 0.2725275
 0.2727717
 0.2730159
 0.2732601
 0.2735043
 0.2737485
 0.2739927
 0.2742369
 0.2744811
 0.2747253
 0.2749695
 0.2752137
 0.2754579
 0.2757021
 0.2759463
 0.2761905
 0.2764347
 0.2766789
 0.2769231
 0.2771673
 0.2774115
 0.2776557
 0.2778999
 0.2781441
 0.2783883
 0.2786325
 0.2788767
 0.2791209
 0.2793651
 0.2796093
 0.2798535
 0.2800977
 0.2803419
 0.2805861
 0.2808303
 0.2810745
 0.2813187
 0.2815629
 0.2818071
 0.2820513
 0.2822955
 0.2825397
 0.2827839
 0.2830281
 0.2832723
 0.2835165
 0.2837607
 0.2840049
 0.2842491
 0.2844933
 0.2847375
 0.2849817
 0.2852259
 0.2854701
 0.2857143
 0.2859585
 0.2862027
 0.2864469
 0.2866911
 0.2869353
 0.2871795
 0.2874237
 0.2876679
 0.2879121
 0.2881563
 0.2884005
 0.2886447
 0.2888889
 0.2891331
 0.2893773
 0.2896215
 0.2898657
 0.2901099
 0.2903541
 0.2905983
 0.2908425
 0.2910867
 0.2913309
 0.2915751
 0.2918193
 0.2920635
 0.2923077
 0.2925519
 0.2927961
 0.2930403
 0.2932845
 0.2935287
 0.2937729
 0.2940171
 0.2942613
 0.2945055
 0.2947497
 0.2949939
 0.2952381
 0.2954823
 0.2957265
 0.2959707
 0.2962149
 0.2964591
 0.2967033
 0.2969475
 0.2971917
 0.2974359
 0.2976801
 0.2979243
 0.2981685
 0.2984127
 0.2986569
 0.2989011
 0.2991453
 0.2993895
 0.2996337
 0.2998779
 0.3001221
 0.3003663
 0.3006105
 0.3008547
 0.3010989
 0.3013431
 0.3015873
 0.3018315
 0.3020757
 0.3023199
 0.3025641
 0.3028083
 0.3030525
 0.3032967
 0.3035409
 0.3037851
 0.3040293
 0.3042735
 0.3045177
 0.3047619
 0.3050061
 0.3052503
 0.3054945
 0.3057387
 0.3059829
 0.3062271
 0.3064713
 0.3067155
 0.3069597
 0.3072039
 0.3074481
 0.3076923
 0.3079365
 0.3081807
 0.3084249
 0.3086691
 0.3089133
 0.3091575
 0.3094017
 0.3096459
 0.3098901
 0.3101343
 0.3103785
 0.3106227
 0.3108669
 0.3111111
 0.3113553
 0.3115995
 0.3118437
 0.3120879
 0.3123321
 0.3125763
 0.3128205
 0.3130647
 0.3133089
 0.3135531
 0.3137973
 0.3140415
 0.3142857
 0.3145299
 0.3147741
 0.3150183
 0.3152625
 0.3155067
 0.3157509
 0.3159951
 0.3162393
 0.3164835
 0.3167277
 0.3169719
 0.3172161
 0.3174603
 0.3177045
 0.3179487
 0.3181929
 0.3184371
 0.3186813
 0.3189255
 0.3191697
 0.3194139
 0.3196581
 0.3199023
 0.3201465
 0.3203907
 0.3206349
 0.3208791
 0.3211233
 0.3213675
 0.3216117
 0.3218559
 0.3221001
 0.3223443
 0.3225885
 0.3228327
 0.3230769
 0.3233211
 0.3235653
 0.3238095
 0.3240537
 0.3242979
 0.3245421
 0.3247863
 0.3250305
 0.3252747
 0.3255189
 0.3257631
 0.3260073
 0.3262515
 0.3264957
 0.3267399
 0.3269841
 0.3272283
 0.3274725
 0.3277167
 0.3279609
 0.3282051
 0.3284493
 0.3286935
 0.3289377
 0.3291819
 0.3294261
 0.3296703
 0.3299145
 0.3301587
 0.3304029
 0.3306471
 0.3308913
 0.3311355
 0.3313797
 0.3316239
 0.3318681
 0.3321123
 0.3323565
 0.3326007
 0.3328449
 0.3330891
 0.3333333
 0.3335775
 0.3338217
 0.3340659
 0.3343101
 0.3345543
 0.3347985
 0.3350427
 0.3352869
 0.3355311
 0.3357753
 0.3360195
 0.3362637
 0.3365079
 0.3367521
 0.3369963
 0.3372405
 0.3374847
 0.3377289
 0.3379731
 0.3382173
 0.3384615
 0.3387057
 0.3389499
 0.3391941
 0.3394383
 0.3396825
 0.3399267
 0.3401709
 0.3404151
 0.3406593
 0.3409035
 0.3411477
 0.3413919
 0.3416361
 0.3418803
 0.3421245
 0.3423687
 0.3426129
 0.3428571
 0.3431013
 0.3433455
 0.3435897
 0.3438339
 0.3440781
 0.3443223
 0.3445665
 0.3448107
 0.3450549
 0.3452991
 0.3455433
 0.3457875
 0.3460317
 0.3462759
 0.3465201
 0.3467643
 0.3470085
 0.3472527
 0.3474969
 0.3477411
 0.3479882
 0.3482781
 0.3485680
 0.3488579
 0.3491478
 0.3494378
 0.3497277
 0.3500176
 0.3503075
 0.3505974
 0.3508873
 0.3511772
 0.3514671
 0.3517570
 0.3520469
 0.3523368
 0.3526267
 0.3529166
 0.3532065
 0.3534965
 0.3537864
 0.3540763
 0.3543662
 0.3546561
 0.3549460
 0.3552359
 0.3555258
 0.3558157
 0.3561056
 0.3563955
 0.3566854
 0.3569753
 0.3572652
 0.3575551
 0.3578451
 0.3581350
 0.3584249
 0.3587148
 0.3590047
 0.3592946
 0.3595845
 0.3598744
 0.3601643
 0.3604542
 0.3607441
 0.3610340
 0.3613239
 0.3616138
 0.3619038
 0.3621937
 0.3624836
 0.3627735
 0.3630634
 0.3633533
 0.3636432
 0.3639331
 0.3642230
 0.3645129
 0.3648028
 0.3650927
 0.3653826
 0.3656725
 0.3659624
 0.3662524
 0.3665423
 0.3668322
 0.3671221
 0.3674120
 0.3677019
 0.3679918
 0.3682817
 0.3685716
 0.3688615
 0.3691514
 0.3694413
 0.3697312
 0.3700211
 0.3703111
 0.3706010
 0.3708909
 0.3711808
 0.3714707
 0.3717606
 0.3720505
 0.3723404
 0.3726303
 0.3729202
 0.3732101
 0.3735000
 0.3737899
 0.3740798
 0.3743698
 0.3746597
 0.3749496
 0.3752395
 0.3755294
 0.3758193
 0.3761092
 0.3763991
 0.3766890
 0.3769789
 0.3772688
 0.3775587
 0.3778486
 0.3781385
 0.3784284
 0.3787184
 0.3790083
 0.3792982
 0.3795881
 0.3798780
 0.3801679
 0.3804578
 0.3807477
 0.3810376
 0.3813275
 0.3816174
 0.3819073
 0.3821972
 0.3824871
 0.3827771
 0.3830670
 0.3833569
 0.3836468
 0.3839367
 0.3842266
 0.3845165
 0.3848064
 0.3850963
 0.3853862
 0.3856761
 0.3859660
 0.3862559
 0.3865458
 0.3868357
 0.3871257
 0.3874156
 0.3877055
 0.3879954
 0.3882853
 0.3885752
 0.3888651
 0.3891550
 0.3894449
 0.3897348
 0.3900247
 0.3903146
 0.3906045
 0.3908944
 0.3911844
 0.3914743
 0.3917642
 0.3920541
 0.3923440
 0.3926339
 0.3929238
 0.3932137
 0.3935036
 0.3937935
 0.3940834
 0.3943733
 0.3946632
 0.3949531
 0.3952430
 0.3955330
 0.3958229
 0.3961128
 0.3964027
 0.3966926
 0.3969825
 0.3972724
 0.3975623
 0.3978522
 0.3981421
 0.3984320
 0.3987219
 0.3990118
 0.3993017
 0.3995917
 0.3998816
 0.4001715
 0.4004614
 0.4007513
 0.4010412
 0.4013311
 0.4016210
 0.4019109
 0.4022008
 0.4024907
 0.4027806
 0.4030705
 0.4033604
 0.4036503
 0.4039403
 0.4042302
 0.4045201
 0.4048100
 0.4050999
 0.4053898
 0.4056797
 0.4059696
 0.4062595
 0.4065494
 0.4068393
 0.4071292
 0.4074191
 0.4077090
 0.4079990
 0.4082889
 0.4085788
 0.4088687
 0.4091586
 0.4094485
 0.4097384
 0.4100283
 0.4103182
 0.4106081
 0.4108980
 0.4111879
 0.4114778
 0.4117677
 0.4120576
 0.4123476
 0.4126375
 0.4129274
 0.4132173
 0.4135072
 0.4137971
 0.4140870
 0.4143769
 0.4146668
 0.4149567
 0.4152466
 0.4155365
 0.4158264
 0.4161163
 0.4164063
 0.4166962
 0.4169861
 0.4172760
 0.4175659
 0.4178558
 0.4181457
 0.4184356
 0.4187255
 0.4190154
 0.4193053
 0.4195952
 0.4198851
 0.4201750
 0.4204649
 0.4207549
 0.4210448
 0.4213347
 0.4216246
 0.4219145
 0.4222044
 0.4224943
 0.4227842
 0.4230741
 0.4233640
 0.4236539
 0.4239438
 0.4242337
 0.4245236
 0.4248136
 0.4251035
 0.4253934
 0.4256833
 0.4259732
 0.4262631
 0.4265530
 0.4268429
 0.4271328
 0.4274227
 0.4277126
 0.4280025
 0.4282924
 0.4285823
 0.4288723
 0.4291622
 0.4294521
 0.4297420
 0.4300319
 0.4303218
 0.4306117
 0.4309016
 0.4311915
 0.4314814
 0.4317713
 0.4320612
 0.4323511
 0.4326410
 0.4329309
 0.4332209
 0.4335108
 0.4338007
 0.4340906
 0.4343805
 0.4346704
 0.4349603
 0.4352502
 0.4355401
 0.4358300
 0.4361199
 0.4364098
 0.4366997
 0.4369896
 0.4372796
 0.4375695
 0.4378594
 0.4381493
 0.4384392
 0.4387291
 0.4390190
 0.4393089
 0.4395988
 0.4398887
 0.4401786
 0.4404685
 0.4407584
 0.4410483
 0.4413382
 0.4416282
 0.4419181
 0.4422080
 0.4424979
 0.4427878
 0.4430777
 0.4433676
 0.4436575
 0.4439474
 0.4442373
 0.4445272
 0.4448171
 0.4451070
 0.4453969
 0.4456869
 0.4459768
 0.4462667
 0.4465566
 0.4468465
 0.4471364
 0.4474263
 0.4477162
 0.4480061
 0.4482960
 0.4485859
 0.4488758
 0.4491657
 0.4494556
 0.4497455
 0.4500355
 0.4503254
 0.4506153
 0.4509052
 0.4511951
 0.4514850
 0.4517749
 0.4520648
 0.4523547
 0.4526446
 0.4529345
 0.4532244
 0.4535143
 0.4538042
 0.4540942
 0.4543841
 0.4546740
 0.4549639
 0.4552538
 0.4555437
 0.4558336
 0.4561235
 0.4564134
 0.4567033
 0.4569932
 0.4572831
 0.4575730
 0.4578629
 0.4581528
 0.4584428
 0.4587327
 0.4590226
 0.4593125
 0.4596024
 0.4598923
 0.4601822
 0.4604721
 0.4607620
 0.4610519
 0.4613418
 0.4616317
 0.4619216
 0.4622115
 0.4625015
 0.4627914
 0.4630813
 0.4633712
 0.4636611
 0.4639510
 0.4642409
 0.4645308
 0.4648207
 0.4651106
 0.4654005
 0.4656904
 0.4659803
 0.4662702
 0.4665601
 0.4668501
 0.4671400
 0.4674299
 0.4677198
 0.4680097
 0.4682996
 0.4685895
 0.4688794
 0.4691693
 0.4694592
 0.4697491
 0.4700390
 0.4703289
 0.4706188
 0.4709088
 0.4711987
 0.4714886
 0.4717785
 0.4720684
 0.4723583
 0.4726482
 0.4729381
 0.4732280
 0.4735179
 0.4738078
 0.4740977
 0.4743876
 0.4746775
 0.4749675
 0.4752574
 0.4755473
 0.4758372
 0.4761271
 0.4764170
 0.4767069
 0.4769968
 0.4772867
 0.4775766
 0.4778665
 0.4781564
 0.4784463
 0.4787362
 0.4790261
 0.4793161
 0.4796060
 0.4798959
 0.4801858
 0.4804757
 0.4807656
 0.4810555
 0.4813454
 0.4816353
 0.4819252
 0.4822151
 0.4825050
 0.4827949
 0.4830848
 0.4833748
 0.4836647
 0.4839546
 0.4842445
 0.4845344
 0.4848243
 0.4851142
 0.4854041
 0.4856940
 0.4859839
 0.4862738
 0.4865637
 0.4868536
 0.4871435
 0.4874334
 0.4877234
 0.4880133
 0.4883032
 0.4885931
 0.4888830
 0.4891729
 0.4894628
 0.4897527
 0.4900426
 0.4903325
 0.4906224
 0.4909123
 0.4912022
 0.4914921
 0.4917821
 0.4920720
 0.4923619
 0.4926518
 0.4929417
 0.4932316
 0.4935215
 0.4938114
 0.4941013
 0.4943912
 0.4946811
 0.4949710
 0.4952609
 0.4955508
 0.4958407
 0.4961307
 0.4964206
 0.4967105
 0.4970004
 0.4972903
 0.4975802
 0.4978701
 0.4981600
 0.4984499
 0.4987398
 0.4990297
 0.4993196
 0.4996095
 0.4998994
 0.5001894
 0.5004793
 0.5007692
 0.5010591
 0.5013490
 0.5016389
 0.5019288
 0.5022187
 0.5025086
 0.5027985
 0.5030884
 0.5033783
 0.5036682
 0.5039581
 0.5042480
 0.5045380
 0.5048279
 0.5051178
 0.5054077
 0.5056976
 0.5059875
 0.5062774
 0.5065673
 0.5068572
 0.5071471
 0.5074370
 0.5077269
 0.5080168
 0.5083067
 0.5085967
 0.5088866
 0.5091765
 0.5094664
 0.5097563
 0.5100462
 0.5103361
 0.5106260
 0.5109159
 0.5112058
 0.5114957
 0.5117856
 0.5120755
 0.5123654
 0.5126553
